/* XPM */
static char *result[] = {
/* columns rows colors chars-per-pixel */
"64 64 246 2 ",
"   c #0B143C",
".  c #091236",
"X  c #2B2D35",
"o  c #2A2D3B",
"O  c #322C39",
"+  c #0C1443",
"@  c #0D1944",
"#  c #0D1B4B",
"$  c #0D164C",
"%  c #111A4A",
"&  c #0E1C53",
"*  c #0F1C59",
"=  c #131D54",
"-  c #131C5C",
";  c #131855",
":  c #12214D",
">  c #132255",
",  c #13225B",
"<  c #19225B",
"1  c #0D2158",
"2  c #2C2E49",
"3  c #293147",
"4  c #383547",
"5  c #293657",
"6  c #302B48",
"7  c #191C66",
"8  c #171F6F",
"9  c #241F78",
"0  c #0F2368",
"q  c #142263",
"w  c #1A2563",
"e  c #14246C",
"r  c #1B256B",
"t  c #1C2B6C",
"y  c #162B65",
"u  c #142473",
"i  c #1C2B73",
"p  c #192878",
"a  c #1C3379",
"s  c #232B7D",
"d  c #232A75",
"f  c #26367A",
"g  c #333978",
"h  c #2D3369",
"j  c #44385E",
"k  c #334571",
"l  c #44444F",
"z  c #565565",
"x  c #484575",
"c  c #6B6B77",
"v  c #605A64",
"b  c #182986",
"n  c #1B3687",
"m  c #1B3396",
"M  c #232C83",
"N  c #29298A",
"B  c #24328C",
"V  c #253788",
"C  c #343A85",
"Z  c #282995",
"A  c #293697",
"S  c #35379A",
"D  c #372798",
"F  c #1937A8",
"G  c #362CA7",
"H  c #2C37A6",
"J  c #3536A8",
"K  c #3836B8",
"L  c #2833B4",
"P  c #453B90",
"I  c #442CA8",
"U  c #492EB2",
"Y  c #5730B8",
"T  c #374389",
"R  c #28429B",
"E  c #394795",
"W  c #395598",
"Q  c #274E8B",
"!  c #344AAA",
"~  c #2D48B8",
"^  c #2E56B7",
"/  c #324EB0",
"(  c #2A57BB",
")  c #4A588D",
"_  c #565A89",
"`  c #4D4C95",
"'  c #624B98",
"]  c #516B8E",
"[  c #64658B",
"{  c #6A6B96",
"}  c #7A7B96",
"|  c #707293",
" . c #4B4DB3",
".. c #6F57A8",
"X. c #5069AC",
"o. c #7878A5",
"O. c #716EB7",
"+. c #3D37C6",
"@. c #473AD5",
"#. c #5935CC",
"$. c #6535C9",
"%. c #7933D9",
"&. c #6D36CE",
"*. c #503EE8",
"=. c #3B47CC",
"-. c #3958C4",
";. c #2D4BD7",
":. c #3A49D4",
">. c #2A58D7",
",. c #3650D5",
"<. c #3C69D3",
"1. c #326ACF",
"2. c #3852E3",
"3. c #3877E6",
"4. c #3A6EEC",
"5. c #4549C7",
"6. c #4347D6",
"7. c #5258D2",
"8. c #4E6AD3",
"9. c #6D70CF",
"0. c #4943E5",
"q. c #5B46F7",
"w. c #534EE8",
"e. c #665DF6",
"r. c #7754FB",
"t. c #684CF1",
"y. c #5467ED",
"u. c #4875EF",
"i. c #7668FB",
"p. c #7576F8",
"a. c #696FF0",
"s. c #877B94",
"d. c #81778C",
"f. c #837DA3",
"g. c #8D7BBD",
"h. c #9337EB",
"j. c #B23BFB",
"k. c #8135D5",
"l. c #8F7BCF",
"z. c #8C59FD",
"x. c #8D57F4",
"c. c #A25DFE",
"v. c #8C69FC",
"b. c #A76AFC",
"n. c #B669FC",
"m. c #B577C7",
"M. c #D977FC",
"N. c #CC73F8",
"B. c #EF78FC",
"V. c #E353FD",
"C. c #6D8BAF",
"Z. c #78A7BE",
"A. c #738592",
"S. c #3A84ED",
"D. c #5287C2",
"F. c #6F92CC",
"G. c #5786FA",
"H. c #4095F5",
"J. c #5291F3",
"K. c #7686FD",
"L. c #6898FC",
"P. c #6A88F4",
"I. c #49A4FC",
"U. c #51B6FD",
"Y. c #76A5EA",
"T. c #73ADFA",
"R. c #57CFFC",
"E. c #6BCBFD",
"W. c #70EBFB",
"Q. c #89849E",
"!. c #91869C",
"~. c #8987A6",
"^. c #9486A6",
"/. c #8E91B2",
"(. c #A793B5",
"). c #A3A6B9",
"_. c #AEB3BE",
"`. c #85AABF",
"'. c #9485C5",
"]. c #9193CE",
"[. c #AF92CE",
"{. c #95A8C6",
"}. c #99B6D7",
"|. c #8AAACD",
" X c #A8A5C5",
".X c #B8A9D9",
"XX c #A8B7D6",
"oX c #B4B2CE",
"OX c #8688FC",
"+X c #8898FB",
"@X c #958EF5",
"#X c #A695F7",
"$X c #87A8FE",
"%X c #96A6FB",
"&X c #84B5FE",
"*X c #9CB7FB",
"=X c #91A0EE",
"-X c #A7BBE8",
";X c #B5B5E8",
":X c #A8BAF9",
">X c #B5AEF5",
",X c #C99AD8",
"<X c #C8ACD4",
"1X c #EF8FF6",
"2X c #C3B8E9",
"3X c #D6BAE9",
"4X c #C9B9F4",
"5X c #CCAFE9",
"6X c #F1AAF4",
"7X c #AAC6DD",
"8X c #B1C7DF",
"9X c #8BC8F8",
"0X c #97C9FD",
"qX c #91D5F6",
"wX c #BCC7EB",
"eX c #BBD6E6",
"rX c #A5C4FB",
"tX c #B7C9F8",
"yX c #A8D9FE",
"uX c #B2DBFC",
"iX c #AFCFE2",
"pX c #8CF1FC",
"aX c #AAE3FE",
"sX c #B7E7FA",
"dX c #BDF7FD",
"fX c #A1FAFC",
"gX c #93C1DF",
"hX c #C9C9D4",
"jX c #C8C6F2",
"kX c #D7DAF3",
"lX c #CDCDEB",
"zX c #E6D9F6",
"xX c #EEC7F0",
"cX c #DBE9EA",
"vX c #C5E9F9",
"bX c #D7ECF4",
"nX c #C3F5FD",
"mX c #CBFAFD",
"MX c #D2FCFD",
"NX c #D9F9FD",
"BX c #C4E4ED",
"VX c #ECE3F6",
"CX c #F3E8F9",
"ZX c #E6F8FB",
"AX c #F5F9FD",
"SX c None",
/* pixels */
"SXSXSXSXSXSXSXSXSXSXSXSXSXSXSXSXSXSXSXSXSXSXSXSXSXSXSXSXSXSXSXSXSXSXSXSXSXSXSXSXSXSXSXSXSXSXSXSXSXSXSXSXSXSXSXSXSXSXSXSXSXSXSXSX",
"SXSXSXSXSXSXSXSXSXSXSXSXSXSXSXSXSXSXSXSXSXSXSXSXSXSXSXSXSXSXSXSXSXSXSXSXSXSXSXSXSXSXSXSXSXSXSXSXSXSXSXSXSXSXSXSXSXSXSXSXSXSXSXSX",
"SXSXSXSXSXSXSXSXSXSXSXSXSXSXSXSXSXSXSXSXSXSXSXSXSXSXSXSXSXSXSXSXSXSXSXSXSXSXSXSXSXSXSXSXSXSXSXSXSXSXSXSXSXSXSXSXSXSXSXSXSXSXSXSX",
"SXSXSXSXSXSXSXSXSXSXSXSXSXSXSXSXSXSXSXSXSXSXSXSXSXSXSXSXSXSXSXSXSXSXSXSXSXSXSXSXSXSXSXSXSXSXSXSXSXSXSXSXSXSXSXSXSXSXSXSXSXSXSXSX",
"SXSXSXSXSXSXSXSXSXSXSXSXSXSXSXSXSXSXSXSXSXSXSXSXSXSXSXSXSXSXSXSXSXSXSXSXSXSXSXSXSXSXSXSXSXSXSXSXSXSXSXSXSXSXSXSXSXSXSXSXSXSXSXSX",
"SXSXSXSXSXSXSXSXSXSXSXSXSXSXSXSXSXSXSXSXSXSXSXSXSXSXSXSXSXSXSXSXSXSXSXSXSXSXSXSXSXSXSXSXSXSXSXSXSXSXSXSXSXSXSX<XSXSXSXSXSXSXSXSX",
"SXSXSXSX].SXSXSXSXSXSXSXSXSXSXSXSXSXSXSXSXz.SXSXSXSXSXSXSXSXSXSXSXSXSXSXSXSXSXSXSXSXSXSXSXSXSXSXSXSXSXSXSXSXxXSXSXSXSXSXSXSXSXSX",
"SXSXSXSXSXXXSXSXSXSXSXSXSXSXSXSXSXSXSXSXSXz.z.SXSXSXSXSXSXSXSXSXSXSXSXSXSXSXSXSXSXSXSXSXSXSXSXSXSXSXSXSXSX6Xs.SXSXSXSXSXSXSXSXSX",
"SXSXSXSXSXx wXSXSXSXSXSXSXSXSXSXSXSXSXSXSX#Xr.OXSXSXSXSXSXSXSXSXSXSXSXSXSXSXSXSXSXSXSXSXSXSXSXSXSXSXSXSX1X1XSXSXSXSXSXSXSXSXSXSX",
"SXSXSXSXSXSX) kXSXSXSXSXSXSXSXSXSXSXSXSXSXc @Xe.rXSXSXSXSXSXSXSXSXSXSXSXSXSXSXSXSXSXSXSXSXSXSXSXSXSXSXB.B.(.SXSXSXSXSXSXSXSXSXSX",
"SXSXSXSXSXSXSXO.bXSXSXSXSXSXSXSXSXSXSXSXSXSXs.OXG.vXSXSXSXSXSXSXSXSXSXSXSXSXSXSXSXSXSXSXSXSXSXSXSX.XM.V.B.v SXSXSXSXSXSXSXSXSXSX",
"SXSXSXSXSXSXSXg {.CX@XSXSXSXSXSXSXSXSXSXSXSXSX~.p.G.9XSXSXSXSXSXSXSXSXSXSXSXSXSXSXSXSXSXSXSXSXSXSXn.j.j.N.SXSXSXSXSXSXSXSXSXSXSX",
"SXSXSXSXSXSXSXSXC lXAXkXjXjXwXtXjXvXkXNXZXcXSXSX].4.4.Y.SXSXSXSXSXSXSXSXSXSXSXSXSXSXSXSXSXSXSXSXx.h.h.j.m.SXSXSXSXSXSXSXSXSXSXSX",
"SXSXSXSXSXSXSXSXSX..VXCX>X+XK.G.u.L.L.T.qXsXbXSXSX].;.<.Y.SXSXSXSXSXSXSXSXSXSXSXSXSXSXSXSXSX4X9.&.k.h.h.[.SXSXSXSXSXSXSXSXSXSXSX",
"SXSXSXSXSXSXSXSXSX6 ' zXzX@X+XK.u.G.&XT.0XaXdXcXSXl F.;.<.SXSXSXSXSXSXSXSXSXSXSXSXSXSXSXSX>Xt.#.$.&.%.k.,XSXSXSXSXSXSXSXSXSXSXSX",
"SXSXSXSXSXSXSXSXSXSX6 ..zX4X@X$XT.L.&X9X0XaXnXMXcXSXz J.>.8.SXSXSXSXSXSXSXSXSXSXSXSXSX9.jXi.@.U #.$.$.&.[.SXSXSXSXSXSXSXSXSXSXSX",
"SXSXSXSXSXSXSXSXSXSXSX4 ..CX>X%X$X&X&X&X0XaXdXMXMXcXSXc I.>.8.SXSXSXSXSXSXSXSXSXSXSXX.kX@X*.K I I Y Y &.[.SXSXSXSXSXSXSXSXSXSXSX",
"SXSXSXSXSXSXSXSXSXSXSX^.x | zX>X*XrX0XyXaXsXdXmXmXdXhXSXA.Y.P.}.SXSXSXSXSXSXSXSXSXSXSXjXr.@.G D I I Y $.,XSXSXSXSXSXSXSXSXSXSXSX",
"SXSXSXSXSXSXSXSXSXSXSXg.l.4 f.5X%XrXuXsXvXnXnXmXmXnXsXoXSXo o SXSXSXSXSXSXSXSXSXSXSXSX X*.H D D D I I &.[.SXSXSXSXSXSXSXSXSXSXSX",
"SXSXSXSXSXSXSXSXSXSXSXg.#.g.O f.9.a.tXvXmXMXMXMXMXnXuXrXSXSXSXSXSXSXSXSXSXSXSXSXSXSXSX].K Z N N N D I &.,XSXSXSXSXSXSXSXSXSXSXSX",
"SXSXSXSXSXSXSXSXSXSXSXl.J #./.X f.! =.+XNXAXZXNXMXmXaX0X:XSXSXSXSXSXSXSXSXSXSXSXSXSXSX XZ 9 9 9 9 D U &.,XSXSXSXSXSXSXSXSXSXSXSX",
"SXSXSXSXSXSXSXSXSXSXSX'.H G 9.!.O ~.Z L :.:XAXAXZXMXdXyX$X:XSXSXSXSXSXSXSXSXSXSXSXSXSX XM 8 7 8 9 N G *.3XP SXSXSXSXSXSXSXSXSXSX",
"SXSXSXSXSXSXSXSXSXSXSXSXs Z J 9.SXO /.Z F L y.:XAXZXnXuX:XK.;XSXSXSXSXSXSXSXSXSXSXSXSX).9 - - 9 7 9 G x.VX..SXSXSXSXSXSXSXSXSXSX",
"SXSXSXSXSXSXSXSXSXSXSXSXi p n H @XSXl o.b b m L ,.*XmXsXrX%XOXlXSXSXSXSXSXSXSXSXSXSXSX).8 ; ; - ; 9 G *.VX..f.SXSXSXSXSXSXSXSXSX",
"SXSXSXSXSXSXSXSXSXSXSX}.p u u B J @XSXv { N u b b F ;.Y.rX%XOX#XkXX.SXSXSXSXSXSXSXSXSX).q # + $ ; 7 Z *.lX' SXSXSXSXSXSXSXSXSXSX",
"SXSXSXSXSXSXSXSXSXSXSX-Xn e 0 u B 6..XSXc ) p 8 0 u u F ~ P.OXOXkXkX9.SXSXSXSXSXSXSXSX).- @ $ + $ 7 p @.<X` SXSXSXSXSXSXSXSXSXSX",
"SXSXSXSXSXSXSXSXSXSXSX7Xm 0 , e p L p..XSXc E r * * * u p m / a.#XAXZX9.SXSXSXSXSXSXSX).* +   + $ ; 9 2.hX` SXSXSXSXSXSXSXSXSXSX",
"SXSXSXSXSXSXSXSXSXSXSX}.F 0 * , t B 5.>X2X' s.f 8 7 0 0 e u b m w.#XAXlXSXSXSXSXSXSXSX).0 +     + ; u ;.7X` SXSXSXSXSXSXSXSXSXSX",
"SXSXSXSXSXSXSXSXSXSXSX}.~ 0 1 q p s H a.VX.XSXQ.q & & & * 0 0 u A :.p.zXXXSXSXSXSXSXSX_.0 +   . + $ p ;.8XT SXSXSXSXSXSXSXSXSXSX",
"SXSXSXSXSXSXSXSXSXSXSXXX1.u i M 8.B S 5.i.4X' SX~.q = > , , 1 q e V L w.4X'.SXSXSXSXSX_.* + . + + ; b 2.iXT SXSXSXSXSXSXSXSXSXSX",
"SXSXSXSXSXSXSXSXSXSXSXXX>.p 0 t d d s A J 6.[.SXSX{ q > & = q & - i p H 7..XSXSXSXSXSXoX* + .   + & m 4.bXE SXSXSXSXSXSXSXSXSXSX",
"SXSXSXSXSXSXSXSXSXSXSXXX4.n , q w < w t d M S '.SXSX_ q 1 , 1 , 1 * 7 B H  ..XSXSXSXSX X* + +   + & u 4.bX` SXSXSXSXSXSXSXSXSXSX",
"SXSXSXSXSXSXSXSXSXSXSXXX4.A d < < < w < < w r C SXSXSXX.C f , , , # & p  .B  ..XSXSXSX X7 $   @ $ # 0 >.iXg SXSXSXSXSXSXSXSXSXSX",
"SXSXSXSXSXSXSXSXSXSXSXXXu.A t w = > > < < < C w x SXSXSXE V T g e , # 0 i y B ..[.SXSX_.d = > w = $ * F {.2 SXSXSXSXSXSXSXSXSXSX",
"SXSXSXSXSXSXSXSXSXSXSX7XG.F t t < % = = < < = > < x SXSX}  .S V T T , 0 w w d M O.SXSX XN 7 r 9.u # & m {.SXSXSXSXSXSXSXSXSXSXSX",
"SXSXSXSXSXSXSXSXSXSXSXBXL.~ i w < = < = [ h + @ @ = _ SXSX(.7.! R V ` E i t w q N g.SX XH - - d = %   0 `.SXSXSXSXSXSXSXSXSXSXSX",
"SXSXSXSXSXSXSXSXSXSXW uX%X,.M d < = < < [ [ w + + @ = o.SXSX.Xa.5.! V A ` T , , q S '.s.` ; + @       , /.SXSXSXSXSXSXSXSXSXSXSX",
"SXSXSXSXSXSXSXSXSXSX! bXrX2.B t w < < r [ SX{ %       < ~.SXl 2Xa.7.! R B a k f > < S ^.d.r %   . .   1 ~.SXSXSXSXSXSXSXSXSXSXSX",
"SXSXSXSXSXSXSXSXSXSXF.ZX*X2.Z d d 7 r d { SXSX[ %     % h SXSXz jXp.7.=./ a i t C f r P f.^.= + . . @ 1 ~.SXSXSXSXSXSXSXSXSXSXSX",
"SXSXSXSXSXSXSXSXSX{.P.uX$X:.S M d r d d o.SXSXSX] :     % k SXSX[ jXK.y.5.A n a y t C C P !.Q.= @ @ # > A.SXSXSXSXSXSXSXSXSXSXSX",
"SXSXSXSXSXSXSXSXSX7.;.*XK.=.A N N N d N g.SXSXSXSXW : : : : k SXSXA.4Xp.y.-.R n a t i a E O.!.{ 1 # # : A.SXSXSXSXSXSXSXSXSXSXSX",
"SXSXSXSXSXSXSX-X7.A A =Xi.6.H Z A S A A '.SXSXSXSX] W : : : > ] SX3 /.tXK.y.,.! R V a a d V l.^.) 1 # : | SXSXSXSXSXSXSXSXSXSXSX",
"SXSXSXSXSXSX;X8.S p V =Xi.0.+.K G S J J ].SXSXSXSXSXC.Q > : > y o.SX5 oX:XP.y.8.^ R E n f s J ].~.Q 0 1 | SXSXSXSXSXSXSXSXSXSXSX",
"SXSXSXSXSX5Xy.@.S s p @Xv.q.*.+.+.K K @..XSXSXSXSXSXSXC.a y > > y } SX5 hX9XL.u.8.-./ R R V V  .[.~.n a _ SXSXSXSXSXSXSXSXSXSXSX",
"SXSXSXSXSX..` f h SXSX[.z.r.q.*.*.+.@.e.>XSXSXSXSXSXSXSXD.a y y e f SXSXk BX9XL.G.u.<.-./ R R ! 7./.~.m ) SXSXSXSXSXSXSXSXSXSXSX",
"SXSXSXSXSXSXSXSXSXSXSXoXb.z.z.q.0.q.q.v.zXP SXSXSXSXSXSXSXD.Q a V n W SXSX] sXqXT.L.J.u.1.1.^ ^ / 8./.C.) SXSXSXSXSXSXSXSXSXSXSX",
"SXSXSXSXSXSXSXSXSXSXSXoXn.b.z.r.q.t.r.zX Xg SXSXSXSXSXSXSX] D.a a a a W SX3 X.mXqXE.T.H.H.u.1.-.^ ^ y.o.~.SXSXSXSXSXSXSXSXSXSXSX",
"SXSXSXSXSXSXSXSXSXSXSX<XN.n.c.z.r.v.3Xo.6 SXSXSXSXSXSXSXSXSX] -.a a n V X.SX3 C.dXpXqXE.U.I.H.S.1.1.-.J.] SXSXSXSXSXSXSXSXSXSXSX",
"SXSXSXSXSXSXSXSXSXSXSX<XM.N.n.b.b.3X[ o SXSXSXSXSXSXSXSXSXSXSX] X./ ^ -.8.|.SX5 |.dXpXpXE.R.U.I.S.S.S.3.T.SXSXSXSXSXSXSXSXSXSXSX",
"SXSXSXSXSXSXSXSXSXSXSX,XB.M.N.N.3X_ o SXSXSXSXSXSXSXSXSXSXSXSXSXSXSXSXSX3 l SXSXk 7XdXfXpXW.W.R.R.I.S.S.u.qXSXSXSXSXSXSXSXSXSXSX",
"SXSXSXSXSXSXSXSXSXSXSX,XB.B.1X5Xx SXSXSXSXSXSXSXSXSXSXSXSXSXSXSXSXSXSXSXSXSXSXSX3 Q sXMXmXfXpXW.R.R.R.I.H.G.qXSXSXSXSXSXSXSXSXSX",
"SXSXSXSXSXSXSXSXSXSXSX6X1X1X<Xj SXSXSXSXSXSXSXSXSXSXSXSXSXSXSXSXSXSXSXSXSXSXSXSXSX3 ] eX7X}.{.{.Z.Z.Z.Z.Z.C.gXdXSXSXSXSXSXSXSXSX",
"SXSXSXSXSXSXSXSXSXSXSXxX6X,X4 SXSXSXSXSXSXSXSXSXSXSXSXSXSXSXSXSXSXSXSXSXSXSXSXSXSXSXo 5 5 3 X X o o X X X o k Z.sXSXSXSXSXSXSXSX",
"SXSXSXSXSXSXSXSXSXSX6XxX[.O SXSXSXSXSXSXSXSXSXSXSXSXSXSXSXSXSXSXSXSXSXSXSXSXSXSXSXSXSXSXSXSXSXSXSXSXSXSXSXSXSX3 C.gXSXSXSXSXSXSX",
"SXSXSXSXSXSXSXSXSXSXxX(.O SXSXSXSXSXSXSXSXSXSXSXSXSXSXSXSXSXSXSXSXSXSXSXSXSXSXSXSXSXSXSXSXSXSXSXSXSXSXSXSXSXSXSXSX| SXSXSXSXSXSX",
"SXSXSXSXSXSXSXSXSX3X^.O SXSXSXSXSXSXSXSXSXSXSXSXSXSXSXSXSXSXSXSXSXSXSXSXSXSXSXSXSXSXSXSXSXSXSXSXSXSXSXSXSXSXSXSXSXSX| SXSXSXSXSX",
"SXSXSXSXSXSXSXSXSXd.SXSXSXSXSXSXSXSXSXSXSXSXSXSXSXSXSXSXSXSXSXSXSXSXSXSXSXSXSXSXSXSXSXSXSXSXSXSXSXSXSXSXSXSXSXSXSXSXSXSXSXSXSXSX",
"SXSXSXSXSXSXSXSXSXSXSXSXSXSXSXSXSXSXSXSXSXSXSXSXSXSXSXSXSXSXSXSXSXSXSXSXSXSXSXSXSXSXSXSXSXSXSXSXSXSXSXSXSXSXSXSXSXSXSXSXSXSXSXSX",
"SXSXSXSXSXSXSXSXSXSXSXSXSXSXSXSXSXSXSXSXSXSXSXSXSXSXSXSXSXSXSXSXSXSXSXSXSXSXSXSXSXSXSXSXSXSXSXSXSXSXSXSXSXSXSXSXSXSXSXSXSXSXSXSX",
"SXSXSXSXSXSXSXSXSXSXSXSXSXSXSXSXSXSXSXSXSXSXSXSXSXSXSXSXSXSXSXSXSXSXSXSXSXSXSXSXSXSXSXSXSXSXSXSXSXSXSXSXSXSXSXSXSXSXSXSXSXSXSXSX",
"SXSXSXSXSXSXSXSXSXSXSXSXSXSXSXSXSXSXSXSXSXSXSXSXSXSXSXSXSXSXSXSXSXSXSXSXSXSXSXSXSXSXSXSXSXSXSXSXSXSXSXSXSXSXSXSXSXSXSXSXSXSXSXSX",
"SXSXSXSXSXSXSXSXSXSXSXSXSXSXSXSXSXSXSXSXSXSXSXSXSXSXSXSXSXSXSXSXSXSXSXSXSXSXSXSXSXSXSXSXSXSXSXSXSXSXSXSXSXSXSXSXSXSXSXSXSXSXSXSX",
"SXSXSXSXSXSXSXSXSXSXSXSXSXSXSXSXSXSXSXSXSXSXSXSXSXSXSXSXSXSXSXSXSXSXSXSXSXSXSXSXSXSXSXSXSXSXSXSXSXSXSXSXSXSXSXSXSXSXSXSXSXSXSXSX",
"SXSXSXSXSXSXSXSXSXSXSXSXSXSXSXSXSXSXSXSXSXSXSXSXSXSXSXSXSXSXSXSXSXSXSXSXSXSXSXSXSXSXSXSXSXSXSXSXSXSXSXSXSXSXSXSXSXSXSXSXSXSXSXSX"
};
