/* XPM */
static char *result[] = {
/* columns rows colors chars-per-pixel */
"128 128 256 2 ",
"   c #0B133C",
".  c #091237",
"X  c #090F3F",
"o  c #2C2C2E",
"O  c #2C2C33",
"+  c #2A2D3B",
"@  c #312F3B",
"#  c #0C1443",
"$  c #0D1A44",
"%  c #0D164B",
"&  c #0D1B4C",
"*  c #121C4C",
"=  c #111749",
"-  c #0E1C54",
";  c #0E1E5A",
":  c #0D1751",
">  c #131D54",
",  c #131D5B",
"<  c #141856",
"1  c #11214D",
"2  c #0E2257",
"3  c #122254",
"4  c #14225C",
"5  c #19225C",
"6  c #17265A",
"7  c #0E204D",
"8  c #2A2D46",
"9  c #2C2D59",
"0  c #2F324F",
"q  c #181C66",
"w  c #1E1D73",
"e  c #0E1F63",
"r  c #231E79",
"t  c #211D6D",
"y  c #142363",
"u  c #1A2463",
"i  c #14246B",
"p  c #1B256B",
"a  c #152B6C",
"s  c #1B2A6C",
"d  c #172A64",
"f  c #142573",
"g  c #1B2573",
"h  c #1C2B73",
"j  c #1C2B7C",
"k  c #162879",
"l  c #1C337B",
"z  c #193476",
"x  c #12296E",
"c  c #293667",
"v  c #222B7C",
"b  c #232777",
"n  c #253679",
"m  c #36387A",
"M  c #2E2E6C",
"N  c #423353",
"B  c #46376E",
"V  c #304775",
"C  c #34455E",
"Z  c #4C4A58",
"A  c #4D4C70",
"S  c #686775",
"D  c #192B86",
"F  c #1C3587",
"G  c #192B96",
"H  c #1C3798",
"J  c #242C84",
"K  c #272889",
"L  c #25338B",
"P  c #253788",
"I  c #2A2C96",
"U  c #352799",
"Y  c #293796",
"T  c #363797",
"R  c #353587",
"E  c #1936AB",
"W  c #392BA4",
"Q  c #2837A4",
"!  c #3537A8",
"~  c #3838B7",
"^  c #2E31B3",
"/  c #291F87",
"(  c #4B3895",
")  c #452BA9",
"_  c #4D34B5",
"`  c #6B35B9",
"'  c #28439A",
"]  c #324A8C",
"[  c #2C4AA7",
"{  c #3646A9",
"}  c #3849B6",
"|  c #2D55B7",
" . c #3455BA",
".. c #304EB0",
"X. c #2858A7",
"o. c #4D4F92",
"O. c #715890",
"+. c #546995",
"@. c #747290",
"#. c #4A57A7",
"$. c #5050AF",
"%. c #6D54B3",
"&. c #566BB0",
"*. c #7070AD",
"=. c #273CC6",
"-. c #3A39C6",
";. c #3437D6",
":. c #253AD3",
">. c #453BD9",
",. c #5235CC",
"<. c #6735CB",
"1. c #7736D7",
"2. c #6934D2",
"3. c #4F3CEA",
"4. c #653DE0",
"5. c #1E47CD",
"6. c #2847C9",
"7. c #3645C7",
"8. c #3859C5",
"9. c #2D4FD4",
"0. c #376BD5",
"q. c #336CD1",
"w. c #3252EB",
"e. c #3671EE",
"r. c #4B4FD0",
"t. c #6E53D2",
"y. c #4C6ACF",
"u. c #7270D2",
"i. c #4A46E6",
"p. c #5846F8",
"a. c #4F53F0",
"s. c #664AFD",
"d. c #6859FD",
"f. c #7857FE",
"g. c #7150F1",
"h. c #5A69FA",
"j. c #5778F9",
"k. c #4C6EEF",
"l. c #676AFB",
"z. c #7170F6",
"x. c #8D75AE",
"c. c #8B6CA0",
"v. c #8F37EC",
"b. c #AF3AFA",
"n. c #9138D3",
"m. c #C73CF8",
"M. c #8874D4",
"N. c #AE6ECB",
"B. c #8657FD",
"V. c #9055F9",
"C. c #A94FFC",
"Z. c #8E6FF9",
"A. c #AA65FD",
"S. c #B471FB",
"D. c #A54CC6",
"F. c #CE70FC",
"G. c #F076FC",
"H. c #DF4EFD",
"J. c #7489B2",
"K. c #598BAF",
"L. c #3B89F2",
"P. c #3894D9",
"I. c #548BD1",
"U. c #718DD0",
"Y. c #71ABD3",
"T. c #4587FA",
"R. c #5788FA",
"E. c #4797F9",
"W. c #5392F5",
"Q. c #6888FD",
"!. c #6698FC",
"~. c #778EF4",
"^. c #51ADFB",
"/. c #77A8FD",
"(. c #71B2FB",
"). c #55A9C6",
"_. c #56CCFD",
"`. c #70CEFC",
"'. c #70EDFB",
"]. c #59E6F9",
"[. c #3487B1",
"{. c #8E8997",
"}. c #9490B0",
"|. c #A798B4",
" X c #B2ACB7",
".X c #B8B3B6",
"XX c #A9A6B0",
"oX c #8FA9BC",
"OX c #9190CF",
"+X c #AD8FD0",
"@X c #91B0D2",
"#X c #ADB3C6",
"$X c #B9B9C7",
"%X c #B6B6D7",
"&X c #B3A9CE",
"*X c #8688FB",
"=X c #988AFC",
"-X c #8998FC",
";X c #9695FB",
":X c #9487E7",
">X c #A797FC",
",X c #AC8FEE",
"<X c #96A9FB",
"1X c #86B8FD",
"2X c #99B7FD",
"3X c #8BADEE",
"4X c #B0B0F3",
"5X c #C4B9CA",
"6X c #C8B5D8",
"7X c #C6AED4",
"8X c #D18FED",
"9X c #F38CFA",
"0X c #CCB4EF",
"qX c #F9ABF8",
"wX c #C595D9",
"eX c #92C6D9",
"rX c #B8C5D6",
"tX c #8AC7FD",
"yX c #97C7FD",
"uX c #92D4F6",
"iX c #A7C8FC",
"pX c #A8D9FC",
"aX c #B5D8FA",
"sX c #B0CDE9",
"dX c #99F7FC",
"fX c #8EEEFC",
"gX c #ABE7FC",
"hX c #B7E8FC",
"jX c #BBF5FC",
"kX c #A9F8FA",
"lX c #CAC5D7",
"zX c #D2C8D7",
"xX c #CDCBD1",
"cX c #D6C9E6",
"vX c #DAD5E7",
"bX c #C7DAF5",
"nX c #D2CEF0",
"mX c #E5DAEA",
"MX c #E9D8F8",
"NX c #EFCDF4",
"BX c #C8E9FA",
"VX c #CCFBFD",
"CX c #C5F7FC",
"ZX c #D3FCFD",
"AX c #DBFAFD",
"SX c #D6E9F2",
"DX c #E7E5EA",
"FX c #E9E8F6",
"GX c #F5E8F7",
"HX c #E9FAFA",
"JX c #F4FDFC",
"KX c #FDFDFD",
"LX c #F8F5FB",
"PX c #EFF1EF",
"IX c #E1E1DF",
"UX c None",
/* pixels */
"UXUXUXUXUXUXUXUXUXUXUXUXUXUXUXUXUXUXUXUXUXUXUXUXUXUXUXUXUXUXUXUXUXUXUXUXUXUXUXUXUXUXUXUXUXUXUXUXUXUXUXUXUXUXUXUXUXUXUXUXUXUXUXUXUXUXUXUXUXUXUXUXUXUXUXUXUXUXUXUXUXUXUXUXUXUXUXUXUXUXUXUXUXUXUXUXUXUXUXUXUXUXUXUXUXUXUXUXUXUXUXUXUXUXUXUXUXUXUXUXUXUXUXUXUXUXUXUX",
"UXUXUXUXUXUXUXUXUXUXUXUXUXUXUXUXUXUXUXUXUXUXUXUXUXUXUXUXUXUXUXUXUXUXUXUXUXUXUXUXUXUXUXUXUXUXUXUXUXUXUXUXUXUXUXUXUXUXUXUXUXUXUXUXUXUXUXUXUXUXUXUXUXUXUXUXUXUXUXUXUXUXUXUXUXUXUXUXUXUXUXUXUXUXUXUXUXUXUXUXUXUXUXUXUXUXUXUXUXUXUXUXUXUXUXUXUXUXUXUXUXUXUXUXUXUXUXUX",
"UXUXUXUXUXUXUXUXUXUXUXUXUXUXUXUXUXUXUXUXUXUXUXUXUXUXUXUXUXUXUXUXUXUXUXUXUXUXUXUXUXUXUXUXUXUXUXUXUXUXUXUXUXUXUXUXUXUXUXUXUXUXUXUXUXUXUXUXUXUXUXUXUXUXUXUXUXUXUXUXUXUXUXUXUXUXUXUXUXUXUXUXUXUXUXUXUXUXUXUXUXUXUXUXUXUXUXUXUXUXUXUXUXUXUXUXUXUXUXUXUXUXUXUXUXUXUXUX",
"UXUXUXUXUXUXUXUXUXUXUXUXUXUXUXUXUXUXUXUXUXUXUXUXUXUXUXUXUXUXUXUXUXUXUXUXUXUXUXUXUXUXUXUXUXUXUXUXUXUXUXUXUXUXUXUXUXUXUXUXUXUXUXUXUXUXUXUXUXUXUXUXUXUXUXUXUXUXUXUXUXUXUXUXUXUXUXUXUXUXUXUXUXUXUXUXUXUXUXUXUXUXUXUXUXUXUXUXUXUXUXUXUXUXUXUXUXUXUXUXUXUXUXUXUXUXUXUX",
"UXUXUXUXUXUXUXUXUXUXUXUXUXUXUXUXUXUXUXUXUXUXUXUXUXUXUXUXUXUXUXUXUXUXUXUXUXUXUXUXUXUXUXUXUXUXUXUXUXUXUXUXUXUXUXUXUXUXUXUXUXUXUXUXUXUXUXUXUXUXUXUXUXUXUXUXUXUXUXUXUXUXUXUXUXUXUXUXUXUXUXUXUXUXUXUXUXUXUXUXUXUXUXUXUXUXUXUXUXUXUXUXUXUXUXUXUXUXUXUXUXUXUXUXUXUXUXUX",
"UXUXUXUXUXUXUXUXUXUXUXUXUXUXUXUXUXUXUXUXUXUXUXUXUXUXUXUXUXUXUXUXUXUXUXUXUXUXUXUXUXUXUXUXUXUXUXUXUXUXUXUXUXUXUXUXUXUXUXUXUXUXUXUXUXUXUXUXUXUXUXUXUXUXUXUXUXUXUXUXUXUXUXUXUXUXUXUXUXUXUXUXUXUXUXUXUXUXUXUXUXUXUXUXUXUXUXUXUXUXUXUXUXUXUXUXUXUXUXUXUXUXUXUXUXUXUXUX",
"UXUXUXUXUXUXUXUXUXUXUXUXUXUXUXUXUXUXUXUXUXUXUXUXUXUXUXUXUXUXUXUXUXUXUXUXUXUXUXUXUXUXUXUXUXUXUXUXUXUXUXUXUXUXUXUXUXUXUXUXUXUXUXUXUXUXUXUXUXUXUXUXUXUXUXUXUXUXUXUXUXUXUXUXUXUXUXUXUXUXUXUXUXUXUXUXUXUXUXUXUXUXUXUXUXUXUXUXUXUXUXUXUXUXUXUXUXUXUXUXUXUXUXUXUXUXUXUX",
"UXUXUXUXUXUXUXUXUXUXUXUXUXUXUXUXUXUXUXUXUXUXUXUXUXUXUXUXUXUXUXUXUXUXUXUXUXUXUXUXUXUXUXUXUXUXUXUXUXUXUXUXUXUXUXUXUXUXUXUXUXUXUXUXUXUXUXUXUXUXUXUXUXUXUXUXUXUXUXUXUXUXUXUXUXUXUXUXUXUXUXUXUXUXUXUXUXUXUXUXUXUXUXUXUXUXUXUXUXUXUXUXUXUXUXUXUXUXUXUXUXUXUXUXUXUXUXUX",
"UXUXUXUXUXUXUXUXUXUXUXUXUXUXUXUXUXUXUXUXUXUXUXUXUXUXUXUXUXUXUXUXUXUXUXUXUXUXUXUXUXUXUXUXUXUXUXUXUXUXUXUXUXUXUXUXUXUXUXUXUXUXUXUXUXUXUXUXUXUXUXUXUXUXUXUXUXUXUXUXUXUXUXUXUXUXUXUXUXUXUXUXUXUXUXUXUXUXUXUXUXUXUXUXUXUXUXUXUXUXUXUXUXUXUXUXUXUXUXUXUXUXUXUXUXUXUXUX",
"UXUXUXUXUXUXUXUXUXUXUXUXUXUXUXUXUXUXUXUXUXUXUXUXUXUXUXUXUXUXUXUXUXUXUXUXUXUXUXUXUXUXUXUXUXUXUXUXUXUXUXUXUXUXUXUXUXUXUXUXUXUXUXUXUXUXUXUXUXUXUXUXUXUXUXUXUXUXUXUXUXUXUXUXUXUXUXUXUXUXUXUXUXUXUXUXUXUXUXUXUXUXUXUXUXUXUXUXUXUXUXUXmXUXUXUXUXUXUXUXUXUXUXUXUXUXUXUX",
"UXUXUXUXUXUXUXUXUXUXUXUXUXUXUXUXUXUXUXUXUXUXUXUXUXUXUXUXUXUXUXUXUXUXUXUXUXUXUXUXUXUXUXUXUXUXUXUXUXUXUXUXUXUXUXUXUXUXUXUXUXUXUXUXUXUXUXUXUXUXUXUXUXUXUXUXUXUXUXUXUXUXUXUXUXUXUXUXUXUXUXUXUXUXUXUXUXUXUXUXUXUXUXUXUXUXUXUXUXUXUXmXUXUXUXUXUXUXUXUXUXUXUXUXUXUXUXUX",
"UXUXUXUXUXUXUXy.UXUXUXUXUXUXUXUXUXUXUXUXUXUXUXUXUXUXUXUXUXUXUXUXUXUXUXUXUXUXUXUXUXmXB.UXUXUXUXUXUXUXUXUXUXUXUXUXUXUXUXUXUXUXUXUXUXUXUXUXUXUXUXUXUXUXUXUXUXUXUXUXUXUXUXUXUXUXUXUXUXUXUXUXUXUXUXUXUXUXUXUXUXUXUXUXUXUXUXUXUXUXPXUXUXUXUXUXUXUXUXUXUXUXUXUXUXUXUXUX",
"UXUXUXUXUXUXUXUXOXUXUXUXUXUXUXUXUXUXUXUXUXUXUXUXUXUXUXUXUXUXUXUXUXUXUXUXUXUXUXUXUXDXg.V.UXUXUXUXUXUXUXUXUXUXUXUXUXUXUXUXUXUXUXUXUXUXUXUXUXUXUXUXUXUXUXUXUXUXUXUXUXUXUXUXUXUXUXUXUXUXUXUXUXUXUXUXUXUXUXUXUXUXUXUXUXUXUXUX0XLXc.UXUXUXUXUXUXUXUXUXUXUXUXUXUXUXUXUX",
"UXUXUXUXUXUXUXUXUXrXUXUXUXUXUXUXUXUXUXUXUXUXUXUXUXUXUXUXUXUXUXUXUXUXUXUXUXUXUXUXUXDXB.V.S.UXUXUXUXUXUXUXUXUXUXUXUXUXUXUXUXUXUXUXUXUXUXUXUXUXUXUXUXUXUXUXUXUXUXUXUXUXUXUXUXUXUXUXUXUXUXUXUXUXUXUXUXUXUXUXUXUXUXUXUXUXUX8XNX|.UXUXUXUXUXUXUXUXUXUXUXUXUXUXUXUXUXUX",
"UXUXUXUXUXUXUXUXUX] cXUXUXUXUXUXUXUXUXUXUXUXUXUXUXUXUXUXUXUXUXUXUXUXUXUXUXUXUXUXUXIXV.B.B.0XUXUXUXUXUXUXUXUXUXUXUXUXUXUXUXUXUXUXUXUXUXUXUXUXUXUXUXUXUXUXUXUXUXUXUXUXUXUXUXUXUXUXUXUXUXUXUXUXUXUXUXUXUXUXUXUXUXUXUXUX0XqXNXN UXUXUXUXUXUXUXUXUXUXUXUXUXUXUXUXUXUX",
"UXUXUXUXUXUXUXUXUXUXo.SXUXUXUXUXUXUXUXUXUXUXUXUXUXUXUXUXUXUXUXUXUXUXUXUXUXUXUXUXUXIXA.B.f.B.0XUXUXUXUXUXUXUXUXUXUXUXUXUXUXUXUXUXUXUXUXUXUXUXUXUXUXUXUXUXUXUXUXUXUXUXUXUXUXUXUXUXUXUXUXUXUXUXUXUXUXUXUXUXUXUXUXUXUX0XqXqXc.UXUXUXUXUXUXUXUXUXUXUXUXUXUXUXUXUXUXUX",
"UXUXUXUXUXUXUXUXUXUX9 *.PXUXUXUXUXUXUXUXUXUXUXUXUXUXUXUXUXUXUXUXUXUXUXUXUXUXUXUXUXxX,XB.f.f.Z.bXUXUXUXUXUXUXUXUXUXUXUXUXUXUXUXUXUXUXUXUXUXUXUXUXUXUXUXUXUXUXUXUXUXUXUXUXUXUXUXUXUXUXUXUXUXUXUXUXUXUXUXUXUXUXUXUXqXqXG.NX@ UXUXUXUXUXUXUXUXUXUXUXUXUXUXUXUXUXUXUX",
"UXUXUXUXUXUXUXUXUXUXUXM *.PX-XUXUXUXUXUXUXUXUXUXUXUXUXUXUXUXUXUXUXUXUXUXUXUXUXUXUXUX$XS.f.f.d.;XbXUXUXUXUXUXUXUXUXUXUXUXUXUXUXUXUXUXUXUXUXUXUXUXUXUXUXUXUXUXUXUXUXUXUXUXUXUXUXUXUXUXUXUXUXUXUXUXUXUXUXUXUXUXUXNXqXG.9X{.UXUXUXUXUXUXUXUXUXUXUXUXUXUXUXUXUXUXUXUX",
"UXUXUXUXUXUXUXUXUXUXUXUXR @XJXY.UXUXUXUXUXUXUXUXUXUXUXUXUXUXUXUXUXUXUXUXUXUXUXUXUXUX@ xXZ.f.d.l.iXaXUXUXUXUXUXUXUXUXUXUXUXUXUXUXUXUXUXUXUXUXUXUXUXUXUXUXUXUXUXUXUXUXUXUXUXUXUXUXUXUXUXUXUXUXUXUXUXUXUXUXUXUXMX9XH.G.NXN UXUXUXUXUXUXUXUXUXUXUXUXUXUXUXUXUXUXUXUX",
"UXUXUXUXUXUXUXUXUXUXUXUX9 T %XJXY.UXUXUXUXUXUXUXUXUXUXUXUXUXUXUXUXUXUXUXUXUXUXUXUXUXUXZ cXz.l.h.Q.SXfXUXUXUXUXUXUXUXUXUXUXUXUXUXUXUXUXUXUXUXUXUXUXUXUXUXUXUXUXUXUXUXUXUXUXUXUXUXUXUXUXUXUXUXUXUXUXUXUXUXUXFX9XH.H.G.6XUXUXUXUXUXUXUXUXUXUXUXUXUXUXUXUXUXUXUXUXUX",
"UXUXUXUXUXUXUXUXUXUXUXUXUXm o.nXLX3XUXUXUXUXUXUXUXUXUXUXUXUXUXUXUXUXUXUXUXUXUXUXUXUXUXUXA vXl.h.h./.HXgXUXUXUXUXUXUXUXUXUXUXUXUXUXUXUXUXUXUXUXUXUXUXUXUXUXUXUXUXUXUXUXUXUXUXUXUXUXUXUXUXUXUXUXUXUXUXUXUXNXG.m.H.H.G.{.UXUXUXUXUXUXUXUXUXUXUXUXUXUXUXUXUXUXUXUXUX",
"UXUXUXUXUXUXUXUXUXUXUXUXUXUXK &.PXKX2XUXUXUXUXUXUXUXUXUXUXUXUXUXUXUXUXUXUXUXUXUXUXUXUXUXO @.nXl.h.R.tXHX^.UXUXUXUXUXUXUXUXUXUXUXUXUXUXUXUXUXUXUXUXUXUXUXUXUXUXUXUXUXUXUXUXUXUXUXUXUXUXUXUXUXUXUXUXUXUXMXF.C.m.m.H.9XZ UXUXUXUXUXUXUXUXUXUXUXUXUXUXUXUXUXUXUXUXUX",
"UXUXUXUXUXUXUXUXUXUXUXUXUXUX9 T U.LXKX%Xt.UXUXUXUXUXUXUXUXUXUXUXUXUXUXUXUXUXUXUXUXUXUXUXUX+ {.4Xh.k.R.`.CXUXUXUXUXUXUXUXUXUXUXUXUXUXUXUXUXUXUXUXUXUXUXUXUXUXUXUXUXUXUXUXUXUXUXUXUXUXUXUXUXUXUXUXUXUXNXC.b.b.b.m.H.qX@ UXUXUXUXUXUXUXUXUXUXUXUXUXUXUXUXUXUXUXUXUX",
"UXUXUXUXUXUXUXUXUXUXUXUXUXUXUXm ( @XKXKXbXM.UXUXUXUXUXUXUXUXUXUXUXUXUXUXUXUXUXUXUXUXUXUXUXUX+ XX-Xa.h.k.^.hXUXUXUXUXUXUXUXUXUXUXUXUXUXUXUXUXUXUXUXUXUXUXUXUXUXUXUXUXUXUXUXUXUXUXUXUXUXUXUXUXUXUXUXnXv.C.b.b.b.m.m.7XUXUXUXUXUXUXUXUXUXUXUXUXUXUXUXUXUXUXUXUXUXUX",
"UXUXUXUXUXUXUXUXUXUXUXUXUXUXUX0 R $.nXKXKXFXnX,X,X,XUXUXUXUXUXUXUXUXUXUXUXUXUXUXUXUXUXUXUXUXUX+ $X~.a.e.e.!.uXUXUXUXUXUXUXUXUXUXUXGXUXUXUXUXUXUXUXUXUXUXUXUXUXUXUXUXUXUXUXUXUXUXUXUXUXUXUXUXUXUX0XV.v.v.v.b.b.b.D.7XUXUXUXUXUXUXUXUXUXUXUXUXUXUXUXUXUXUXUXUXUXUX",
"UXUXUXUXUXUXUXUXUXUXUXUXUXUXUXUX9 T *.GXKXLXLXGXFXSXSXSXbXbXbXbXbXBXbXBXBXSXAXZXHXHXJXHXIXUXUXUX0 lXh.w.w.w.!.(.UXUXUXUXUXUXUXUXUXUXUXUXUXUXUXUXUXUXUXUXUXUXUXUXUXUXUXUXUXUXUXUXUXUXUXUXUXUXUX0X1.v.v.v.v.b.b.b.D.5XUXUXUXUXUXUXUXUXUXUXUXUXUXUXUXUXUXUXUXUXUXUX",
"UXUXUXUXUXUXUXUXUXUXUXUXUXUXUXUXUXM ( &XKXKXKXMX4X<X2X-X~.!.R.R.T.T.!.!.!./.tXtXuXgXhXjXAXxXUXUXUXZ lXk.9.8.9.Y.).UXUXUXUXUXUXUXUXUXUXUXUXUXUXUXUXUXUXUXUXUXUXUXUXUXUXUXUXUXUXUXUXUXUXUXUXFX>X4.<.1.1.1.v.v.v.v.D.5XUXUXUXUXUXUXUXUXUXUXUXUXUXUXUXUXUXUXUXUXUXUX",
"UXUXUXUXUXUXUXUXUXUXUXUXUXUXUXUXUX0 R ( +XKXKXGX0X>X;X*X~.z.j.j.j.j.k.!.R.!.(.1XtXpXgXhXCXPXxXUXUXUXZ iXw.6.6.9.3XUXUXUXUXUXUXUXUXUXUXUXUXUXUXUXUXUXUXUXUXUXUXUXUXUXUXUXUXUXUXUXUXUXUXUXDX>X4.2.2.2.1.n.n.v.v.n.D.5XUXUXxXUXUXUXUXUXUXUXUXUXUXUXUXUXUXUXUXUXUXUX",
"UXUXUXUXUXUXUXUXUXUXUXUXUXUXUXUXUXUX8 m ( N.KXKXMX>X=X*X*X-XQ.Q.j.R.j.R.!.!./.(.tXuXgXhXhXCXHXxXUXUXo S 3X9.6.6.5.eXUXUXUXUXUXUXUXUXUXUXUXUXUXUXUXUXUXUXUXUXUXUXUXUXUXUXUXUXUXUXUXUXUXSX=X4.,.2.2.2.2.1.1.1.v.1.N.7XUXUXUXUXUXUXUXUXUXUXUXUXUXUXUXUXUXUXUXUXUXUX",
"UXUXUXUXUXUXUXUXUXUXUXUXUXUXUXUXUXUXUX@ M ( +XLXKXNX>X=X*X<X~.~.!.R.R.R./.BX1X1XtXuXpXkXhXCXVXPX.XUXUXo {./.0.9.9.9.@XUXUXUXUXUXUXUXUXUXUXUXUXUXUXUXUXUXUXUXUXUXUXUXUXUXUXUXUXUXUXUXFX>Xp.,._ ,.,.2.2.2.2.n.v.` N.zXUXUXUXUXUXUXUXUXUXUXUXUXUXUXUXUXUXUXUXUXUXUX",
"UXUXUXUXUXUXUXUXUXUXUXUXUXUXUXUXUXUXUXUX@ M ( +XKXKX0X=X=X;X<X/.!.!.!.!./.iX1XtXtXyXgXgXjXVXZXZXHXUXUXUXO XXW.e.9.5.0.Y.UXUXUXUXUXUXUXUXUXUXUXUXUXUXUXUXUXUXUXUXUXUXUXUXUXUXUXUXy.SX>Xd.i.,._ ,.) 2.2.2.2.2.1.` N..XUXUXUXUXUXUXUXUXUXUXUXUXUXUXUXUXUXUXUXUXUXUX",
"UXUXUXUXUXUXUXUXUXUXUXUXUXUXUXUXUXUXUXUXUX+ M ( 7XKXGX0X;X<X-X-X/././.!./././.tXtXyXpXgXjXCXZXZXHXPXUXUXUX+ #XE.e.0.9.y.Y.UXUXUXUXUXUXUXUXUXUXUXUXUXUXUXUXUXUXUXUXUXUXUXUXUXu.U.FX0Xd.p.>._ ~ _ ) ,.` ,.` ` 1.` N.5XUXUXUXUXUXUXUXUXUXUXUXUXUXUXUXUXUXUXxXUXUXUX",
"UXUXUXUXUXUXUXUXUXUXUXUXUXUXUXUXUXUXUXUXUXUX@ 9 ( 6XKXGX>X>X<X<X1X1X/./././.1XtXtXyXpXgXjXCXZXZXZXAXPXUXUXUX0 rX^.e.0.5.I.I.UXUXUXUXUXUXUXUXUXUXUXUXUXUXUXUXUXUXUXUXUXUXUX$.@XLXMXZ.p.>.-._ ) ) ) ,.2.) ` 2.2.` N.&XUXUXUXUXUXUXUXUXUXUXUXUXUXUXUXUXUXUXUXUXUXUX",
"UXUXUXUXUXUXUXUXUXUXUXUXUXUXUXUXUXUXUXUXUXUXUX8 B ( cXKXMX>X<X<X2X2X1X1X1X1XtXyXyXpXgXgXjXjXVXZXVXVXZXDXUXUXUXZ sXL.e.5.5.U.UXUXUXUXUXUXUXUXUXUXUXUXUXUXUXUXUXUXUXUXUXUX+.! sXKX4Xd.3.>.-.~ W W ) ) ) ) ) 1.2.` N.5XUXUXUXUXUXUXUXUXUXUXUXUXUXUXUXUXUXUXUXUXUXUX",
"UXUXUXUXUXUXUXUXUXUXUXUXUXUXUXUXUXUXUXUXUXUXUXx.9 N o.mXLX0X>X2X2X2X2X2XyXyXyXyXpXpXgXgXjXjXCXVXZXVXCXCXDXUXUXUXS uXL.e.w.9.1XUXUXUXUXUXUXUXUXUXUXUXUXUXUXUXUXUXUXUXUXUXUXY @XLX=Xp.3.-.W W W ) ) ) ) ) ` ` ` ` N.7XUXUXUXUXUXUXUXUXUXUXUXUXUXUXUXUXUXUXUXUXUXUX",
"UXUXUXUXUXUXUXUXUXUXUXUXUXUXUXUXUXUXUXUXUXUXUXMXc.8 9 o.mXLX0X>X2X2XyXiXiXpXpXpXgXgXhXhXjXCXCXVXZXCXCXjXBXIXUXUXUX@.%XsXeX4XrXrXUXUXUXUXUXUXUXUXUXUXUXUXUXUXUXUXUXUXUXUXUXM J.FXl.p.;.^ _ U U W ) ) U _ ) ) 2.<.N.6XUXUXUXUXUXUXUXUXUXUXUXUXUXUXUXUXUXUXUXUXUXUX",
"UXUXUXUXUXUXUXUXUXUXUXUXUXUXUXUXUXUXUXUXUXUXUXwX8XO.@ 8 O.DXMX4X<X4XiXiXaXpXaXhXhXhXhXhXCXCXVXVXVXVXCXjXgXbXlXUXUXUX+ 8 8 8 8 UXUXUXUXUXUXUXUXUXUXUXUXUXUXUXUXUXUXUXUXUXUXUX*.nXa.>.-.W U I U U U ) _ ) ) <.2.<.N.6XUXUXUXUXUXUXUXUXUXUXUXUXUXUXUXUXUXUXUXUXUXUX",
"UXUXUXUXUXUXUXUXUXUXUXUXUXUXUXUXUXUXUXUXUXUXUX,X4.7XB @ 0 O.DXM.*X4XiXiXpXaXhXBXBXCXVXCXVXVXVXVXZXVXCXhXhXyXSXXXUXUXUXUXUXUXUXUXUXUXUXUXUXUXUXUXUXUXUXUXUXUXUXUXUXUXUXUXUXUX@.nXp.=.^ I K U W / / _ U U ) ) 2.2.N.7XUXUXUXUXUXUXUXUXUXUXUXUXUXUXUXUXUXUXUXUXUXUX",
"UXUXUXUXUXUXUXUXUXUXUXUXUXUXUXUXUXUXUXUXUXUXUX,X>.3.7XN O 8 *.zXr.i.-XiXaXaXBXBXCXVXZXVXVXVXZXZXAXVXVXjXhXiXyXSXUXUXUXUXUXUXUXUXUXUXUXUXUXUXUXUXUXUXUXUXUXUXUXUXUXUXUXUXUXUX@.%X;.W I U U / / U ( / U U ) ) ,.1.wX7XUXUXUXUXUXUXUXUXUXUXUXUXUXUXUXUXUXUXUXUXUXUX",
"UXUXUXUXUXUXUXUXUXUXUXUXUXUXUXUXUXUXUXUXUXUXUX+X,.,.t.6XUXO 8 x.6Xr.-.i.<XbXBXBXAXAXAXAXZXZXZXAXZXVXVXjXhXpXyX2XFXUXUXUXUXUXUXUXUXUXUXUXUXUXUXUXUXUXUXUXUXUXUXUXUXUXUXUXUXUX@.0X;.I K K r K r / r / / U W _ 4.2.+X6XM UXUXUXUXUXUXUXUXUXUXUXUXUXUXUXUXUXUXUXUXUX",
"UXUXUXUXUXUXUXUXUXUXUXUXUXUXUXUXUXUXUXUXUXUXUX+X_ ~ ~ M.$XUXo @ }.+X^ ^ :.h.aXAXAXHXHXHXAXAXZXZXAXZXCXjXhXgXpX2X<XPXUXUXUXUXUXUXUXUXUXUXUXUXUXUXUXUXUXUXUXUXUXUXUXUXUXUXUXUXUX%XW / D / w / r r / r / U U ) 2.2.N.6XB UXUXUXUXUXUXUXUXUXUXUXUXUXUXUXUXUXUXUXUXUX",
"UXUXUXUXUXUXUXUXUXUXUXUXUXUXUXUXUXUXUXUXUXUXUXOX! ! W >.:XXXUXo O #Xx.W Q ;.;.z.bXJXJXJXJXHXHXHXAXZXVXCXhXhXpXyX2X3XDXUXUXUXUXUXUXUXUXUXUXUXUXUXUXUXUXUXUXUXUXUXUXUXUXUXUXUXUX&XQ / w w w q t r r r / U ) ,.3.4.wX0X( UXUXUXUXUXUXUXUXUXUXUXUXUXUXUXUXUXUXUXUXUX",
"UXUXUXUXUXUXUXUXUXUXUXUXUXUXUXUXUXUXUXUXUXUXUX,X! Q I r.u.4XUXUXUX@ 5Xo.G G E =.w.z.SXKXJXJXHXHXAXZXVXVXCXhXpXyX2X3X4XvXUXUXUXUXUXUXUXUXUXUXUXUXUXUXUXUXUXUXUXUXUXUXUXUXUXUXUX%XI D w w w q q w r r / U W ^ 3.g.wXzX( UXUXUXUXUXUXUXUXUXUXUXUXUXUXUXUXUXUXUXUXUX",
"UXUXUXUXUXUXUXUXUXUXUXUXUXUXUXUXUXUXUXUXUXUXUX+XI W I ! ) i.0XUXUXUX0 6X( G Q I E ;.w.-XHXKXJXJXHXHXAXZXCXhXpXiX1X-X-X4X%XUXUXUXUXUXUXUXUXUXUXUXUXUXUXUXUXUXUXUXUXUXUXUXUXUXUX%XJ w q w q q q w r t / / W W 3.t.0XNX_ UXUXUXUXUXUXUXUXUXUXUXUXUXUXUXUXUXUXUXUXUX",
"UXUXUXUXUXUXUXUXUXUXUXUXUXUXUXUXUXUXUXUXUXUXUXOXg Y I Y Q _ y.zXUXUXUXZ 6XT I G G Q =.w.w.-XGXKXJXHXAXZXCXCXhXiXyX<X-X~.nX3XUXUXUXUXUXUXUXUXUXUXUXUXUXUXUXUXUXUXUXUXUXUXUXUXUX#XJ q q q q q t r t t t / U ,.p.g.NXGX%.m UXUXUXUXUXUXUXUXUXUXUXUXUXUXUXUXUXUXUXUX",
"UXUXUXUXUXUXUXUXUXUXUXUXUXUXUXUXUXUXUXUXUXUXUXOXj h Y I Y ! >.z.cXUXUXUXS 5XJ K G Q G Q =.9.w.<XHXJXJXAXVXCXhXaXiX<X-X~.~.vXOXUXUXUXUXUXUXUXUXUXUXUXUXUXUXUXUXUXUXUXUXUXUXUXUX&XD q < < < < < v t t r r U ^ 3.S.GXLXN.( UXUXUXUXUXUXUXUXUXUXUXUXUXUXUXUXUXUXUXUX",
"UXUXUXUXUXUXUXUXUXUXUXUXUXUXUXUXUXUXUXUXUXUXUX3Xj a g k j L Q 7.*X5XUXUXo @.&XK I D D G G E :.9.w.~.HXHXAXCXhXaXiX2X<X*Xz.=XFXU.UXUXUXUXUXUXUXUXUXUXUXUXUXUXUXUXUXUXUXUXUXUXUX#XJ e < < < < t < q q t r / ^ 3.B.NXLXx.m UXUXUXUXUXUXUXUXUXUXUXUXUXUXUXUXUXUXUXUX",
"UXUXUXUXUXUXUXUXUXUXUXUXUXUXUXUXUXUXUXUXUXUXUX3Xj g f g g v L Q -.,X|.UXUXo }.}.K D D k D G E ^ =.:.:.-XSXCXCXaXiXyX<X-X~.*X4XJXu.UXUXUXUXUXUXUXUXUXUXUXUXUXUXUXUXUXUXUXUXUX}.#Xw q : < < < % < < q t r / ^ ;.s.cXLXD.O.c.UXUXUXUXUXUXUXUXUXUXUXUXUXUXUXUXUXUXUX",
"UXUXUXUXUXUXUXUXUXUXUXUXUXUXUXUXUXUXUXUXUXUXUX2XD f f i k k D Y Q >.0XUXUXUXO  Xc.v F T f k D D G G E E :.j.pXpXiXiX<X-X*X*X*XMXHXU.{ UXUXUXUXUXUXUXUXUXUXUXUXUXUXUXUXUXUXUXUX#Xs , : % = = = % < r q r K U >.a.cXNXc.o.A UXUXUXUXUXUXUXUXUXUXUXUXUXUXUXUXUXUXUX",
"UXUXUXUXUXUXUXUXUXUXUXUXUXUXUXUXUXUXUXUXUXUXUXsXF x i f a f k Y Y 7.3.nX*.UXUXO 5Xo.j k f f f D D G D G E E 5.~.iX2X<X-X*X*X*X4XHXFXU.#.UXUXUXUXUXUXUXUXUXUXUXUXUXUXUXUXUXUXUX#Xg ; % % = = = = < < < q / I ;.i.%XvX` B N UXUXUXUXUXUXUXUXUXUXUXUXUXUXUXUXUXUXUX",
"UXUXUXUXUXUXUXUXUXUXUXUXUXUXUXUXUXUXUXUXUXUXUXiXH f f e q i w D L Q 7.l.FXUXUXUX8 zXm j w f f f f e f D D D ^ 5.5.U.2X-X-X*X*X;XnXKXFXU.$.UXUXUXUXUXUXUXUXUXUXUXUXUXUXUXUXUXUXrXw : % % # = % = = = < r w K ;.a.&XmXo.B UXUXUXUXUXUXUXUXUXUXUXUXUXUXUXUXUXUXUXUX",
"UXUXUXUXUXUXUXUXUXUXUXUXUXUXUXUXUXUXUXUXUXUXUXsXE k f i i e e f D L -.i.=XvXUXUXUXN zXv D w e f e e e f x D D G E E E j.<Xz.Z.*X>XFXKXHX@Xu.UXUXUXUXUXUXUXUXUXUXUXUXUXUXUXUXUX#Xq : # # X < # # = = < q q G :.a.&XnX$.B UXUXUXUXUXUXUXUXUXUXUXUXUXUXUXUXUXUXUXUX",
"UXUXUXUXUXUXUXUXUXUXUXUXUXUXUXUXUXUXUXUXUXUXUXaXE l x e e y e i f L Q 7.d.0X0XUXUXUXZ zXv g i ; ; ; ; e e e D D D D G E =.z.-XZ.=X0XKXKXLXsXy.UXUXUXUXUXUXUXUXUXUXUXUXUXUXUXUX.Xi - # X X   X # # = < < p K ;.a.@XcXo.B UXUXUXUXUXUXUXUXUXUXUXUXUXUXUXUXUXUXUXUX",
"UXUXUXUXUXUXUXUXUXUXUXUXUXUXUXUXUXUXUXUXUXUXUXaXE F i 2 e ; e i i k Y ~ 9.z.MX&Xo.m UXS &XJ j q e s e 2 ; e e e x k D D G E } ~.;X;XnXKXKXKX&X$.UXUXUXUXUXUXUXUXUXUXUXUXUXUXUX#Xi : # X X # #   # = < < q G =.a.@XnX$.A o.UXUXUXUXUXUXUXUXUXUXUXUXUXUXUXUXUXUXUX",
"UXUXUXUXUXUXUXUXUXUXUXUXUXUXUXUXUXUXUXUXUXUXUXbX5.D i 2 ; - ; y e f D I } a.=XLX%Xt.m UXc.}.v g i p i i x f f f f k f f D D H ^ i.Z.4XMXKXKXGXu.UXUXUXUXUXUXUXUXUXUXUXUXUXUXUX#Xx : # #   X X * # = < < q D 6.w.@XcXo.B Z UXUXUXUXUXUXUXUXUXUXxXUXUXUXUXUXUXUXUX",
"UXUXUXUXUXUXUXUXUXUXUXUXUXUXUXUXUXUXUXUXUXUXUXhX5.F i 4 ; ; , y a g j L Q i.l.nXLXcXN.o.UXXX*.p , ; ; ; : ; : ; e e x x x D D H =.w.l.>XMXLXKXnX&.UXUXUXUXUXUXUXUXUXUXUXUXUXUX#Xi : # # . . . . # # : < f D =.w.eXvX#.( A UXUXUXUXUXUXUXUXUXUXUXUXUXUXUXUXUXUXUX",
"UXUXUXUXUXUXUXUXUXUXUXUXUXUXUXUXUXUXUXUXUXUXUXBX5.H x e ; > 4 d a g k J Y ~ a.=XLXKXMX$.UXUX.Xo.p q 4 4 , ; ; ; y e 4 4 i i f D H ^ ;.a.z.4XKXKX&XUXUXUXUXUXUXUXUXUXUXUXUXUXUX$Xi 6 %     X X   X X % : i D =.w.@XbX#.A o.UXUXUXUXUXUXUXUXUXUXUXUXUXUXUXUXUXUXUX",
"UXUXUXUXUXUXUXUXUXUXUXUXUXUXUXUXUXUXUXUXUXUXUXSXw.' z e 2 4 4 a J P P j L Q r.l.0XJXKX%.UXUXUXlXn , & & % - & $ % & i ; 2 e i f F H ^ 7.p.d.=XMXJXu.UXUXUXUXUXUXUXUXUXUXUXUXUX$Xf - # . . . .   X # % < w G 5.w.eXxXT 9 UXUXUXUXUXUXUXUXUXUXUXUXUXUXUXUXUXUXUXUX",
"UXUXUXUXUXUXUXUXUXUXUXUXUXUXUXUXUXUXUXUXUXUXUXAXe.E z x a g j L %.u.Y K Y ! r.a.z.>XGX7XR UXUXUXxXb a i d d y s y i 2 k - - 2 s x D L Y ^ 9.a.z.nXSXu.UXUXUXUXUXUXUXUXUXUXUXUXrXf ; # X . .   # X # = < x G 5.e.eXbX' 9 UXUXUXUXUXUXUXUXUXUXUXUXUXUXUXUXUXUXUXUX",
"UXUXUXUXUXUXUXUXUXUXUXUXUXUXUXUXUXUXUXUXUXUXUXHXL.E z e g g v L $.y.L P L Y ~ r.d.d.Z.MX+XUXUXUXUXlXq > * $ $ & & 4 e 2 4 - ; ; 4 a D D I Q } p.Z.MX%XUXUXUXUXUXUXUXUXUXUXUXUX$Xi & #   . . .   X # % q F G w.e.eXvX{ 9 UXUXUXUXUXUXUXUXUXUXUXUXUXUXUXUXUXUXUXUX",
"UXUXUXUXUXUXUXUXUXUXUXUXUXUXUXUXUXUXUXUXUXUXUXHXe.5.D i y h p h F L v j P J Y ~ $.7.i.g.nX*.UXUXUXS .X5 6 3 2 2 2 & 4 2 y e ; & ; y a j D P Y 7.i.u.PXOXUXUXUXUXUXUXUXUXUXUXUXlXi : # X . .     X # % e D E 5.L.sXSX#.c UXUXUXUXUXUXUXUXUXUXUXUXUXUXUXUXUXUXUXUX",
"UXUXUXUXUXUXUXUXUXUXUXUXUXUXUXUXUXUXUXUXUXUXL JXL.5.F a ; d d p p g s p n h v J I Q ~ ~ t.0XUXUXUXUX{.}.p s 4 2 & 4 & y y 4 2 & 4 2 y n s j L ! } t.t.NXOXUXUXUXUXUXUXUXUXUXUXlXi :   X .   .   X # # ; x H e.E.BXHX&.m UXUXUXUXUXUXUXUXUXUXUXUXUXUXUXUXUXUXUXUX",
"UXUXUXUXUXUXUXUXUXUXUXUXUXUXUXUXUXUXUXUXUXUXY JXL.9.H x , u u u d u p u p p s M b J L Y ! _ cXUXUXUXUX}.@.e y 4 7 & 4 & 4 4 y & - 6 , d y i L Y Y Q ~ u.GXu.UXUXUXUXUXUXUXUXUXrXf : # X         X # $ : i H w.T.SXJX*.m UXUXUXUXUXUXUXUXUXUXUXUXUXUXUXUXUXUXUXUX",
"UXUXUXUXUXUXUXUXUXUXUXUXUXUXUXUXUXUXUXUXUXUX' JXT.9.Y k 4 d 4 4 y 5 5 5 5 u u u s M b v J K $.6XUXUXUXUXXXo.q e y 2 4 4 - 2 n 4 - & - - , , g Y ! Q R ! M.MXu.UXUXUXUXUXUXUXUX$Xg < #     6 . X X # % - e G 5.L.aXHX#.c UXUXUXUXUXUXUXUXUXUXUXUXUXUXUXUXUXUXUXUX",
"UXUXUXUXUXUXUXUXUXUXUXUXUXUXUXUXUXUXUXUXUXUX' JXE.9.Y D 5 u u 4 4 5 5 5 u u s u u u u s s b J %.&XUXUXUXUXlX*.#.o.b - > 4 2 e ; 4 & & 6 - ; f L :Xy.Y L _ OX0XUXUXUXUXUXUXUXUX$Xj < # #   X   # $ # & - ; k 5.e.eXnX] 0 UXUXUXUXUXUXUXUXUXUXUXUXUXUXUXUXUXUXUXUX",
"UXUXUXUXUXUXUXUXUXUXUXUXUXUXUXUXUXUXUXUXUXUX[ KXW.w.Q D u #.y 4 4 5 > 6 4 9 6 5 u 5 5 u c 5 s j }.UXUXUXUXUX5Xv j #.#.] e y y 2 2 y % & & : e j ! K v v Y $.6XwXUXUXUXUXUXUXUX5XJ , % % # # $ % $ % 5 % ; i E w.@XrXV UXUXUXUXUXUXUXUXUXUXUXUXUXUXUXUXUXUXUXUXUX",
"UXUXUXUXUXUXUXUXUXUXUXUXUXUXUXUXUXUXUXUXUXUX[ KX^.w.| D u h 5 u > 6 5 > > > 9 , 4 > 5 u #.b u q p +XUXUXUXUXUX$XP D J P o.] : i a y y - & % , p v s p g L T $.0X+XUXUXUXUXUXUX6XJ q , % * & & ; % % % % 2 e G 5.@XrXc UXUXUXUXUXUXUXUXUXUXUXUXUXUXUXUXUXUXUXUXUX",
"UXUXUXUXUXUXUXUXUXUXUXUXUXUXUXUXUXUXUXUXUXUXX.JX!.w.^ P d s 5 4 5 , > * > 4 , > 6 6 > , o.c u 9 u 4 $XUXUXUXUXS XXY P P j n +.o.f i 4 2 - & 4 i g 6 4 d g K R $.cXx.UXUXUXUX}.$XK q ; < - 4 u a y % & & & 2 D 5.U.#X0 UXUXUXUXUXUXUXUXUXUXUXUXUXUXUXUXUXUXUXUXUX",
"UXUXUXUXUXUXUXUXUXUXUXUXUXUXUXUXUXUXUXUXUXUXq.JX^.w.6.L p s u u 6 5 > * , 5 > > > 4 5 5 > 5 5 5 6 u M lXUXUXUXUX@.OX{ ] Y n h P #.o.a d s & ; i s 4 , p p b v ! %.cX%.UXUXUX{.5XY g e < , p $.r.w - * $ & 2 k E U. X8 UXUXUXUXUXUXUXUXUXUXUXUXUXUXUXUXUXUXUXUXUX",
"UXUXUXUXUXUXUXUXUXUXUXUXUXUXUXUXUXUXUXUXUX#.&.JX(.a.=.G p n s m , > > * , * > 9 5 M > * = 8 * * 3 3 9 V UXUXUXUXUX{.OXr.{ Q P v l z &.#.; - ; h s 5 b u p s s v T %.6XUXUXUXx.%X! J q u g Y &X4XY y > $ % & z E J. XUXUXUXUXUXUXUXUXUXUXUXUXUXUXUXUXUXUXUXUXUXUX",
"UXUXUXUXUXUXUXUXUXUXUXUXUXUXUXUXUXUXUXUXUX&.@XLXuXa.9.I s h s 5 5 , 5 > 5 6 > * > &X> *   1   = = * % < A UXUXUXUXUX X,Xr.$...P P P P ' &.o.i h h g ] 5 5 y u p v _ x.6XUXUX@.7X^ D q , 4 h Y T q - & 6 # $ 2 D K..XUXUXUXUXUXUXUXUXUXUXUXUXUXUXUXUXUXUXUXUXUXUX",
"UXUXUXUXUXUXUXUXUXUXUXUXUXUXUXUXUXUXUXUXUX..).JXpXh.9.Q j b s u 5 > > 5 5 5 > < 6 XXx.* *   1       $ * 9 *.UXUXUXUXUX5X=Xy.r.{ ] #.L Y #.D &.#.j i d 3 n 4 4 4 p K ^ +X&XUXc.%X>.I q * * > , > * * 7 #   # - k K.$XUXUXUXUXUXUXUXUXUXUXUXUXUXUXUXUXUXUXUXUXUXUX",
"UXUXUXUXUXUXUXUXUXUXUXUXUXUXUXUXUXUXUXUXUX .Y.JXBXl.w...D b b n 5 5 > 5 p 5 > 5 m XXUX+.1 $   #     8 $ * , &XUXUXUXUX0 mX,Xd.r.} [ Y #.P h P ' *.#.z 4 4 2 2 , y p L $.&Xx.UX7X) K 5 = = = = = .   .   . # & x +..XUXUXUXUXUXUXUXUXUXUXUXUXUXUXUXUXUXUXUXUXUXUX",
"UXUXUXUXUXUXUXUXUXUXUXUXUXUXUXUXUXUXUXUXUX#.Y.KXBXQ.a.7.L v u p u , < , 5 > , u M .XUXc.o.*     1   $   $ * u 6XUXUXUXUXA FX>Xl.a.r.} ..Y n Y Y Y ' *.o.5 4 ; 3 > 4 b $._ 6XUXS }.r t = # $     . X . . .   & x &.rXUXUXUXUXUXUXUXUXUXUXUXUXUXUXUXUXUXUXUXUXUXUX",
"UXUXUXUXUXUXUXUXUXUXUXUXUXUXUXUXUXUXUXUX] X.uXKXAXQ.a.7.Y j p u 5 5 > 9 5 , 5 M M .XUXUX}.m * $   . .     * * R zXUXUXUX0 S LX>Xz.a.r.$.[ P P Y Y v b P #.o.; 3 3 4 5 b T ) zXN {.{.t < =       . . . .   # 7 x +.XXUXUXUXUXUXUXUXUXUXUXUXUXUXUXUXUXUXUXUXUXUXUX",
"UXUXUXUXUXUXUXUXUXUXUXUXUXUXUXUXUXUXUXUX] #.gXKXHX!.w.;.Q P b u , p , u , 5 u p m .XUXUXUXoXp $   1         = > o.UXUXUXUX8 c.FX;Xz.a.k.r.Y { { ' P h a d c o.] > 3 > q j ! $.xX8  XUXt * =     . . . . .   & x +..XUXUXUXUXUXUXUXUXUXUXUXUXUXUXUXUXUXUXUXUXUXUX",
"UXUXUXUXUXUXUXUXUXUXUXUXUXUXUXUXUXUXUXUX' K.JXKXAX~.h.9.Y L b p p o.q u u 5 p p R .XUXUXUXUX@X1 $ $     .   1 1 5 O.UXUXUXUX0 }.GX;Xz.h.y.} } ..&.{ z z a a d c o.V 4 < 5 b T %.5XUXxXUX4 * *   . . . .   $ 7 2 +..XUXUXUXUXUXUXUXUXUXUXUXUXUXUXUXUXUXUXUXUXUXUX",
"UXUXUXUXUXUXUXUXUXUXUXUXUXUXUXUXUXUXUXUXy.bXgXKXBXQ.w.7.Q L v b p b p u t M s b B .XUXUXUXUXUXOX4 $           = = 5 }.UXUXUXUX9 $XMX*Xz.h.a.r.r.} Y P F P z a d d n +.] , q b W *.XXN IXUX1 $ #           $ 7 2 +..XUXUXUXUXUXUXUXUXUXUXUXUXUXUXUXUXUXUXUXUXUXUX",
"UXUXUXUXUXUXUXUXUXUXUXUXUXUXUXUXUXUXUXJ.aXR.tXJXaXh.a.7.Q I J b b g g p p g b J ( .XUXUXUXUXUXUXJ.- $     . $   $ 3 y |.UXUXUX8 m cXMX-Xz.l.h.r.r...Y F F l z a a d d n #.] p b U }.c.S IX3 > = $ $   $ $ $ 7 n A .XUXUXUXUXUXUXUXUXUXUXUXUXUXUXUXUXUXUXUXUXUXUX",
"UXUXUXUXUXUXUXUXUXUXUXUXUXUXUXUXUXUXUX4Xh.w.(.JXiXl.w.7.T T L v v b b p b b b v $..XUXUXUXUXUXUXK.&.& $ $ + $ * $ 1 3 6 &XUXUXUX@ V SXMX;XQ.l.k.a.7.[ [ P F l a s d s s p M $.o.v U |.UXc.UX, 3 & $ $ $ 6 $ 7 7 A $XUXUXUXUXUXUXUXUXUXUXUXUXUXUXUXUXUXUXUXUXUXUX",
"UXUXUXUXUXUXUXUXUXUXUXUXUXUXUXUXUXUX4X9.w.w.T.KX<Xh.i.=.Q K L v J J J K v v K L $..XUXUXUXUXUXUXUXJ.&.2 7 7 1 7 7 6 1 1 V #XUXUXUX8 o.HXnX*Xz.l.h.r.8...' Y P l l z a d s s h n $.#.U 5XUX|.UXp 2 7 7 7 $ $ 7 2 V .XUXUXUXUXUXUXUXUXUXUXUXUXUXUXUXUXUXUXUXUXUXUX",
"UXUXUXUXUXUXUXUXUXUXUXUXUXUXUXUXUXiX7.Q ^ =.e.JX;Xh.i.~ ! I U K R K K K J L J T t..XUXUXUXUXUXUXUXUXoX' 7 7 1 7 7 7 1 1 6 A UXUXUXUX0 +.LX4X*XQ.l.h.0.7.} ' ' L P l z z z s h z n R %.t.zXUX5XUXx 7 7 7 7 $ 7 7 V .XUXUXUXUXUXUXUXUXUXUXUXUXUXUXUXUXUXUXUXUXUXUX",
"UXUXUXUXUXUXUXUXUXzXUXUXUXUXUXbX4X8.! Y I ^ w.JX*Xa.i.~ Q I K I K I Y $.L K K I u. XUXUXUXUXUXUXUXUXUXeXF 2 1 1 1 1 1 6 1 6 +.UXUXUXUX9 *.JX4X<Xz.l.h.y.8.} [ ' ' F F z l z h h z b K $.M.6XUXzXUXa 2 7 7 $ 7 7 c .XUXUXUXUXUXUXUXUXUXUXUXUXUXUXUXUXUXUXUXUXUXUX",
"UXUXUXUXUXUXUXUXUXUXUXUXUXUXrX2X7.Y Y v J Q w.JX=Xa.i.~ ~ ! U U T I I T I #.I ! M. XUXUXUXUXUXUXUXUXUXC uXz 2 7 1 1 1 1 1 6 6 J.UXUXUXO c OXJX4X-X~.h.k.y.8.8...' ' ] F P l l n s h b L $.OX7XZ vXa x 2 7 7 7 2 9 .XUXUXUXUXUXUXUXUXUXUXUXUXUXUXUXUXUXUXUXUXUXUX",
"UXUXUXUXUXUXUXUXUXIXUXUXUXSX<Xr.! Y L b D I w.LXZ.d.i.7.>.~ W ^ I U I W Q I Y ~ M.#XUXUXUXUXUXUXUXUXUXUX+.3Xx 2 1 3 1 7 6 7 6 z @XUXUXUXo c rXHX2X-XQ.h.k.y.8.8...[ ' Y P &.Y n h h n v R r.+X}.@.rXl a 2 2 2 2 c XXUXUXUXUXUXUXUXUXUXUXUXUXUXUXUXUXUXUXUXUXUXUX",
"UXUXUXUXUXUXUXUXUXUXUXUXDX-Xr.~ ! L P b b K w.GXZ.d.p.3.>.~ ~ ^ ! ^ ! W ^ $.W ~ :X XUXUXUXUXUXUXUXUXUXUXUXK.).a 6 6 2 2 7 6 6 d p %XUXUXUX+ ] zXSX1X/.Q.h.k.k.y.8. .[ ' ' ' P P l z n l R ! t.0X@.c.&XF x x 2 d c XXUXUXUXUXUXUXUXUXUXUXUXUXUXUXUXUXUXUXUXUXUXUX",
"UXUXUXUXUXUXUXUXUXUXUXGX;Xa.7.} ! T R b b L :.FXZ.l.p.g.>.>.,.-.-.-.^ ^ ^ ^ ~ r.=X&XUXUXUXUXUXUXUXUXUXUXUXUXoXI.z d 2 7 6 7 2 6 6 V #XUXUXUX+ V SXBX1X/.Q.Q.k.y.y.9.8...[ ' ' ' F ' P P L Y { u.0XS }.UXF z x x c }.UXUXUXUXUXUXUXUXUXUXUXUXUXUXUXUXUXUXUXUXUXUX",
"UXUXUXUXUXUXUXUXUXUXMX=Xa.i.-.! I L J b p K :.GXZ.f.s.p.3.3.3.>.-.-.,.^ _ ~ r.i.,X XUXUXUXUXUXUXUXUXUXUXUXUXUXeX| a d 2 6 d 2 6 5 s o.UXUXUXUX8 +.JXhXtX-X!.Q.k.k.k.0.8.8...[ ' ' ' ' Y L Y ! 7.M.zXm .X#.H z z c J.UXUXUXUXUXUXUXUXUXUXUXUXUXUXUXUXUXUXUXUXUXUX",
"UXUXUXUXUXUXUXUXUXDX,XM.r.r.) T L R b p t v ^ GXA.f.s.s.s.3.3.3.>.>.>.-.-.r.g.d.>X&XUXUXUXUXUXUXUXUXUXUXUXUXUX@ eXX.d z d 2 d d d d a &.UXUXUXUXc +.HXkXtX/.~.R.R.k.k.y.0.8.| | ..[ ' ' [ Y [ { r.Z.lX9 5XY F F c J.UXUXUXUXUXUXUXUXUXUXUXUXUXUXUXUXUXUXUXUXUXUX",
"UXUXUXUXUXUXUXUXUXUXUXUXUXUXUXUXUXUXUXUXUXUXUXGXS.V.V.s.s.3.s.3.3.>.>.>.>.i.a.f.0X6Xo.UXUXUXUXUXUXUXUXUXUXUXUXUXC eXH z z z a z s a z h J.UXUXUXO c J.JXgXtX(./.!.R.R.W.y.y.q.q. .| | X.X...[ [ } r.M.&XV lX' H n J.UXUXUXUXUXUXUXUXUXUXUXUXUXUXUXUXUXUXUXUXUXUX",
"UXUXUXUXUXUXUXUXUXUXUXUXUXUXUXUXUXUXUXUXUXUXUXGXS.Z.B.f.f.B.s.3.3.3.3.i.i.p.d.*XMXcXT UXUXUXUXUXUXUXUXUXUXUXUXUXUXA 3X' F V F V l P P P F @XUXUXUXO ] @XAXfXtX(.(.!.!.R.R.T.y.0.q.q.8.| | X.| X.....y.,X}.+.rXH ' *.UXUXUXUXUXUXUXUXUXUXUXUXUXUXUXUXUXUXUXUXUXUX",
"UXUXUXUXUXUXUXUXUXUXUXUXUXUXUXUXUXUXUXUXUXUXUXGXS.A.V.V.B.f.s.s.s.3.p.p.p.d.f.0XKXGX$.UXUXUXUXUXUXUXUXUXUXUXUXUXUXUXK.).X.z z z V n F P F ] @XUXUXUX8 z rXZXgXuX(.(.!.!.W.W.E.k.0.q.q.q.8.|  .X.....} y.%X+.@.OX] UXUXUXUXUXUXUXUXUXUXUXUXUXUXUXUXUXUXUXUXUXUXUX",
"UXUXUXUXUXUXUXUXUXUXUXUXUXUXUXUXUXUXUXUXUXUXUXGXF.A.A.V.V.B.f.f.s.s.s.s.s.f.=XMXKX6X( UXUXUXUXUXUXUXUXUXUXUXUXUXUXUX8 Y.).H F z z z z l z n ] @XUXUXUXc ] bXZXdXuX`.(.(.(.W.W.W.T.L.q.q.q.q. .8.8.X.| 6.w.%Xo.J.J.J.UXUXUXUXUXUXUXUXUXUXUXUXUXUXUXUXUXUXUXUXUXUX",
"UXUXUXUXUXUXUXUXUXUXUXUXUXUXUXUXUXUXUXUXUXUXUXGX8XA.A.A.C.V.B.f.s.s.s.s.f.=XMXGX}.o.M UXUXUXUXUXUXUXUXUXUXUXUXUXUXUXUXV Y.q.' z z z z z z z F #.UXUXUX+ C ] SXjXkXfXtX`.(.(.^.W.W.W.T.L.P.0.q.q.q.q.| | 8.w.sXC }.}.UXUXUXUXUXUXUXUXUXUXUXUXUXUXUXUXUXUXUXUXUXUX",
"UXUXUXUXUXUXUXUXUXUXUXUXUXUXUXUXUXUXUXUXUXUXUXGXF.S.A.A.A.V.B.B.f.s.d.B.S.nXMXo.R 8 O UXUXUXUXUXUXUXUXUXUXUXUXUXUXUXUXC C eX5.H z z z z l z l H &.UXUXUX+ c X.HXjXdXfXuXfX`.(.^.^.^.!.E.T.L.P.q.q.q.q.| 6.0.k.eXM UXUXUXUXUXUXUXUXUXUXUXUXUXUXUXUXUXUXUXUXUXUXUX",
"UXUXUXUXUXUXUXUXUXUXUXUXUXUXUXUXUXUXUXUXUXUXUXGXG.S.F.A.A.V.A.V.B.f.Z.S.NXcXo.9 8 o UXUXUXUXUXUXUXUXUXUXUXUXUXUXUXUXUXUXUXV `.X.F F F F F ' F ' [ U.UXUXUX8 V ).JXjXkXfXfX`.`.`.^.^.^.^.E.E.L.e.P.q.q.q.q.8.0.W.eXUXUXUXUXUXUXUXUXUXUXUXUXUXUXUXUXUXUXUXUXUXUXUX",
"UXUXUXUXUXUXUXUXUXUXUXUXUXUXUXUXUXUXUXUXUXUXUXGXG.F.F.F.S.C.A.V.Z.A.,XNXlXR 8 O UXUXUXUXUXUXUXUXUXUXUXUXUXUXUXUXUXUXUXUXUX0 C 3XE H F P H H [ Q [ } @XUXUXUX8 V Y.JXjXdXfXfXfX'.`.`._.^.^.^.E.T.L.L.L.P.L.q.q.e.(.@XUXUXUXUXUXUXUXUXUXUXUXUXUXUXUXUXUXUXUXUXUXUX",
"UXUXUXUXUXUXUXUXUXUXUXUXUXUXUXUXUXUXUXUXUXUXUXGX9XF.F.F.F.A.A.S.A.F.GX%XR 8 o UXUXUXUXUXUXUXUXUXUXUXUXUXUXUXUXUXUXUXUXUXUXUXUXA Y.y.y.y.y.y.y.I.j.~.2XrXUXUXUXc ] eXHXkXdXfXfXfX'.`.`._._.^.^.^.E.L.L.L.L.e.P.e.j.fXY.UXUXUXUXUXUXUXUXUXUXUXUXUXUXUXUXUXUXUXUXUX",
"UXUXUXUXUXUXUXUXUXUXUXUXUXUXUXUXUXUXUXUXUXUXUXNXG.F.G.F.F.F.F.S.8XGX&Xm 8 o UXUXUXUXUXUXUXUXUXUXUXUXUXUXUXUXUXUXUXUXUXUXUXUXUXUXUXUXUXUXUXUXUX0 8 0 C Z UXUXUX+ C X.sXHXjXkXdXdXdXfX'.'._._._.^.^.^.E.E.L.L.e.e.k.W.gXI.UXUXUXUXUXUXUXUXUXUXUXUXUXUXUXUXUXUXUXUX",
"UXUXUXUXUXUXUXUXUXUXUXUXUXUXUXUXUXUXUXUXUXUXUXNX9XG.G.F.F.F.F.8XMX}.M + o UXUXUXUXUXUXUXUXUXUXUXUXUXUXUXUXUXUXUXUXUXUXUXUXUXUXUXUXUXUXUXUXUXUXUXUXUXUXUXUXUXUXUX8 c X.SXAXjXkXkXdXdXfXfX'.'.].]._._.^.^.^.E.L.L.e.e.(.CXE.UXUXUXUXUXUXUXUXUXUXUXUXUXUXUXUXUXUXUX",
"UXUXUXUXUXUXUXUXUXUXUXUXUXUXUXUXUXUXUXUXUXUXUXNXG.G.G.G.G.8X8XGXx.m + UXUXUXUXUXUXUXUXUXUXUXUXUXUXUXUXUXUXUXUXUXUXUXUXUXUXUXUXUXUXUXUXUXUXUXUXUXUXUXUXUXUXUXUXUXUXC ] [.AXHXVXCXjXkXdXdX'.'.'.'.].]._._._.E.E.L.E.j.e.`.CXP.UXUXUXUXUXUXUXUXUXUXUXUXUXUXUXUXUXUX",
"UXUXUXUXUXUXUXUXUXUXUXUXUXUXUXUXUXUXUXUXUXUXUXqX9X9XG.G.G.qXGXO.9 + UXUXUXUXUXUXUXUXUXUXUXUXUXUXUXUXUXUXUXUXUXUXUXUXUXUXUXUXUXUXUXUXUXUXUXUXUXUXUXUXUXUXUXUXUXUXUX8 z ] ).PXJXAXVXCXjXdXdXdX'.'.'.].].]._._.^._.E.T.T.T.uXCXP.UXUXUXUXUXUXUXUXUXUXUXUXUXUXUXUXUX",
"UXUXUXUXUXUXUXUXUXUXUXUXUXUXUXUXUXUXUXUXUXUXx.qX9X9X9X9XqXmXO.9 + UXUXUXUXUXUXUXUXUXUXUXUXUXUXUXUXUXUXUXUXUXUXUXUXUXUXUXUXUXUXUXUXUXUXUXUXUXUXUXUXUXUXUXUXUXUXUXUXUXO c X.eXKXKXKXKXJXJXHXHXHXAXAXVXkXjXjXkX'.dXgXpXuXyXuXHXZX^.UXUXUXUXUXUXUXUXUXUXUXUXUXUXUXUX",
"UXUXUXUXUXUXUXUXUXUXUXUXUXUXUXUXUXUXUXUXUXUX7XqX9X9XG.qXmXO.8 @ UXUXUXUXUXUXUXUXUXUXUXUXUXUXUXUXUXUXUXUXUXUXUXUXUXUXUXUXUXUXUXUXUXUXUXUXUXUXUXUXUXUXUXUXUXUXUXUXUXUXUX+ 0 X.Y.U.).[.+.X.] ] V ] V V V V V V V z V V V ] X.eXHXVXP.UXUXUXUXUXUXUXUXUXUXUXUXUXUXUX",
"UXUXUXUXUXUXUXUXUXUXUXUXUXUXUXUXUXUXUXUXUXUXNX9X9X9XqXmXB @ o UXUXUXUXUXUXUXUXUXUXUXUXUXUXUXUXUXUXUXUXUXUXUXUXUXUXUXUXUXUXUXUXUXUXUXUXUXUXUXUXUXUXUXUXUXUXUXUXUXUXUXUXUX+ 0 C V V c c 8 + + + + 8 + + + + + + + + + + 8 c ] Y.JXjXP.UXUXUXUXUXUXUXUXUXUXUXUXUXUX",
"UXUXUXUXUXUXUXUXUXUXUXUXUXUXUXUXUXUXUXUXUXD.LXqX9XNX6XN @ o UXUXUXUXUXUXUXUXUXUXUXUXUXUXUXUXUXUXUXUXUXUXUXUXUXUXUXUXUXUXUXUXUXUXUXUXUXUXUXUXUXUXUXUXUXUXUXUXUXUXUXUXUXUXUXO + 0 + O o o o o o o o o + UXo UXUXUXUXUXUXUXO 8 V K.PXgXq.UXUXUXUXUXUXUXUXUXUXUXUXUX",
"UXUXUXUXUXUXUXUXUXUXUXUXUXUXUXUXUXUXUXUXD.wXNXqXNX7XN o o UXUXUXUXUXUXUXUXUXUXUXUXUXUXUXUXUXUXUXUXUXUXUXUXUXUXUXUXUXUXUXUXUXUXUXUXUXUXUXUXUXUXUXUXUXUXUXUXUXUXUXUXUXUXUXUXUXUX+ o UXUXUXUXUXUXUXUXUXUXUXUXUXUXUXUXUXUXUXUXUX+ c &.HXuXUXUXUXUXUXUXUXUXUXUXUXUXUX",
"UXUXUXUXUXUXUXUXUXUXUXUXUXUXUXUXUXUXUXUX8XPXNXGX XN O o UXUXUXUXUXUXUXUXUXUXUXUXUXUXUXUXUXUXUXUXUXUXUXUXUXUXUXUXUXUXUXUXUXUXUXUXUXUXUXUXUXUXUXUXUXUXUXUXUXUXUXUXUXUXUXUXUXUXUXUXUXUXUXUXUXUXUXUXUXUXUXUXUXUXUXUXUXUXUXUXUXUXUX@ 9 +.AXY.UXUXUXUXUXUXUXUXUXUXUXUX",
"UXUXUXUXUXUXUXUXUXUXUXUXUXUXUXUXUXUXUXUXwXGXGXN.N o UXUXUXUXUXUXUXUXUXUXUXUXUXUXUXUXUXUXUXUXUXUXUXUXUXUXUXUXUXUXUXUXUXUXUXUXUXUXUXUXUXUXUXUXUXUXUXUXUXUXUXUXUXUXUXUXUXUXUXUXUXUXUXUXUXUXUXUXUXUXUXUXUXUXUXUXUXUXUXUXUXUXUXUXUXUXo 8 o.SXK.UXUXUXUXUXUXUXUXUXUXUX",
"UXUXUXUXUXUXUXUXUXUXUXUXUXUXUXUXUXUXUXD.GXGXx.N o UXUXUXUXUXUXUXUXUXUXUXUXUXUXUXUXUXUXUXUXUXUXUXUXUXUXUXUXUXUXUXUXUXUXUXUXUXUXUXUXUXUXUXUXUXUXUXUXUXUXUXUXUXUXUXUXUXUXUXUXUXUXUXUXUXUXUXUXUXUXUXUXUXUXUXUXUXUXUXUXUXUXUXUXUXUXUXUXUXo V SXUXUXUXUXUXUXUXUXUXUXUX",
"UXUXUXUXUXUXUXUXUXUXUXUXUXUXUXUXUXUXUXmXGXc.N o UXUXUXUXUXUXUXUXUXUXUXUXUXUXUXUXUXUXUXUXUXUXUXUXUXUXUXUXUXUXUXUXUXUXUXUXUXUXUXUXUXUXUXUXUXUXUXUXUXUXUXUXUXUXUXUXUXUXUXUXUXUXUXUXUXUXUXUXUXUXUXUXUXUXUXUXUXUXUXUXUXUXUXUXUXUXUXUXUXUXUXo C hXUXUXUXUXUXUXUXUXUXUX",
"UXUXUXUXUXUXUXUXUXUXUXUXUXUXUXUXUXUXwXGXc.@ o UXUXUXUXUXUXUXUXUXUXUXUXUXUXUXUXUXUXUXUXUXUXUXUXUXUXUXUXUXUXUXUXUXUXUXUXUXUXUXUXUXUXUXUXUXUXUXUXUXUXUXUXUXUXUXUXUXUXUXUXUXUXUXUXUXUXUXUXUXUXUXUXUXUXUXUXUXUXUXUXUXUXUXUXUXUXUXUXUXUXUXUXUXUXZ `.UXUXUXUXUXUXUXUXUX",
"UXUXUXUXUXUXUXUXUXUXUXUXUXUXUXUXUXwXmXS @ o UXUXUXUXUXUXUXUXUXUXUXUXUXUXUXUXUXUXUXUXUXUXUXUXUXUXUXUXUXUXUXUXUXUXUXUXUXUXUXUXUXUXUXUXUXUXUXUXUXUXUXUXUXUXUXUXUXUXUXUXUXUXUXUXUXUXUXUXUXUXUXUXUXUXUXUXUXUXUXUXUXUXUXUXUXUXUXUXUXUXUXUXUXUXUXUXC I.UXUXUXUXUXUXUXUX",
"UXUXUXUXUXUXUXUXUXUXUXUXUXUXUXUXUX6XB + UXUXUXUXUXUXUXUXUXUXUXUXUXUXUXUXUXUXUXUXUXUXUXUXUXUXUXUXUXUXUXUXUXUXUXUXUXUXUXUXUXUXUXUXUXUXUXUXUXUXUXUXUXUXUXUXUXUXUXUXUXUXUXUXUXUXUXUXUXUXUXUXUXUXUXUXUXUXUXUXUXUXUXUXUXUXUXUXUXUXUXUXUXUXUXUXUXUXUXUXUXUXUXUXUXUXUXUX",
"UXUXUXUXUXUXUXUXUXUXUXUXUXUXUXUX XUXUXUXUXUXUXUXUXUXUXUXUXUXUXUXUXUXUXUXUXUXUXUXUXUXUXUXUXUXUXUXUXUXUXUXUXUXUXUXUXUXUXUXUXUXUXUXUXUXUXUXUXUXUXUXUXUXUXUXUXUXUXUXUXUXUXUXUXUXUXUXUXUXUXUXUXUXUXUXUXUXUXUXUXUXUXUXUXUXUXUXUXUXUXUXUXUXUXUXUXUXUXUXUXUXUXUXUXUXUXUX",
"UXUXUXUXUXUXUXUXUXUXUXUXUXUXUX|.UXUXUXUXUXUXUXUXUXUXUXUXUXUXUXUXUXUXUXUXUXUXUXUXUXUXUXUXUXUXUXUXUXUXUXUXUXUXUXUXUXUXUXUXUXUXUXUXUXUXUXUXUXUXUXUXUXUXUXUXUXUXUXUXUXUXUXUXUXUXUXUXUXUXUXUXUXUXUXUXUXUXUXUXUXUXUXUXUXUXUXUXUXUXUXUXUXUXUXUXUXUXUXUXUXUXUXUXUXUXUXUX",
"UXUXUXUXUXUXUXUXUXUXUXUXUXUX|.UXUXUXUXUXUXUXUXUXUXUXUXUXUXUXUXUXUXUXUXUXUXUXUXUXUXUXUXUXUXUXUXUXUXUXUXUXUXUXUXUXUXUXUXUXUXUXUXUXUXUXUXUXUXUXUXUXUXUXUXUXUXUXUXUXUXUXUXUXUXUXUXUXUXUXUXUXUXUXUXUXUXUXUXUXUXUXUXUXUXUXUXUXUXUXUXUXUXUXUXUXUXUXUXUXUXUXUXUXUXUXUXUX",
"UXUXUXUXUXUXUXUXUXUXUXUXUXUXUXUXUXUXUXUXUXUXUXUXUXUXUXUXUXUXUXUXUXUXUXUXUXUXUXUXUXUXUXUXUXUXUXUXUXUXUXUXUXUXUXUXUXUXUXUXUXUXUXUXUXUXUXUXUXUXUXUXUXUXUXUXUXUXUXUXUXUXUXUXUXUXUXUXUXUXUXUXUXUXUXUXUXUXUXUXUXUXUXUXUXUXUXUXUXUXUXUXUXUXUXUXUXUXUXUXUXUXUXUXUXUXUXUX",
"UXUXUXUXUXUXUXUXUXUXUXUXUXUXUXUXUXUXUXUXUXUXUXUXUXUXUXUXUXUXUXUXUXUXUXUXUXUXUXUXUXUXUXUXUXUXUXUXUXUXUXUXUXUXUXUXUXUXUXUXUXUXUXUXUXUXUXUXUXUXUXUXUXUXUXUXUXUXUXUXUXUXUXUXUXUXUXUXUXUXUXUXUXUXUXUXUXUXUXUXUXUXUXUXUXUXUXUXUXUXUXUXUXUXUXUXUXUXUXUXUXUXUXUXUXUXUXUX",
"UXUXUXUXUXUXUXUXUXUXUXUXUXUXUXUXUXUXUXUXUXUXUXUXUXUXUXUXUXUXUXUXUXUXUXUXUXUXUXUXUXUXUXUXUXUXUXUXUXUXUXUXUXUXUXUXUXUXUXUXUXUXUXUXUXUXUXUXUXUXUXUXUXUXUXUXUXUXUXUXUXUXUXUXUXUXUXUXUXUXUXUXUXUXUXUXUXUXUXUXUXUXUXUXUXUXUXUXUXUXUXUXUXUXUXUXUXUXUXUXUXUXUXUXUXUXUXUX",
"UXUXUXUXUXUXUXUXUXUXUXUXUXUXUXUXUXUXUXUXUXUXUXUXUXUXUXUXUXUXUXUXUXUXUXUXUXUXUXUXUXUXUXUXUXUXUXUXUXUXUXUXUXUXUXUXUXUXUXUXUXUXUXUXUXUXUXUXUXUXUXUXUXUXUXUXUXUXUXUXUXUXUXUXUXUXUXUXUXUXUXUXUXUXUXUXUXUXUXUXUXUXUXUXUXUXUXUXUXUXUXUXUXUXUXUXUXUXUXUXUXUXUXUXUXUXUXUX",
"UXUXUXUXUXUXUXUXUXUXUXUXUXUXUXUXUXUXUXUXUXUXUXUXUXUXUXUXUXUXUXUXUXUXUXUXUXUXUXUXUXUXUXUXUXUXUXUXUXUXUXUXUXUXUXUXUXUXUXUXUXUXUXUXUXUXUXUXUXUXUXUXUXUXUXUXUXUXUXUXUXUXUXUXUXUXUXUXIXUXUXUXUXUXUXUXUXUXUXUXUXUXUXUXUXUXUXUXUXUXUXUXUXUXUXUXUXUXUXUXUXUXUXUXUXUXUXUX",
"UXUXUXUXUXUXUXUXUXUXUXUXUXUXUXUXUXUXUXUXUXUXUXUXUXUXUXUXUXUXUXUXUXUXUXUXUXUXUXUXUXUXUXUXUXUXUXUXUXUXUXUXUXUXUXUXUXUXUXUXUXUXUXUXUXUXUXUXUXUXUXUXUXUXUXUXUXUXUXUXUXUXUXUXUXUXUXUXUXUXUXUXUXUXUXUXUXUXUXUXUXUXUXUXUXUXUXUXUXUXUXUXUXUXUXUXUXUXUXUXUXUXUXUXUXUXUXUX",
"UXUXUXUXUXUXUXUXUXUXUXUXUXUXUXUXUXUXUXUXUXUXUXUXUXUXUXUXUXUXUXUXUXUXUXUXUXUXUXUXUXUXUXUXUXUXUXUXUXUXUXUXUXUXUXUXUXUXUXUXUXUXUXUXUXUXUXUXUXUXUXUXUXUXUXUXUXUXUXUXUXUXUXUXUXUXUXUXUXUXUXUXUXUXUXUXUXUXUXUXUXUXUXUXUXUXUXUXUXUXUXUXUXUXUXUXUXUXUXUXUXUXUXUXUXUXUXUX",
"UXUXUXUXUXUXUXUXUXUXUXUXUXUXUXUXUXUXUXUXUXUXUXUXUXUXUXUXUXUXUXUXUXUXUXUXUXUXUXUXUXUXUXUXUXUXUXUXUXUXUXUXUXUXUXUXUXUXUXUXUXUXUXUXUXUXUXUXUXUXUXUXUXUXUXUXUXUXUXUXUXUXUXUXUXUXUXUXUXUXUXUXUXUXUXUXUXUXUXUXUXUXUXUXUXUXUXUXUXUXUXUXUXUXUXUXUXUXUXUXUXUXUXUXUXUXUXUX",
"UXUXUXUXUXUXUXUXUXUXUXUXUXUXUXUXUXUXUXUXUXUXUXUXUXUXUXUXUXUXUXUXUXUXUXUXUXUXUXUXUXUXUXUXUXUXUXUXUXUXUXUXUXUXUXUXUXUXUXUXUXUXUXUXUXUXUXUXUXUXUXUXUXUXUXUXUXUXUXUXUXUXUXUXUXUXUXUXUXUXUXUXUXUXUXUXUXUXUXUXUXUXUXUXUXUXUXUXUXUXUXUXUXUXUXUXUXUXUXUXUXUXUXUXUXUXUXUX",
"UXUXUXUXUXUXUXUXUXUXUXUXUXUXUXUXUXUXUXUXUXUXUXUXUXUXUXUXUXUXUXUXUXUXUXUXUXUXUXUXUXUXUXUXUXUXUXUXUXUXUXUXUXUXUXUXUXUXUXUXUXUXUXUXUXUXUXUXUXUXUXUXUXUXUXUXUXUXUXUXUXUXUXUXUXUXUXUXUXUXUXUXUXUXUXUXUXUXUXUXUXUXUXUXUXUXUXUXUXUXUXUXUXUXUXUXUXUXUXUXUXUXUXUXUXUXUXUX",
"UXUXUXUXUXUXUXUXUXUXUXUXUXUXUXUXUXUXUXUXUXUXUXUXUXUXUXUXUXUXUXUXUXUXUXUXUXUXUXUXUXUXUXUXUXUXUXUXUXUXUXUXUXUXUXUXUXUXUXUXUXUXUXUXUXUXUXUXUXUXUXUXUXUXUXUXUXUXUXUXUXUXUXUXUXUXUXUXUXUXUXUXUXUXUXUXUXUXUXUXUXUXUXUXUXUXUXUXUXUXUXUXUXUXUXUXUXUXUXUXUXUXUXUXUXUXUXUX"
};
