/* XPM */
static char *result[] = {
/* columns rows colors chars-per-pixel */
"32 32 202 2 ",
"   c #0B133C",
".  c #0D1B4D",
"X  c #0D1644",
"o  c #10164C",
"O  c #121B4C",
"+  c #0D1A51",
"@  c #131E56",
"#  c #161B5D",
"$  c #12224F",
"%  c #13215C",
"&  c #19235E",
"*  c #1D2B5B",
"=  c #1B2855",
"-  c #2B3142",
";  c #252B5B",
":  c #2A3F5E",
">  c #3F3F54",
",  c #383448",
"<  c #1B1D6B",
"1  c #1F1E70",
"2  c #0F2163",
"3  c #122164",
"4  c #1C2A64",
"5  c #1C286C",
"6  c #162968",
"7  c #1A2C76",
"8  c #1A287A",
"9  c #1B3377",
"0  c #202E6C",
"q  c #2B336A",
"w  c #303765",
"e  c #212B77",
"r  c #253477",
"t  c #3A3D7B",
"y  c #394270",
"u  c #4C5165",
"i  c #485679",
"p  c #5E5B7F",
"a  c #47497C",
"s  c #5C6479",
"d  c #182B85",
"f  c #1F3781",
"g  c #1A3895",
"h  c #262786",
"j  c #2B308E",
"k  c #293886",
"l  c #323E88",
"z  c #2C2F98",
"x  c #22329A",
"c  c #2A3C96",
"v  c #323999",
"b  c #382897",
"n  c #3C2DAC",
"m  c #3B39AF",
"M  c #3533B3",
"N  c #3B3AB5",
"B  c #2737AB",
"V  c #482CAD",
"C  c #6133BF",
"Z  c #30418D",
"A  c #374894",
"S  c #2C449C",
"D  c #2F4BAB",
"F  c #3744A6",
"G  c #274CB4",
"H  c #2140B1",
"J  c #3645B0",
"K  c #3456BA",
"L  c #3662A3",
"P  c #475A80",
"I  c #5F5D83",
"U  c #53558E",
"Y  c #466896",
"T  c #55669D",
"R  c #726E8C",
"E  c #72798E",
"W  c #676393",
"Q  c #6B7C95",
"!  c #756D9C",
"~  c #4F50AE",
"^  c #4148BE",
"/  c #655CAD",
"(  c #6F59B5",
")  c #5661BB",
"_  c #5D6CA7",
"`  c #6F6AA2",
"'  c #746CA6",
"]  c #7978AC",
"[  c #6D65B1",
"{  c #4938C9",
"}  c #5638C8",
"|  c #6132CB",
" . c #7733D0",
".. c #4D3DE5",
"X. c #3255C6",
"o. c #3063C8",
"O. c #3A72D7",
"+. c #4A4FC0",
"@. c #4954C8",
"#. c #5E5DC0",
"$. c #4D60CC",
"%. c #5275CB",
"&. c #4173DA",
"*. c #5165CD",
"=. c #6470D0",
"-. c #595DE6",
";. c #6559ED",
":. c #7353FD",
">. c #674EF6",
",. c #426DE0",
"<. c #5665E4",
"1. c #5475EA",
"2. c #677EEC",
"3. c #7675E2",
"4. c #8174A5",
"5. c #887FAA",
"6. c #9879A9",
"7. c #976CA5",
"8. c #AE62BD",
"9. c #9B38EE",
"0. c #8240DF",
"q. c #8F5BFE",
"w. c #8070FC",
"e. c #BA6BFD",
"r. c #A079F3",
"t. c #C24EFC",
"y. c #DC76FC",
"u. c #7D8FBA",
"i. c #768FAD",
"p. c #3A83ED",
"a. c #5884D7",
"s. c #6789D1",
"d. c #5FACDF",
"f. c #5C92E1",
"g. c #5F91F6",
"h. c #4A96F2",
"j. c #6392FD",
"k. c #738EEF",
"l. c #44A0F6",
"z. c #56BEFD",
"x. c #6AADF4",
"c. c #6DC4DE",
"v. c #78DFFD",
"b. c #878C8F",
"n. c #98839C",
"m. c #8886AB",
"M. c #9084AF",
"N. c #949DA1",
"B. c #8A88BC",
"V. c #9D88BD",
"C. c #8B9ABF",
"Z. c #A38FAB",
"A. c #B289B8",
"S. c #928BCC",
"D. c #AE90D9",
"F. c #AF94CB",
"G. c #9BA4CC",
"H. c #96A9CA",
"J. c #8FABD0",
"K. c #8BAFCD",
"L. c #B0A3D6",
"P. c #8692ED",
"I. c #9E9DE0",
"U. c #8B93FD",
"Y. c #948AEA",
"T. c #A39EF5",
"R. c #AF8FE7",
"E. c #9FA5EC",
"W. c #9EB0EB",
"Q. c #84A3F8",
"!. c #93AAFD",
"~. c #81B3FD",
"^. c #97B9F8",
"/. c #A0A3EC",
"(. c #BAAEF0",
"). c #ABBEF2",
"_. c #B5B4FA",
"`. c #E085E2",
"'. c #F584FC",
"]. c #CCBEFB",
"[. c #E0ACE9",
"{. c #AACDDD",
"}. c #86D1E0",
"|. c #93C4FC",
" X c #9FD8FE",
".X c #98CCEA",
"XX c #ABD9F9",
"oX c #B9DDFC",
"OX c #B4D2E8",
"+X c #96E0FD",
"@X c #9DF5FD",
"#X c #BCE6F8",
"$X c #D1D1ED",
"%X c #C1C7EA",
"&X c #C0EBFC",
"*X c #CBF5FA",
"=X c #CCF9FD",
"-X c #C5F8FD",
";X c #D4FCFD",
":X c #EFE9F8",
">X c #EAFCFD",
",X c None",
/* pixels */
",X,X,X,X,X,X,X,X,X,X,X,X,X,X,X,X,X,X,X,X,X,X,X,X,X,X,X,X,X,X,X,X",
",X,X,X,X,X,X,X,X,X,X,X,X,X,X,X,X,X,X,X,X,X,X,X,X,X,X,X,X,X,X,X,X",
",X,X,X,X,X,X,X,X,X,X,X,X,X,X,X,X,X,X,X,X,X,X,X,X,X,X,X,X,X,X,X,X",
",X,X,X,X,X,X,X,X,X,Xr.,X,X,X,X,X,X,X,X,X,X,X,X,X,X,X,XM.,X,X,X,X",
",X,X,XG.,X,X,X,X,X,X,Xw.,X,X,X,X,X,X,X,X,X,X,X,X,X,X`.,X,X,X,X,X",
",X,X,Xa OX,X,X,X,X,X,X4.k.,X,X,X,X,X,X,X,X,X,X,XR.t.8.,X,X,X,X,X",
",X,X,X,X' :X_.U.Q.|.&XN.=.&.,X,X,X,X,X,X,X,X,XY.9.9.7.,X,X,X,X,X",
",X,X,X,X,X] $XU.j.x.XX;Xb.%.O.,X,X,X,X,X,X,XT.} |  .6.,X,X,X,X,X",
",X,X,X,X,X,XM._.^.|.XX-X*X,Xa.s.,X,X,X,X,XG.;.V V C 6.,X,X,X,X,X",
",X,X,X,X,X,X( 5.P.oX-X=X*XXX,X,X,X,X,X,X,Xm.M h b C 6.,X,X,X,X,X",
",X,X,X,X,X,Xm ` W @.).>X=XXXW.,X,X,X,X,X,X,Xd 1 e { 6.,X,X,X,X,X",
",X,X,X,X,X,Xd F W U g $.OX#X!.E.,X,X,X,X,X,X< # 1 { L.,X,X,X,X,X",
",X,X,X,X,X,X7 8 +.R U 8 d D k.U.%X,X,X,X,X,X@ o @ M V.,X,X,X,X,X",
",X,X,X,X,X,Xd # r w.4.t < 3 8 J T.$X,X,X,X,X+   o B C.,X,X,X,X,X",
",X,X,X,X,X,Xg 5 v ^ (.,Xq @ % 2 x 3.L.,X,X,X+   o H S.,X,X,X,X,X",
",X,X,X,X,X,XG 5 4 r B [ ,X4 @ % & d #.,X,X,Xo   . G G.,X,X,X,X,X",
",X,X,X,X,XC.X.4 = # * r ,X,XZ 0 % 3 k / ,X,X# o @ d i.,X,X,X,X,X",
",X,X,X,X,XJ.$.0 @ @ w $ * ,X! F Z r 5 5 / ,Xe l @ 2 Q ,X,X,X,X,X",
",X,X,X,X,XJ.2.e # & I ;   ; ,XS.@.c l 4 0 ' t X   . E ,X,X,X,X,X",
",X,X,X,X,X^.g.j 0 e ,X,X* X w ,XI.<.F 9 0 k ! ; X . ,X,X,X,X,X,X",
",X,X,X,X) =.-.x j j ,X,XP * $ y u E.<.D 9 9 A m.4 . ,X,X,X,X,X,X",
",X,X,X=.j ) >.{ n N S.,X,XY 6 = a s ^.1.K S k ~ ] 5 ,X,X,X,X,X,X",
",X,X,X,X,Xm.q.>...;.F.,X,X,XY 9 9 P i.|.g.&.o.G #._ ,X,X,X,X,X,X",
",X,X,X,X,X,Xe.q.:.R.p ,X,X,X,XL 9 Z ,Xi.+Xx.h.O.o.%.,X,X,X,X,X,X",
",X,X,X,X,X,Xy.e.D.> ,X,X,X,X,X,XA L T ,XK.@Xv.z.l.p.x.,X,X,X,X,X",
",X,X,X,X,X,X'.F., ,X,X,X,X,X,X,X,X,X,X,X: {.XX}.c.d.f..X,X,X,X,X",
",X,X,X,X,X[.A.,X,X,X,X,X,X,X,X,X,X,X,X,X,X- - ,X,X,X,Xi K.,X,X,X",
",X,X,X,X,XZ.,X,X,X,X,X,X,X,X,X,X,X,X,X,X,X,X,X,X,X,X,X,X,X,X,X,X",
",X,X,X,X,X,X,X,X,X,X,X,X,X,X,X,X,X,X,X,X,X,X,X,X,X,X,X,X,X,X,X,X",
",X,X,X,X,X,X,X,X,X,X,X,X,X,X,X,X,X,X,X,X,X,X,X,X,X,X,X,X,X,X,X,X",
",X,X,X,X,X,X,X,X,X,X,X,X,X,X,X,X,X,X,X,X,X,X,X,X,X,X,X,X,X,X,X,X",
",X,X,X,X,X,X,X,X,X,X,X,X,X,X,X,X,X,X,X,X,X,X,X,X,X,X,X,X,X,X,X,X"
};
