/* XPM */
static char *result[] = {
/* columns rows colors chars-per-pixel */
"256 256 256 2 ",
"   c #0B133C",
".  c #0A1338",
"X  c #080F39",
"o  c #2C2C2E",
"O  c #2B2C34",
"+  c #2B2C3B",
"@  c #262C3C",
"#  c #312B39",
"$  c #0C1543",
"%  c #0C1A44",
"&  c #0C164B",
"*  c #0D1B4C",
"=  c #061347",
"-  c #121C4C",
";  c #111749",
":  c #0D1B53",
">  c #0E1D5B",
",  c #0C1653",
"<  c #131D54",
"1  c #131C5B",
"2  c #141756",
"3  c #0A0D41",
"4  c #12214E",
"5  c #0E2257",
"6  c #132255",
"7  c #14225B",
"8  c #19235C",
"9  c #16275A",
"0  c #10234F",
"q  c #2A2D46",
"w  c #2A2C58",
"e  c #283459",
"r  c #322F4E",
"t  c #0D1D63",
"y  c #131D63",
"u  c #1A1C68",
"i  c #1C1D74",
"p  c #0D1F75",
"a  c #231E77",
"s  c #211F66",
"d  c #0E2266",
"f  c #132363",
"g  c #1A2463",
"h  c #14246B",
"j  c #1B256B",
"k  c #1B2A6C",
"l  c #162A67",
"z  c #142473",
"x  c #1C2573",
"c  c #1C2B74",
"v  c #1C2B7B",
"b  c #162878",
"n  c #1C337B",
"m  c #1A3376",
"M  c #172D70",
"N  c #262B68",
"B  c #283768",
"V  c #222B7C",
"C  c #232777",
"Z  c #253579",
"A  c #363270",
"S  c #4B326E",
"D  c #523563",
"F  c #324576",
"G  c #2D4563",
"H  c #4D4D73",
"J  c #5D576C",
"K  c #192A86",
"L  c #1C3587",
"P  c #192B96",
"I  c #1B3697",
"U  c #0B2B87",
"Y  c #232C83",
"T  c #272888",
"R  c #253688",
"E  c #363788",
"W  c #292A96",
"Q  c #352799",
"!  c #283797",
"~  c #363798",
"^  c #362B88",
"/  c #1B37A8",
"(  c #1835B2",
")  c #382BA6",
"_  c #2937A6",
"`  c #3437A7",
"'  c #2839B7",
"]  c #3838B8",
"[  c #2E2CAF",
"{  c #281E87",
"}  c #4A3791",
"|  c #452BA9",
" . c #4D32B4",
".. c #6F37B1",
"X. c #6A3790",
"o. c #1C498D",
"O. c #284399",
"+. c #324C91",
"@. c #1947B1",
"#. c #2B48A7",
"$. c #3545A8",
"%. c #3848B7",
"&. c #2C55B7",
"*. c #3050B5",
"=. c #336EAB",
"-. c #2F699C",
";. c #4F4E93",
":. c #6D5594",
">. c #706D92",
",. c #4E4EAE",
"<. c #6C50AD",
"1. c #4F6AB0",
"2. c #6E6EB2",
"3. c #566492",
"4. c #1837CF",
"5. c #3A37C7",
"6. c #3037CE",
"7. c #343AE8",
"8. c #183EE7",
"9. c #4539C8",
"0. c #4639D7",
"q. c #5734CB",
"w. c #7735D6",
"e. c #6932D0",
"r. c #4F3BEB",
"t. c #7038EC",
"y. c #1A4ECE",
"u. c #2848C8",
"i. c #3845C8",
"p. c #3859C6",
"a. c #2848D6",
"s. c #3051D4",
"d. c #3675DA",
"f. c #3268CE",
"g. c #3758F7",
"h. c #314FEB",
"j. c #376FF1",
"k. c #1B65E2",
"l. c #4A4FD1",
"z. c #6F4FCF",
"x. c #4C69D3",
"c. c #6E6ECB",
"v. c #4946E7",
"b. c #5847FA",
"n. c #5857FA",
"m. c #4E51EE",
"M. c #6749FD",
"N. c #6759FD",
"B. c #7757FE",
"V. c #734FF6",
"C. c #5968FA",
"Z. c #5578F9",
"A. c #4B6EF2",
"S. c #6767FB",
"D. c #7172FA",
"F. c #8D38B7",
"G. c #8D72B1",
"H. c #8C60AA",
"J. c #8F37EC",
"K. c #AD3AFA",
"L. c #8E36D8",
"P. c #CC3DF9",
"I. c #9071CD",
"U. c #8757FD",
"Y. c #975AFD",
"T. c #864CF3",
"R. c #AB51FD",
"E. c #8D71F8",
"W. c #B869FD",
"Q. c #AC6CFA",
"!. c #A566CE",
"~. c #CF48FD",
"^. c #ED53FC",
"/. c #CF71FC",
"(. c #F173FC",
"). c #CA71D9",
"_. c #638FB5",
"`. c #3A8AF1",
"'. c #3097D9",
"]. c #748DCE",
"[. c #5788FB",
"{. c #4697F9",
"}. c #4D8CF7",
"|. c #7986FD",
" X c #6797FD",
".X c #7090F7",
"XX c #49A7FC",
"oX c #53B2FB",
"OX c #77A8FD",
"+X c #70B0FB",
"@X c #5FA4CF",
"#X c #56CBFA",
"$X c #6ECFFB",
"%X c #70ECFB",
"&X c #5EDDEF",
"*X c #328EB9",
"=X c #9393B2",
"-X c #A593B4",
";X c #AFAFB8",
":X c #8D90A0",
">X c #8E90D2",
",X c #AD90D0",
"<X c #93ABD3",
"1X c #B3AECD",
"2X c #8688FD",
"3X c #9888FB",
"4X c #8898FD",
"5X c #9597F7",
"6X c #AA94F9",
"7X c #89A7FD",
"8X c #97A8FD",
"9X c #86B8FD",
"0X c #97B7FD",
"qX c #8EAFE8",
"wX c #AEAEF5",
"eX c #CAB2D6",
"rX c #D18EEF",
"tX c #F48BF8",
"yX c #CEB2F1",
"uX c #F0B0F3",
"iX c #CA8CDA",
"pX c #89C6FD",
"aX c #97C9FC",
"sX c #9AD6FD",
"dX c #8CD3F3",
"fX c #A6C7FC",
"gX c #A8D8FD",
"hX c #B3D3F2",
"jX c #98F8FC",
"kX c #8DEDFA",
"lX c #AAE5FC",
"zX c #B7E9FD",
"xX c #A7F9FB",
"cX c #BBF6FD",
"vX c #B2E7ED",
"bX c #9FC9D9",
"nX c #D0CDD6",
"mX c #D2D0EE",
"MX c #E9D8F7",
"NX c #EBD1F1",
"BX c #C7EAFA",
"VX c #CCFBFD",
"CX c #C5F6FC",
"ZX c #D3FCFD",
"AX c #DAFAFC",
"SX c #D5E8F1",
"DX c #E9E6E9",
"FX c #E8E8F7",
"GX c #F7E9F8",
"HX c #E8FAFB",
"JX c #F4FDFC",
"KX c #FEFEFD",
"LX c #F9F5F8",
"PX c #F3EFED",
"IX c #E2DDDC",
"UX c None",
/* pixels */
"UXUXUXUXUXUXUXUXUXUXUXUXUXUXUXUXUXUXUXUXUXUXUXUXUXUXUXUXUXUXUXUXUXUXUXUXUXUXUXUXUXUXUXUXUXUXUXUXUXUXUXUXUXUXUXUXUXUXUXUXUXUXUXUXUXUXUXUXUXUXUXUXUXUXUXUXUXUXUXUXUXUXUXUXUXUXUXUXUXUXUXUXUXUXUXUXUXUXUXUXUXUXUXUXUXUXUXUXUXUXUXUXUXUXUXUXUXUXUXUXUXUXUXUXUXUXUXUXUXUXUXUXUXUXUXUXUXUXUXUXUXUXUXUXUXUXUXUXUXUXUXUXUXUXUXUXUXUXUXUXUXUXUXUXUXUXUXUXUXUXUXUXUXUXUXUXUXUXUXUXUXUXUXUXUXUXUXUXUXUXUXUXUXUXUXUXUXUXUXUXUXUXUXUXUXUXUXUXUXUXUXUXUXUXUXUXUXUXUXUXUXUXUXUXUXUXUXUXUXUXUXUXUXUXUXUXUXUXUXUXUXUXUXUXUXUXUXUXUXUXUXUXUXUXUXUX",
"UXUXUXUXUXUXUXUXUXUXUXUXUXUXUXUXUXUXUXUXUXUXUXUXUXUXUXUXUXUXUXUXUXUXUXUXUXUXUXUXUXUXUXUXUXUXUXUXUXUXUXUXUXUXUXUXUXUXUXUXUXUXUXUXUXUXUXUXUXUXUXUXUXUXUXUXUXUXUXUXUXUXUXUXUXUXUXUXUXUXUXUXUXUXUXUXUXUXUXUXUXUXUXUXUXUXUXUXUXUXUXUXUXUXUXUXUXUXUXUXUXUXUXUXUXUXUXUXUXUXUXUXUXUXUXUXUXUXUXUXUXUXUXUXUXUXUXUXUXUXUXUXUXUXUXUXUXUXUXUXUXUXUXUXUXUXUXUXUXUXUXUXUXUXUXUXUXUXUXUXUXUXUXUXUXUXUXUXUXUXUXUXUXUXUXUXUXUXUXUXUXUXUXUXUXUXUXUXUXUXUXUXUXUXUXUXUXUXUXUXUXUXUXUXUXUXUXUXUXUXUXUXUXUXUXUXUXUXUXUXUXUXUXUXUXUXUXUXUXUXUXUXUXUXUXUX",
"UXUXUXUXUXUXUXUXUXUXUXUXUXUXUXUXUXUXUXUXUXUXUXUXUXUXUXUXUXUXUXUXUXUXUXUXUXUXUXUXUXUXUXUXUXUXUXUXUXUXUXUXUXUXUXUXUXUXUXUXUXUXUXUXUXUXUXUXUXUXUXUXUXUXUXUXUXUXUXUXUXUXUXUXUXUXUXUXUXUXUXUXUXUXUXUXUXUXUXUXUXUXUXUXUXUXUXUXUXUXUXUXUXUXUXUXUXUXUXUXUXUXUXUXUXUXUXUXUXUXUXUXUXUXUXUXUXUXUXUXUXUXUXUXUXUXUXUXUXUXUXUXUXUXUXUXUXUXUXUXUXUXUXUXUXUXUXUXUXUXUXUXUXUXUXUXUXUXUXUXUXUXUXUXUXUXUXUXUXUXUXUXUXUXUXUXUXUXUXUXUXUXUXUXUXUXUXUXUXUXUXUXUXUXUXUXUXUXUXUXUXUXUXUXUXUXUXUXUXUXUXUXUXUXUXUXUXUXUXUXUXUXUXUXUXUXUXUXUXUXUXUXUXUXUXUX",
"UXUXUXUXUXUXUXUXUXUXUXUXUXUXUXUXUXUXUXUXUXUXUXUXUXUXUXUXUXUXUXUXUXUXUXUXUXUXUXUXUXUXUXUXUXUXUXUXUXUXUXUXUXUXUXUXUXUXUXUXUXUXUXUXUXUXUXUXUXUXUXUXUXUXUXUXUXUXUXUXUXUXUXUXUXUXUXUXUXUXUXUXUXUXUXUXUXUXUXUXUXUXUXUXUXUXUXUXUXUXUXUXUXUXUXUXUXUXUXUXUXUXUXUXUXUXUXUXUXUXUXUXUXUXUXUXUXUXUXUXUXUXUXUXUXUXUXUXUXUXUXUXUXUXUXUXUXUXUXUXUXUXUXUXUXUXUXUXUXUXUXUXUXUXUXUXUXUXUXUXUXUXUXUXUXUXUXUXUXUXUXUXUXUXUXUXUXUXUXUXUXUXUXUXUXUXUXUXUXUXUXUXUXUXUXUXUXUXUXUXUXUXUXUXUXUXUXUXUXUXUXUXUXUXUXUXUXUXUXUXUXUXUXUXUXUXUXUXUXUXUXUXUXUXUXUX",
"UXUXUXUXUXUXUXUXUXUXUXUXUXUXUXUXUXUXUXUXUXUXUXUXUXUXUXUXUXUXUXUXUXUXUXUXUXUXUXUXUXUXUXUXUXUXUXUXUXUXUXUXUXUXUXUXUXUXUXUXUXUXUXUXUXUXUXUXUXUXUXUXUXUXUXUXUXUXUXUXUXUXUXUXUXUXUXUXUXUXUXUXUXUXUXUXUXUXUXUXUXUXUXUXUXUXUXUXUXUXUXUXUXUXUXUXUXUXUXUXUXUXUXUXUXUXUXUXUXUXUXUXUXUXUXUXUXUXUXUXUXUXUXUXUXUXUXUXUXUXUXUXUXUXUXUXUXUXUXUXUXUXUXUXUXUXUXUXUXUXUXUXUXUXUXUXUXUXUXUXUXUXUXUXUXUXUXUXUXUXUXUXUXUXUXUXUXUXUXUXUXUXUXUXUXUXUXUXUXUXUXUXUXUXUXUXUXUXUXUXUXUXUXUXUXUXUXUXUXUXUXUXUXUXUXUXUXUXUXUXUXUXUXUXUXUXUXUXUXUXUXUXUXUXUXUX",
"UXUXUXUXUXUXUXUXUXUXUXUXUXUXUXUXUXUXUXUXUXUXUXUXUXUXUXUXUXUXUXUXUXUXUXUXUXUXUXUXUXUXUXUXUXUXUXUXUXUXUXUXUXUXUXUXUXUXUXUXUXUXUXUXUXUXUXUXUXUXUXUXUXUXUXUXUXUXUXUXUXUXUXUXUXUXUXUXUXUXUXUXUXUXUXUXUXUXUXUXUXUXUXUXUXUXUXUXUXUXUXUXUXUXUXUXUXUXUXUXUXUXUXUXUXUXUXUXUXUXUXUXUXUXUXUXUXUXUXUXUXUXUXUXUXUXUXUXUXUXUXUXUXUXUXUXUXUXUXUXUXUXUXUXUXUXUXUXUXUXUXUXUXUXUXUXUXUXUXUXUXUXUXUXUXUXUXUXUXUXUXUXUXUXUXUXUXUXUXUXUXUXUXUXUXUXUXUXUXUXUXUXUXUXUXUXUXUXUXUXUXUXUXUXUXUXUXUXUXUXUXUXUXUXUXUXUXUXUXUXUXUXUXUXUXUXUXUXUXUXUXUXUXUXUXUX",
"UXUXUXUXUXUXUXUXUXUXUXUXUXUXUXUXUXUXUXUXUXUXUXUXUXUXUXUXUXUXUXUXUXUXUXUXUXUXUXUXUXUXUXUXUXUXUXUXUXUXUXUXUXUXUXUXUXUXUXUXUXUXUXUXUXUXUXUXUXUXUXUXUXUXUXUXUXUXUXUXUXUXUXUXUXUXUXUXUXUXUXUXUXUXUXUXUXUXUXUXUXUXUXUXUXUXUXUXUXUXUXUXUXUXUXUXUXUXUXUXUXUXUXUXUXUXUXUXUXUXUXUXUXUXUXUXUXUXUXUXUXUXUXUXUXUXUXUXUXUXUXUXUXUXUXUXUXUXUXUXUXUXUXUXUXUXUXUXUXUXUXUXUXUXUXUXUXUXUXUXUXUXUXUXUXUXUXUXUXUXUXUXUXUXUXUXUXUXUXUXUXUXUXUXUXUXUXUXUXUXUXUXUXUXUXUXUXUXUXUXUXUXUXUXUXUXUXUXUXUXUXUXUXUXUXUXUXUXUXUXUXUXUXUXUXUXUXUXUXUXUXUXUXUXUXUX",
"UXUXUXUXUXUXUXUXUXUXUXUXUXUXUXUXUXUXUXUXUXUXUXUXUXUXUXUXUXUXUXUXUXUXUXUXUXUXUXUXUXUXUXUXUXUXUXUXUXUXUXUXUXUXUXUXUXUXUXUXUXUXUXUXUXUXUXUXUXUXUXUXUXUXUXUXUXUXUXUXUXUXUXUXUXUXUXUXUXUXUXUXUXUXUXUXUXUXUXUXUXUXUXUXUXUXUXUXUXUXUXUXUXUXUXUXUXUXUXUXUXUXUXUXUXUXUXUXUXUXUXUXUXUXUXUXUXUXUXUXUXUXUXUXUXUXUXUXUXUXUXUXUXUXUXUXUXUXUXUXUXUXUXUXUXUXUXUXUXUXUXUXUXUXUXUXUXUXUXUXUXUXUXUXUXUXUXUXUXUXUXUXUXUXUXUXUXUXUXUXUXUXUXUXUXUXUXUXUXUXUXUXUXUXUXUXUXUXUXUXUXUXUXUXUXUXUXUXUXUXUXUXUXUXUXUXUXUXUXUXUXUXUXUXUXUXUXUXUXUXUXUXUXUXUXUX",
"UXUXUXUXUXUXUXUXUXUXUXUXUXUXUXUXUXUXUXUXUXUXUXUXUXUXUXUXUXUXUXUXUXUXUXUXUXUXUXUXUXUXUXUXUXUXUXUXUXUXUXUXUXUXUXUXUXUXUXUXUXUXUXUXUXUXUXUXUXUXUXUXUXUXUXUXUXUXUXUXUXUXUXUXUXUXUXUXUXUXUXUXUXUXUXUXUXUXUXUXUXUXUXUXUXUXUXUXUXUXUXUXUXUXUXUXUXUXUXUXUXUXUXUXUXUXUXUXUXUXUXUXUXUXUXUXUXUXUXUXUXUXUXUXUXUXUXUXUXUXUXUXUXUXUXUXUXUXUXUXUXUXUXUXUXUXUXUXUXUXUXUXUXUXUXUXUXUXUXUXUXUXUXUXUXUXUXUXUXUXUXUXUXUXUXUXUXUXUXUXUXUXUXUXUXUXUXUXUXUXUXUXUXUXUXUXUXUXUXUXUXUXUXUXUXUXUXUXUXUXUXUXUXUXUXUXUXUXUXUXUXUXUXUXUXUXUXUXUXUXUXUXUXUXUXUX",
"UXUXUXUXUXUXUXUXUXUXUXUXUXUXUXUXUXUXUXUXUXUXUXUXUXUXUXUXUXUXUXUXUXUXUXUXUXUXUXUXUXUXUXUXUXUXUXUXUXUXUXUXUXUXUXUXUXUXUXUXUXUXUXUXUXUXUXUXUXUXUXUXUXUXUXUXUXUXUXUXUXUXUXUXUXUXUXUXUXUXUXUXUXUXUXUXUXUXUXUXUXUXUXUXUXUXUXUXUXUXUXUXUXUXUXUXUXUXUXUXUXUXUXUXUXUXUXUXUXUXUXUXUXUXUXUXUXUXUXUXUXUXUXUXUXUXUXUXUXUXUXUXUXUXUXUXUXUXUXUXUXUXUXUXUXUXUXUXUXUXUXUXUXUXUXUXUXUXUXUXUXUXUXUXUXUXUXUXUXUXUXUXUXUXUXUXUXUXUXUXUXUXUXUXUXUXUXUXUXUXUXUXUXUXUXUXUXUXUXUXUXUXUXUXUXUXUXUXUXUXUXUXUXUXUXUXUXUXUXUXUXUXUXUXUXUXUXUXUXUXUXUXUXUXUXUX",
"UXUXUXUXUXUXUXUXUXUXUXUXUXUXUXUXUXUXUXUXUXUXUXUXUXUXUXUXUXUXUXUXUXUXUXUXUXUXUXUXUXUXUXUXUXUXUXUXUXUXUXUXUXUXUXUXUXUXUXUXUXUXUXUXUXUXUXUXUXUXUXUXUXUXUXUXUXUXUXUXUXUXUXUXUXUXUXUXUXUXUXUXUXUXUXUXUXUXUXUXUXUXUXUXUXUXUXUXUXUXUXUXUXUXUXUXUXUXUXUXUXUXUXUXUXUXUXUXUXUXUXUXUXUXUXUXUXUXUXUXUXUXUXUXUXUXUXUXUXUXUXUXUXUXUXUXUXUXUXUXUXUXUXUXUXUXUXUXUXUXUXUXUXUXUXUXUXUXUXUXUXUXUXUXUXUXUXUXUXUXUXUXUXUXUXUXUXUXUXUXUXUXUXUXUXUXUXUXUXUXUXUXUXUXUXUXUXUXUXUXUXUXUXUXUXUXUXUXUXUXUXUXUXUXUXUXUXUXUXUXUXUXUXUXUXUXUXUXUXUXUXUXUXUXUXUX",
"UXUXUXUXUXUXUXUXUXUXUXUXUXUXUXUXUXUXUXUXUXUXUXUXUXUXUXUXUXUXUXUXUXUXUXUXUXUXUXUXUXUXUXUXUXUXUXUXUXUXUXUXUXUXUXUXUXUXUXUXUXUXUXUXUXUXUXUXUXUXUXUXUXUXUXUXUXUXUXUXUXUXUXUXUXUXUXUXUXUXUXUXUXUXUXUXUXUXUXUXUXUXUXUXUXUXUXUXUXUXUXUXUXUXUXUXUXUXUXUXUXUXUXUXUXUXUXUXUXUXUXUXUXUXUXUXUXUXUXUXUXUXUXUXUXUXUXUXUXUXUXUXUXUXUXUXUXUXUXUXUXUXUXUXUXUXUXUXUXUXUXUXUXUXUXUXUXUXUXUXUXUXUXUXUXUXUXUXUXUXUXUXUXUXUXUXUXUXUXUXUXUXUXUXUXUXUXUXUXUXUXUXUXUXUXUXUXUXUXUXUXUXUXUXUXUXUXUXUXUXUXUXUXUXUXUXUXUXUXUXUXUXUXUXUXUXUXUXUXUXUXUXUXUXUXUX",
"UXUXUXUXUXUXUXUXUXUXUXUXUXUXUXUXUXUXUXUXUXUXUXUXUXUXUXUXUXUXUXUXUXUXUXUXUXUXUXUXUXUXUXUXUXUXUXUXUXUXUXUXUXUXUXUXUXUXUXUXUXUXUXUXUXUXUXUXUXUXUXUXUXUXUXUXUXUXUXUXUXUXUXUXUXUXUXUXUXUXUXUXUXUXUXUXUXUXUXUXUXUXUXUXUXUXUXUXUXUXUXUXUXUXUXUXUXUXUXUXUXUXUXUXUXUXUXUXUXUXUXUXUXUXUXUXUXUXUXUXUXUXUXUXUXUXUXUXUXUXUXUXUXUXUXUXUXUXUXUXUXUXUXUXUXUXUXUXUXUXUXUXUXUXUXUXUXUXUXUXUXUXUXUXUXUXUXUXUXUXUXUXUXUXUXUXUXUXUXUXUXUXUXUXUXUXUXUXUXUXUXUXUXUXUXUXUXUXUXUXUXUXUXUXUXUXUXUXUXUXUXUXUXUXUXUXUXUXUXUXUXUXUXUXUXUXUXUXUXUXUXUXUXUXUXUX",
"UXUXUXUXUXUXUXUXUXUXUXUXUXUXUXUXUXUXUXUXUXUXUXUXUXUXUXUXUXUXUXUXUXUXUXUXUXUXUXUXUXUXUXUXUXUXUXUXUXUXUXUXUXUXUXUXUXUXUXUXUXUXUXUXUXUXUXUXUXUXUXUXUXUXUXUXUXUXUXUXUXUXUXUXUXUXUXUXUXUXUXUXUXUXUXUXUXUXUXUXUXUXUXUXUXUXUXUXUXUXUXUXUXUXUXUXUXUXUXUXUXUXUXUXUXUXUXUXUXUXUXUXUXUXUXUXUXUXUXUXUXUXUXUXUXUXUXUXUXUXUXUXUXUXUXUXUXUXUXUXUXUXUXUXUXUXUXUXUXUXUXUXUXUXUXUXUXUXUXUXUXUXUXUXUXUXUXUXUXUXUXUXUXUXUXUXUXUXUXUXUXUXUXUXUXUXUXUXUXUXUXUXUXUXUXUXUXUXUXUXUXUXUXUXUXUXUXUXUXUXUXUXUXUXUXUXUXUXUXUXUXUXUXUXUXUXUXUXUXUXUXUXUXUXUXUX",
"UXUXUXUXUXUXUXUXUXUXUXUXUXUXUXUXUXUXUXUXUXUXUXUXUXUXUXUXUXUXUXUXUXUXUXUXUXUXUXUXUXUXUXUXUXUXUXUXUXUXUXUXUXUXUXUXUXUXUXUXUXUXUXUXUXUXUXUXUXUXUXUXUXUXUXUXUXUXUXUXUXUXUXUXUXUXUXUXUXUXUXUXUXUXUXUXUXUXUXUXUXUXUXUXUXUXUXUXUXUXUXUXUXUXUXUXUXUXUXUXUXUXUXUXUXUXUXUXUXUXUXUXUXUXUXUXUXUXUXUXUXUXUXUXUXUXUXUXUXUXUXUXUXUXUXUXUXUXUXUXUXUXUXUXUXUXUXUXUXUXUXUXUXUXUXUXUXUXUXUXUXUXUXUXUXUXUXUXUXUXUXUXUXUXUXUXUXUXUXUXUXUXUXUXUXUXUXUXUXUXUXUXUXUXUXUXUXUXUXUXUXUXUXUXUXUXUXUXUXUXUXUXUXUXUXUXUXUXUXUXUXUXUXUXUXUXUXUXUXUXUXUXUXUXUXUX",
"UXUXUXUXUXUXUXUXUXUXUXUXUXUXUXUXUXUXUXUXUXUXUXUXUXUXUXUXUXUXUXUXUXUXUXUXUXUXUXUXUXUXUXUXUXUXUXUXUXUXUXUXUXUXUXUXUXUXUXUXUXUXUXUXUXUXUXUXUXUXUXUXUXUXUXUXUXUXUXUXUXUXUXUXUXUXUXUXUXUXUXUXUXUXUXUXUXUXUXUXUXUXUXUXUXUXUXUXUXUXUXUXUXUXUXUXUXUXUXUXUXUXUXUXUXUXUXUXUXUXUXUXUXUXUXUXUXUXUXUXUXUXUXUXUXUXUXUXUXUXUXUXUXUXUXUXUXUXUXUXUXUXUXUXUXUXUXUXUXUXUXUXUXUXUXUXUXUXUXUXUXUXUXUXUXUXUXUXUXUXUXUXUXUXUXUXUXUXUXUXUXUXUXUXUXUXUXUXUXUXUXUXUXUXUXUXUXUXUXUXUXUXUXUXUXUXUXUXUXUXUXUXUXUXUXUXUXUXUXUXUXUXUXUXUXUXUXUXUXUXUXUXUXUXUXUX",
"UXUXUXUXUXUXUXUXUXUXUXUXUXUXUXUXUXUXUXUXUXUXUXUXUXUXUXUXUXUXUXUXUXUXUXUXUXUXUXUXUXUXUXUXUXUXUXUXUXUXUXUXUXUXUXUXUXUXUXUXUXUXUXUXUXUXUXUXUXUXUXUXUXUXUXUXUXUXUXUXUXUXUXUXUXUXUXUXUXUXUXUXUXUXUXUXUXUXUXUXUXUXUXUXUXUXUXUXUXUXUXUXUXUXUXUXUXUXUXUXUXUXUXUXUXUXUXUXUXUXUXUXUXUXUXUXUXUXUXUXUXUXUXUXUXUXUXUXUXUXUXUXUXUXUXUXUXUXUXUXUXUXUXUXUXUXUXUXUXUXUXUXUXUXUXUXUXUXUXUXUXUXUXUXUXUXUXUXUXUXUXUXUXUXUXUXUXUXUXUXUXUXUXUXUXUXUXUXUXUXUXUXUXUXUXUXUXUXUXUXUXUXUXUXUXUXUXyXUXUXUXUXUXUXUXUXUXUXUXUXUXUXUXUXUXUXUXUXUXUXUXUXUXUXUXUX",
"UXUXUXUXUXUXUXUXUXUXUXUXUXUXUXUXUXUXUXUXUXUXUXUXUXUXUXUXUXUXUXUXUXUXUXUXUXUXUXUXUXUXUXUXUXUXUXUXUXUXUXUXUXUXUXUXUXUXUXUXUXUXUXUXUXUXUXUXUXUXUXUXUXUXUXUXUXUXUXUXUXUXUXUXUXUXUXUXUXUXUXUXUXUXUXUXUXUXUXUXUXUXUXUXUXUXUXUXUXUXUXUXUXUXUXUXUXUXUXUXUXUXUXUXUXUXUXUXUXUXUXUXUXUXUXUXUXUXUXUXUXUXUXUXUXUXUXUXUXUXUXUXUXUXUXUXUXUXUXUXUXUXUXUXUXUXUXUXUXUXUXUXUXUXUXUXUXUXUXUXUXUXUXUXUXUXUXUXUXUXUXUXUXUXUXUXUXUXUXUXUXUXUXUXUXUXUXUXUXUXUXUXUXUXUXUXUXUXUXUXUXUXUXUXUXUXMXUXUXUXUXUXUXUXUXUXUXUXUXUXUXUXUXUXUXUXUXUXUXUXUXUXUXUXUXUX",
"UXUXUXUXUXUXUXUXUXUXUXUXUXUXUXUXUXUXUXUXUXUXUXUXUXUXUXUXUXUXUXUXUXUXUXUXUXUXUXUXUXUXUXUXUXUXUXUXUXUXUXUXUXUXUXUXUXUXUXUXUXUXUXUXUXUXUXUXUXUXUXUXUXUXUXUXUXUXUXUXUXUXUXUXUXUXUXUXUXUXUXUXUXUXUXUXUXUXUXUXUXUXUXUXUXUXUXUXUXUXUXUXUXUXUXUXUXUXUXUXUXUXUXUXUXUXUXUXUXUXUXUXUXUXUXUXUXUXUXUXUXUXUXUXUXUXUXUXUXUXUXUXUXUXUXUXUXUXUXUXUXUXUXUXUXUXUXUXUXUXUXUXUXUXUXUXUXUXUXUXUXUXUXUXUXUXUXUXUXUXUXUXUXUXUXUXUXUXUXUXUXUXUXUXUXUXUXUXUXUXUXUXUXUXUXUXUXUXUXUXUXUXUXUXUXGXUXUXUXUXUXUXUXUXUXUXUXUXUXUXUXUXUXUXUXUXUXUXUXUXUXUXUXUXUXUX",
"UXUXUXUXUXUXUXUXUXUXUXUXUXUXUXUXUXUXUXUXUXUXUXUXUXUXUXUXUXUXUXUXUXUXUXUXUXUXUXUXUXUXUXUXUXUXUXUXUXUXUXUXUXUXUXUXUXUXUXUXUXUXUXUXUXUXUXUXUXUXUXUXUXUXUXUXUXUXUXUXUXUXUXUXUXUXUXUXUXUXUXUXUXUXUXUXUXUXUXUXUXUXUXUXUXUXUXUXUXUXUXUXUXUXUXUXUXUXUXUXUXUXUXUXUXUXUXUXUXUXUXUXUXUXUXUXUXUXUXUXUXUXUXUXUXUXUXUXUXUXUXUXUXUXUXUXUXUXUXUXUXUXUXUXUXUXUXUXUXUXUXUXUXUXUXUXUXUXUXUXUXUXUXUXUXUXUXUXUXUXUXUXUXUXUXUXUXUXUXUXUXUXUXUXUXUXUXUXUXUXUXUXUXUXUXUXUXUXUXUXUXUXUXGXKXUXUXUXUXUXUXUXUXUXUXUXUXUXUXUXUXUXUXUXUXUXUXUXUXUXUXUXUXUXUXUX",
"UXUXUXUXUXUXUXUXUXUXUXUXUXUXUXUXUXUXUXUXUXUXUXUXUXUXUXUXUXUXUXUXUXUXUXUXUXUXUXUXUXUXUXUXUXUXUXUXUXUXUXUXUXUXUXUXUXUXUXUXUXUXUXUXUXUXUXUXUXUXUXUXUXUXUXUXUXUXUXUXUXUXUXKXUXUXUXUXUXUXUXUXUXUXUXUXUXUXUXUXUXUXUXUXUXUXUXUXUXUXUXUXUXUXUXUXUXUXUXUXUXUXUXUXUXUXUXUXUXUXUXUXUXUXUXUXUXUXUXUXUXUXUXUXUXUXUXUXUXUXUXUXUXUXUXUXUXUXUXUXUXUXUXUXUXUXUXUXUXUXUXUXUXUXUXUXUXUXUXUXUXUXUXUXUXUXUXUXUXUXUXUXUXUXUXUXUXUXUXUXUXUXUXUXUXUXUXUXUXUXUXUXUXUXUXUXUXUXUXUXUXUXLXLXUXUXUXUXUXUXUXUXUXUXUXUXUXUXUXUXUXUXUXUXUXUXUXUXUXUXUXUXUXUXUXUX",
"UXUXUXUXUXUXUXUXUXUXUXUXUXUXUXUXUXUXUXUXUXUXUXUXUXUXUXUXUXUXUXUXUXUXUXUXUXUXUXUXUXUXUXUXUXUXUXUXUXUXUXUXUXUXUXUXUXUXUXUXUXUXUXUXUXUXUXUXUXUXUXUXUXUXUXUXUXUXUXUXUXUXUXGX!.UXUXUXUXUXUXUXUXUXUXUXUXUXUXUXUXUXUXUXUXUXUXUXUXUXUXUXUXUXUXUXUXUXUXUXUXUXUXUXUXUXUXUXUXUXUXUXUXUXUXUXUXUXUXUXUXUXUXUXUXUXUXUXUXUXUXUXUXUXUXUXUXUXUXUXUXUXUXUXUXUXUXUXUXUXUXUXUXUXUXUXUXUXUXUXUXUXUXUXUXUXUXUXUXUXUXUXUXUXUXUXUXUXUXUXUXUXUXUXUXUXUXUXUXUXUXUXUXUXUXUXUXUXUXUXUXGXKX>.UXUXUXUXUXUXUXUXUXUXUXUXUXUXUXUXUXUXUXUXUXUXUXUXUXUXUXUXUXUXUXUX",
"UXUXUXUXUXUXUXUXUXUXUXUXUXUXx..XUXUXUXUXUXUXUXUXUXUXUXUXUXUXUXUXUXUXUXUXUXUXUXUXUXUXUXUXUXUXUXUXUXUXUXUXUXUXUXUXUXUXUXUXUXUXUXUXUXUXUXUXUXUXUXUXUXUXUXUXUXUXUXUXUXUXUXLXt.yXUXUXUXUXUXUXUXUXUXUXUXUXUXUXUXUXUXUXUXUXUXUXUXUXUXUXUXUXUXUXUXUXUXUXUXUXUXUXUXUXUXUXUXUXUXUXUXUXUXUXUXUXUXUXUXUXUXUXUXUXUXUXUXUXUXUXUXUXUXUXUXUXUXUXUXUXUXUXUXUXUXUXUXUXUXUXUXUXUXUXUXUXUXUXUXUXUXUXUXUXUXUXUXUXUXUXUXUXUXUXUXUXUXUXUXUXUXUXUXUXUXUXUXUXUXUXUXUXUXUXUXUXUXUXLXKXG.UXUXUXUXUXUXUXUXUXUXUXUXUXUXUXUXUXUXUXUXUXUXUXUXUXUXUXUXUXUXUXUXUX",
"UXUXUXUXUXUXUXUXUXUXUXUXUXUXUXx.wXUXUXUXUXUXUXUXUXUXUXUXUXUXUXUXUXUXUXUXUXUXUXUXUXUXUXUXUXUXUXUXUXUXUXUXUXUXUXUXUXUXUXUXUXUXUXUXUXUXUXUXUXUXUXUXUXUXUXUXUXUXUXUXUXUXUXKXt.t.MXUXUXUXUXUXUXUXUXUXUXUXUXUXUXUXUXUXUXUXUXUXUXUXUXUXUXUXUXUXUXUXUXUXUXUXUXUXUXUXUXUXUXUXUXUXUXUXUXUXUXUXUXUXUXUXUXUXUXUXUXUXUXUXUXUXUXUXUXUXUXUXUXUXUXUXUXUXUXUXUXUXUXUXUXUXUXUXUXUXUXUXUXUXUXUXUXUXUXUXUXUXUXUXUXUXUXUXUXUXUXUXUXUXUXUXUXUXUXUXUXUXUXUXUXUXUXUXUXUXUXUXUXLXKX-XUXUXUXUXUXUXUXUXUXUXUXUXUXUXUXUXUXUXUXUXUXUXUXUXUXUXUXUXUXUXUXUXUXUX",
"UXUXUXUXUXUXUXUXUXUXUXUXUXUXUXE ].mXUXUXUXUXUXUXUXUXUXUXUXUXUXUXUXUXUXUXUXUXUXUXUXUXUXUXUXUXUXUXUXUXUXUXUXUXUXUXUXUXUXUXUXUXUXUXUXUXUXUXUXUXUXUXUXUXUXUXUXUXUXUXUXUXUXKXt.J.V.GXUXUXUXUXUXUXUXUXUXUXUXUXUXUXUXUXUXUXUXUXUXUXUXUXUXUXUXUXUXUXUXUXUXUXUXUXUXUXUXUXUXUXUXUXUXUXUXUXUXUXUXUXUXUXUXUXUXUXUXUXUXUXUXUXUXUXUXUXUXUXUXUXUXUXUXUXUXUXUXUXUXUXUXUXUXUXUXUXUXUXUXUXUXUXUXUXUXUXUXUXUXUXUXUXUXUXUXUXUXUXUXUXUXUXUXUXUXUXUXUXUXUXUXUXUXUXUXUXUXUXLXKXuXr UXUXUXUXUXUXUXUXUXUXUXUXUXUXUXUXUXUXUXUXUXUXUXUXUXUXUXUXUXUXUXUXUXUX",
"UXUXUXUXUXUXUXUXUXUXUXUXUXUXUXUX+.qXMXUXUXUXUXUXUXUXUXUXUXUXUXUXUXUXUXUXUXUXUXUXUXUXUXUXUXUXUXUXUXUXUXUXUXUXUXUXUXUXUXUXUXUXUXUXUXUXUXUXUXUXUXUXUXUXUXUXUXUXUXUXUXUXUXKXT.B.t.T.KXUXUXUXUXUXUXUXUXUXUXUXUXUXUXUXUXUXUXUXUXUXUXUXUXUXUXUXUXUXUXUXUXUXUXUXUXUXUXUXUXUXUXUXUXUXUXUXUXUXUXUXUXUXUXUXUXUXUXUXUXUXUXUXUXUXUXUXUXUXUXUXUXUXUXUXUXUXUXUXUXUXUXUXUXUXUXUXUXUXUXUXUXUXUXUXUXUXUXUXUXUXUXUXUXUXUXUXUXUXUXUXUXUXUXUXUXUXUXUXUXUXUXUXUXUXUXUX).KXGXGXJ UXUXUXUXUXUXUXUXUXUXUXUXUXUXUXUXUXUXUXUXUXUXUXUXUXUXUXUXUXUXUXUXUXUXUX",
"UXUXUXUXUXUXUXUXUXUXUXUXUXUXUXUXUX+.mXSXUXUXUXUXUXUXUXUXUXUXUXUXUXUXUXUXUXUXUXUXUXUXUXUXUXUXUXUXUXUXUXUXUXUXUXUXUXUXUXUXUXUXUXUXUXUXUXUXUXUXUXUXUXUXUXUXUXUXUXUXUXUXUXKXT.T.U.t.Q.KXUXUXUXUXUXUXUXUXUXUXUXUXUXUXUXUXUXUXUXUXUXUXUXUXUXUXUXUXUXUXUXUXUXUXUXUXUXUXUXUXUXUXUXUXUXUXUXUXUXUXUXUXUXUXUXUXUXUXUXUXUXUXUXUXUXUXUXUXUXUXUXUXUXUXUXUXUXUXUXUXUXUXUXUXUXUXUXUXUXUXUXUXUXUXUXUXUXUXUXUXUXUXUXUXUXUXUXUXUXUXUXUXUXUXUXUXUXUXUXUXUXUXUXUXUX!.LXNXKXH.D UXUXUXUXUXUXUXUXUXUXUXUXUXUXUXUXUXUXUXUXUXUXUXUXUXUXUXUXUXUXUXUXUXUXUX",
"UXUXUXUXUXUXUXUXUXUXUXUXUXUXUXUXUXq 1.mXSXUXUXUXUXUXUXUXUXUXUXUXUXUXUXUXUXUXUXUXUXUXUXUXUXUXUXUXUXUXUXUXUXUXUXUXUXUXUXUXUXUXUXUXUXUXUXUXUXUXUXUXUXUXUXUXUXUXUXUXUXUXUXKXU.U.T.U.J.6XUXUXUXUXUXUXUXUXUXUXUXUXUXUXUXUXUXUXUXUXUXUXUXUXUXUXUXUXUXUXUXUXUXUXUXUXUXUXUXUXUXUXUXUXUXUXUXUXUXUXUXUXUXUXUXUXUXUXUXUXUXUXUXUXUXUXUXUXUXUXUXUXUXUXUXUXUXUXUXUXUXUXUXUXUXUXUXUXUXUXUXUXUXUXUXUXUXUXUXUXUXUXUXUXUXUXUXUXUXUXUXUXUXUXUXUXUXUXUXUXUXUXUXUX).KXuXNXeXD UXUXUXUXUXUXUXUXUXUXUXUXUXUXUXUXUXUXUXUXUXUXUXUXUXUXUXUXUXUXUXUXUXUXUXUX",
"UXUXUXUXUXUXUXUXUXUXUXUXUXUXUXUXUXUXN 2.HXmXUXUXUXUXUXUXUXUXUXUXUXUXUXUXUXUXUXUXUXUXUXUXUXUXUXUXUXUXUXUXUXUXUXUXUXUXUXUXUXUXUXUXUXUXUXUXUXUXUXUXUXUXUXUXUXUXUXUXUXUXUXKXY.T.U.T.T.J.yXUXUXUXUXUXUXUXUXUXUXUXUXUXUXUXUXUXUXUXUXUXUXUXUXUXUXUXUXUXUXUXUXUXUXUXUXUXUXUXUXUXUXUXUXUXUXUXUXUXUXUXUXUXUXUXUXUXUXUXUXUXUXUXUXUXUXUXUXUXUXUXUXUXUXUXUXUXUXUXUXUXUXUXUXUXUXUXUXUXUXUXUXUXUXUXUXUXUXUXUXUXUXUXUXUXUXUXUXUXUXUXUXUXUXUXUXUXUXUXUXUXUXrXKXuXtXLXD # UXUXUXUXUXUXUXUXUXUXUXUXUXUXUXUXUXUXUXUXUXUXUXUXUXUXUXUXUXUXUXUXUXUXUXUX",
"UXUXUXUXUXUXUXUXUXUXUXUXUXUXUXUXUXUXUXZ _.LXFXUXUXUXUXUXUXUXUXUXUXUXUXUXUXUXUXUXUXUXUXUXUXUXUXUXUXUXUXUXUXUXUXUXUXUXUXUXUXUXUXUXUXUXUXUXUXUXUXUXUXUXUXUXUXUXUXUXUXUXUXKXY.U.U.U.B.T.T.MXUXUXUXUXUXUXUXUXUXUXUXUXUXUXUXUXUXUXUXUXUXUXUXUXUXUXUXUXUXUXUXUXUXUXUXUXUXUXUXUXUXUXUXUXUXUXUXUXUXUXUXUXUXUXUXUXUXUXUXUXUXUXUXUXUXUXUXUXUXUXUXUXUXUXUXUXUXUXUXUXUXUXUXUXUXUXUXUXUXUXUXUXUXUXUXUXUXUXUXUXUXUXUXUXUXUXUXUXUXUXUXUXUXUXUXUXUXUXUXUXeXKXtX^.GX-X# UXUXUXUXUXUXUXUXUXUXUXUXUXUXUXUXUXUXUXUXUXUXUXUXUXUXUXUXUXUXUXUXUXUXUXUXUX",
"UXUXUXUXUXUXUXUXUXUXUXUXUXUXUXUXUXUXUXr ~ ].LXDXUXUXUXUXUXUXUXUXUXUXUXUXUXUXUXUXUXUXUXUXUXUXUXUXUXUXUXUXUXUXUXUXUXUXUXUXUXUXUXUXUXUXUXUXUXUXUXUXUXUXUXUXUXUXUXUXUXUXUXKXW.Y.T.B.B.U.U.T.LXUXUXUXUXUXUXUXUXUXUXUXUXUXUXUXUXUXUXUXUXUXUXUXUXUXUXUXUXUXUXUXUXUXUXUXUXUXUXUXUXUXUXUXUXUXUXUXUXUXUXUXUXUXUXUXUXUXUXUXUXUXUXUXUXUXUXUXUXUXUXUXUXUXUXUXUXUXUXUXUXUXUXUXUXUXUXUXUXUXUXUXUXUXUXUXUXUXUXUXUXUXUXUXUXUXUXUXUXUXUXUXUXUXUXUXUXUXUXyXKXtX(.uXPXD o UXUXUXUXUXUXUXUXUXUXUXUXUXUXUXUXUXUXUXUXUXUXUXUXUXUXUXUXUXUXUXUXUXUXUXUXUX",
"UXUXUXUXUXUXUXUXUXUXUXUXUXUXUXUXUXUXUXUXN ~ <XLXHXUXUXUXUXUXUXUXUXUXUXUXUXUXUXUXUXUXUXUXUXUXUXUXUXUXUXUXUXUXUXUXUXUXUXUXUXUXUXUXUXUXUXUXUXUXUXUXUXUXUXUXUXUXUXUXUXUXUXKXQ.U.3XB.B.B.U.U.E.LXUXUXUXUXUXUXUXUXUXUXUXUXUXUXUXUXUXUXUXUXUXUXUXUXUXUXUXUXUXUXUXUXUXUXUXUXUXUXUXUXUXUXUXUXUXUXUXUXUXUXUXUXUXUXUXUXUXUXUXUXUXUXUXUXUXUXUXUXUXUXUXUXUXUXUXUXUXUXUXUXUXUXUXUXUXUXUXUXUXUXUXUXUXUXUXUXUXUXUXUXUXUXUXUXUXUXUXUXUXUXUXUXUXUXUXUXyXKXtX(.(.GXG.o UXUXUXUXUXUXUXUXUXUXUXUXUXUXUXUXUXUXUXUXUXUXUXUXUXUXUXUXUXUXUXUXUXUXUXUXUXUX",
"UXUXUXUXUXUXUXUXUXUXUXUXUXUXUXUXUXUXUXUXq N ~ hXKXSXUXUXUXUXUXUXUXUXUXUXUXUXUXUXUXUXUXUXUXUXUXUXUXUXUXUXUXUXUXUXUXUXUXUXUXUXUXUXUXUXUXUXUXUXUXUXUXUXUXUXUXUXUXUXUXUXUXKXQ.E.U.B.B.N.B.B.B.6XKXUXUXUXUXUXUXUXUXUXUXUXUXUXUXUXUXUXUXUXUXUXUXUXUXUXUXUXUXUXUXUXUXUXUXUXUXUXUXUXUXUXUXUXUXUXUXUXUXUXUXUXUXUXUXUXUXUXUXUXUXUXUXUXUXUXUXUXUXUXUXUXUXUXUXUXUXUXUXUXUXUXUXUXUXUXUXUXUXUXUXUXUXUXUXUXUXUXUXUXUXUXUXUXUXUXUXUXUXUXUXUXUXUXUXNXLXtX^.(.tXPXr # UXUXUXUXUXUXUXUXUXUXUXUXUXUXUXUXUXUXUXUXUXUXUXUXUXUXUXUXUXUXUXUXUXUXUXUXUXUX",
"UXUXUXUXUXUXUXUXUXUXUXUXUXUXUXUXUXUXUXUXUXr Z ;.IXKXAXUXUXUXUXUXUXUXUXUXUXUXUXUXUXUXUXUXUXUXUXUXUXUXUXUXUXUXUXUXUXUXUXUXUXUXUXUXUXUXUXUXUXUXUXUXUXUXUXUXUXUXUXUXUXUXUXnXLXQ.U.B.B.B.B.B.B.B.wXLXUXUXUXUXUXUXUXUXUXUXUXUXUXUXUXUXUXUXUXUXUXUXUXUXUXUXUXUXUXUXUXUXUXUXUXUXUXUXUXUXUXUXUXUXUXUXUXUXUXUXUXUXUXUXUXUXUXUXUXUXUXUXUXUXUXUXUXUXUXUXUXUXUXUXUXUXUXUXUXUXUXUXUXUXUXUXUXUXUXUXUXUXUXUXUXUXUXUXUXUXUXUXUXUXUXUXUXUXUXUXUXUXGXLXtX^.(.(.KX:X# UXUXUXUXUXUXUXUXUXUXUXUXUXUXUXUXUXUXUXUXUXUXUXUXUXUXUXUXUXUXUXUXUXUXUXUXUXUXUX",
"UXUXUXUXUXUXUXUXUXUXUXUXUXUXUXUXUXUXUXUXUXUXN ~ ,.SXKXmXUXUXUXUXUXUXUXUXUXUXUXUXUXUXUXUXUXUXUXUXUXUXUXUXUXUXUXUXUXUXUXUXUXUXUXUXUXUXUXUXUXUXUXUXUXUXUXUXUXUXUXUXUXUXUX# nXLXQ.T.B.B.N.B.B.B.B.MXHXUXUXUXUXUXUXUXUXUXUXUXUXUXUXUXUXUXUXUXUXUXUXUXUXUXUXUXUXUXUXUXUXUXUXUXUXUXUXUXUXUXUXUXUXUXUXUXUXUXUXUXUXUXUXUXUXUXUXUXUXUXUXUXUXUXUXUXUXUXUXUXUXUXUXUXUXUXUXUXUXUXUXUXUXUXUXUXUXUXUXUXUXUXUXUXUXUXUXUXUXUXUXUXUXUXUXUXUXUXUXGXLXtX^.(.(.tXPXD o UXUXUXUXUXUXUXUXUXUXUXUXUXUXUXUXUXUXUXUXUXUXUXUXUXUXUXUXUXUXUXUXUXUXUXUXUXUXUX",
"UXUXUXUXUXUXUXUXUXUXUXUXUXUXUXUXUXUXUXUXUXUXq A ~ 1.LXKXSXx.UXUXUXUXUXUXUXUXUXUXUXUXUXUXUXUXUXUXUXUXUXUXUXUXUXUXUXUXUXUXUXUXUXUXUXUXUXUXUXUXUXUXUXUXUXUXUXUXUXUXUXUXUXUXr IXNXE.B.B.B.B.N.S.D.4XLXBXUXUXUXUXUXUXUXUXUXUXUXUXUXUXUXUXUXUXUXUXUXUXUXUXUXUXUXUXUXUXUXUXUXUXUXUXUXUXUXUXUXUXUXUXUXUXUXUXUXUXUXUXUXUXUXUXUXUXUXUXUXUXUXUXUXUXUXUXUXUXUXUXUXUXUXUXUXUXUXUXUXUXUXUXUXUXUXUXUXUXUXUXUXUXUXUXUXUXUXUXUXUXUXUXUXUXUXUXGXGX(.^.(.(.(.GXeX# UXUXUXUXUXUXUXUXUXUXUXUXUXUXUXUXUXUXUXUXUXUXUXUXUXUXUXUXUXUXUXUXUXUXUXUXUXUXUXUX",
"UXUXUXUXUXUXUXUXUXUXUXUXUXUXUXUXUXUXUXUXUXUXUXr A ~ 2.KXKXSXx.UXUXUXUXUXUXUXUXUXUXUXUXUXUXUXUXUXUXUXUXUXUXUXUXUXUXUXUXUXUXUXUXUXUXUXUXUXUXUXUXUXUXUXUXUXUXUXUXUXUXUXUXUXo D PXmXY.B.S.S.S.N.S.D.0XLXvXUXUXUXUXUXUXUXUXUXUXUXUXUXUXUXUXUXUXUXUXUXUXUXUXUXUXUXUXUXUXUXUXUXUXUXUXUXUXUXUXUXUXUXUXUXUXUXUXUXUXUXUXUXUXUXUXUXUXUXUXUXUXUXUXUXUXUXUXUXUXUXUXUXUXUXUXUXUXUXUXUXUXUXUXUXUXUXUXUXUXUXUXUXUXUXUXUXUXUXUXUXUXUXUXUXUXLXGX(.^.^.(.(.(.KXJ # UXUXUXUXUXUXUXUXUXUXUXUXUXUXUXUXUXUXUXUXUXUXUXUXUXUXUXUXUXUXUXUXUXUXUXUXUXUXUXUX",
"UXUXUXUXUXUXUXUXUXUXUXUXUXUXUXUXUXUXUXUXUXUXUXUXw ~ ;.>XKXKXVX'.UXUXUXUXUXUXUXUXUXUXUXUXUXUXUXUXUXUXUXUXUXUXUXUXUXUXUXUXUXUXUXUXUXUXUXUXUXUXUXUXUXUXUXUXUXUXUXUXUXUXUXUXUX# J LXyXU.B.S.N.S.S.D..XfXKXdXUXUXUXUXUXUXUXUXUXUXUXUXUXUXUXUXUXUXUXUXUXUXUXUXUXUXUXUXUXUXUXUXUXUXUXUXUXUXUXUXUXUXUXUXUXUXUXUXUXUXUXUXUXUXUXUXUXUXUXUXUXUXUXUXUXUXUXUXUXUXUXUXUXUXUXUXUXUXUXUXUXUXUXUXUXUXUXUXUXUXUXUXUXUXUXUXUXUXUXUXUXUXUX!.KXGX(.^.^.(.^.^.uXDX# UXUXUXUXUXUXUXUXUXUXUXUXUXUXUXUXUXUXUXUXUXUXUXUXUXUXUXUXUXUXUXUXUXUXUXUXUXUXUXUXUX",
"UXUXUXUXUXUXUXUXUXUXUXUXUXUXUXUXUXUXUXUXUXUXUXUXq A ! ;.<XKXKXBX@XUXUXUXUXUXUXUXUXUXUXUXUXUXUXUXUXUXUXUXUXUXUXUXUXUXUXUXUXUXUXUXUXUXUXUXUXUXUXUXUXUXUXUXUXUXUXUXUXUXUXUXUXo # >.KXwXB.S.C.N.C.S..X.XBXKXdXUXUXUXUXUXUXUXUXUXUXUXUXUXUXUXUXUXUXUXUXUXUXUXUXUXUXUXUXUXUXUXUXUXUXUXUXUXUXUXUXUXUXUXUXUXUXUXUXUXUXUXUXUXUXUXUXUXUXUXUXUXUXUXUXUXUXUXUXUXUXUXUXUXUXUXUXUXUXUXUXUXUXUXUXUXUXUXUXUXUXUXUXUXUXUXUXUXUXUXUXUX6XKXGX(.^.^.(.^.(.^.GX-X# UXUXUXUXUXUXUXUXUXUXUXUXUXUXUXUXUXUXUXUXUXUXUXUXUXUXUXUXUXUXUXUXUXUXUXUXUXUXUXUXUX",
"UXUXUXUXUXUXUXUXUXUXUXUXUXUXUXUXUXUXUXUXUXUXUXUXUXw T ` ;.mXKXKXzX].l.UXUXUXUXUXUXUXUXUXUXUXUXUXUXUXUXUXUXUXUXUXUXUXUXUXUXUXUXUXUXUXUXUXUXUXUXUXUXUXUXUXUXUXUXUXUXUXUXUXUXUXo # -XKX6XN.S.n.S.C.S.Z.pXJXLX&XUXUXUXUXUXUXUXUXUXUXUXUXUXUXUXUXUXUXUXUXUXUXUXUXUXUXUXUXUXUXUXUXUXUXUXUXUXUXUXUXUXUXUXUXUXUXUXUXUXUXUXUXUXUXUXUXUXUXUXUXUXUXUXUXUXUXUXUXUXUXUXUXUXUXUXUXUXUXUXUXUXUXUXUXUXUXUXUXUXUXUXUXUXUXUXUXUXUXUX,XKXNX~.^.~.^.^.^.^.(.KXJ # UXUXUXUXUXUXUXUXUXUXUXUXUXUXUXUXUXUXUXUXUXUXUXUXUXUXUXUXUXUXUXUXUXUXUXUXUXUXUXUXUX",
"UXUXUXUXUXUXUXUXUXUXUXUXUXUXUXUXUXUXUXUXUXUXUXUXUXUXA W ~ 1.SXKXKXBX].l.UXUXUXUXUXUXUXUXUXUXUXUXUXUXUXUXUXUXUXUXUXUXUXUXUXUXUXUXUXUXUXUXUXUXUXUXUXUXUXUXUXUXUXUXUXUXUXUXUXUXUXo r 1XKXE.S.S.S.S.Z.Z. XlXKXJXkXUXUXUXUXUXUXUXUXUXUXUXUXUXUXUXUXUXUXUXUXUXUXUXUXUXUXUXUXUXUXUXUXUXUXUXUXUXUXUXUXUXUXUXUXUXUXUXUXUXUXUXUXUXUXUXUXUXUXUXUXUXUXUXUXUXUXUXUXUXUXUXUXUXUXUXUXUXUXUXUXUXUXUXUXUXUXUXUXUXUXUXUXUXUXUXUXUX,XKXMX~.~.^.~.^.^.^.^.tXGX# UXUXUXUXUXUXUXUXUXUXUXUXUXUXUXUXUXUXUXUXUXUXUXUXUXUXUXUXUXUXUXUXUXUXUXUXUXUXUXUXUXUX",
"UXUXUXUXUXUXUXUXUXUXUXUXUXUXUXUXUXUXUXUXUXUXUXUXUXUXq A Q ;.2.FXKXKXAX@Xl.UXUXUXUXUXUXUXUXUXUXUXUXUXUXUXUXUXUXUXUXUXUXUXUXUXUXUXUXUXUXUXUXUXUXUXUXUXUXUXUXUXUXUXUXUXUXUXUXUXUXUX# r nXPXD.C.C.C.C.S.[.+XCXKXLXkXUXUXUXUXUXUXUXUXUXUXUXUXUXUXUXUXUXUXUXUXUXUXUXUXUXUXUXUXUXUXUXUXUXUXUXUXUXUXUXUXUXUXUXUXUXUXUXUXUXUXUXUXUXUXUXUXUXUXUXUXUXUXUXUXUXUXUXUXUXUXUXUXUXUXUXUXUXUXUXUXUXUXUXUXUXUXUXUXUXUXUXUXUXUXUXyXKXuX~.~.R.~.~.^.^.^.^.uXeX# UXUXUXUXUXUXUXUXUXUXUXUXUXUXUXUXUXUXUXUXUXUXUXUXUXUXUXUXUXUXUXUXUXUXUXUXUXUXUXUXUXUX",
"UXUXUXUXUXUXUXUXUXUXUXUXUXUXUXUXUXUXUXUXUXUXUXUXUXUXUXw ^ ~ ;.<XKXKXKXAXqXx.UXUXUXUXUXUXUXUXUXUXUXUXUXUXUXUXUXUXUXUXUXUXUXUXUXUXUXUXUXUXUXUXUXUXUXUXUXUXUXUXUXUXUXUXUXUXUXUXUXUXo + G PXFXE.S.C.C.Z.Z. X$XHXKXAX#XUXUXUXUXUXUXUXUXUXUXUXUXUXUXUXUXUXUXUXUXUXUXUXUXUXUXUXUXUXUXUXUXUXUXUXUXUXUXUXUXUXUXUXUXUXUXUXUXUXUXUXUXUXUXUXUXUXUXUXUXUXUXUXUXUXUXUXUXUXUXUXUXUXUXUXUXUXUXUXUXUXUXUXUXUXUXUXUXUXUXUXUXUXmXKXuX~.~.~.P.P.~.~.^.P.^.GXG.# UXUXUXUXUXUXUXUXUXUXUXUXUXUXUXUXUXUXUXUXUXUXUXUXUXUXUXUXUXUXUXUXUXUXUXUXUXUXUXUXUXUX",
"UXUXUXUXUXUXUXUXUXUXUXUXUXUXUXUXUXUXUXUXUXUXUXUXUXUXUXq N ~ ~ 1.hXKXKXKXHXqXc.UXUXUXUXUXUXUXUXUXUXUXUXUXUXUXUXUXUXUXUXUXUXUXUXUXUXUXUXUXUXUXUXUXUXUXUXUXUXUXUXUXUXUXUXUXUXUXUXUXUXo O H PXMXD.C.C.C.C.Z. X$XAXLXjX'.UXUXUXUXUXUXUXUXUXUXUXUXUXUXUXUXUXUXUXUXUXUXUXUXUXUXUXUXUXUXUXUXUXUXUXUXUXUXUXUXUXUXUXUXUXUXUXUXUXUXUXUXUXUXUXUXUXUXUXUXUXUXUXUXUXUXUXUXUXUXUXUXUXUXUXUXUXUXUXUXUXUXUXUXUXUXUXUXUXUXUXmXKXrXK.R.K.R.R.P.P.P.P.^.^.GXD # UXUXUXUXUXUXUXUXUXUXUXUXUXUXUXUXUXUXUXUXUXUXUXUXUXUXUXUXUXUXUXUXUXUXUXUXUXUXUXUXUXUX",
"UXUXUXUXUXUXUXUXUXUXUXUXUXUXUXUXUXUXUXUXUXUXUXUXUXUXUXUXq ^ ~ $.2.SXKXKXKXHX<Xc.z.UXUXUXUXUXUXUXUXUXUXUXUXUXUXUXUXUXUXUXUXUXUXUXUXUXUXUXUXUXUXUXUXUXUXUXUXUXUXUXUXUXUXUXUXUXUXUXUXUXO q 3.PXmXC.C.C.C.A.[.[.#XVXLX&XUXUXUXUXUXUXUXUXUXUXUXUXUXUXUXUXUXUXUXUXUXUXUXUXUXUXUXUXUXUXUXUXUXUXUXUXUXUXUXUXUXUXUXUXUXUXUXUXUXUXUXUXUXUXUXUXUXUXUXUXUXUXUXUXUXUXUXUXUXUXUXUXUXUXUXUXUXUXUXUXUXUXUXUXUXUXUXUXUXUXMXKXrXK.K.R.K.K.K.P.P.P.P.P.).PXo UXUXUXPXUXUXUXUXUXUXUXUXUXUXUXUXUXUXUXUXUXUXUXUXUXUXUXUXUXUXUXUXUXUXUXUXUXUXUXUXUXUXUX",
"UXUXUXUXUXUXUXUXUXUXUXUXUXUXUXUXUXUXUXUXUXUXUXUXUXUXUXUXUXw ~ } ,.2.AXKXKXKXHXwXc.l.UXUXUXUXUXUXUXUXUXUXUXUXUXUXUXUXUXUXUXUXUXUXUXUXUXUXUXUXUXUXUXUXUXUXUXUXUXUXUXUXUXUXUXUXUXUXUXUXUXO r >.LXwXC.C.A.A.Z.Z.[.oXxXJX'.UXUXUXUXUXUXUXUXUXUXUXUXUXUXUXUXUXUXUXUXUXUXUXUXUXUXUXUXUXUXUXUXUXUXUXUXUXUXUXUXUXUXUXUXUXUXUXUXUXUXUXUXUXUXUXUXUXUXUXUXUXUXUXUXUXUXUXUXUXUXUXUXUXUXUXUXUXUXUXUXUXUXUXUXUXUXUXUXLXKXW.J.K.K.K.K.K.K.K.K.P.P.P.tXnXo UXUXUX;XUXUXUXUXUXUXUXUXUXUXUXUXUXUXUXUXUXUXUXUXUXUXUXUXUXUXUXUXUXUXUXUXUXUXUXUXUXUXUX",
"UXUXUXUXUXUXUXUXUXUXUXUXUXUXUXUXUXUXUXUXUXUXUXUXUXUXUXUXUXq N Q ~ ;.].JXKXKXKXJXmX>Xc.UXUXUXUXUXUXUXUXUXUXUXUXUXUXUXUXUXUXUXUXUXUXUXUXUXUXUXUXUXUXUXUXUXUXUXUXUXUXUXUXUXUXUXUXUXUXUXUXUXo q =XLX2XZ.A.n.n.A.Z.}.XXxXAX'.UXUXUXUXUXUXUXUXUXUXUXUXUXUXUXUXUXUXUXUXUXUXUXUXUXUXUXUXUXUXUXUXUXUXUXUXUXUXUXUXUXUXUXUXUXUXUXUXUXUXUXUXUXUXUXUXUXUXUXUXUXUXUXUXUXUXUXUXUXUXUXUXUXUXUXUXUXUXUXUXUXUXUXUXUXUXKXGXR.J.J.R.K.R.P.K.K.P.K.P.P.P.uX;X# UXUXUXUXUXUXUXUXUXUXUXUXUXUXUXUXUXUXUXUXUXUXUXUXUXUXUXUXUXUXUXUXUXUXUXUXUXUXUXUXUXUXUX",
"UXUXUXUXUXUXUXUXUXUXUXUXUXUXUXUXUXUXUXUXUXUXUXUXUXUXUXUXUXUXw ^ ~ E ;.1XKXKXKXKXKXFX6XI.UXUXUXUXUXUXUXUXUXUXUXUXUXUXUXUXUXUXUXUXUXUXUXUXUXUXUXUXUXUXUXUXUXUXUXUXUXUXUXUXUXUXUXUXUXUXUXUXUX# q ;XLX|.C.A.g.A.A.j.j.XXcXVXk.UXUXUXUXUXUXUXUXUXUXUXUXUXUXUXUXUXUXUXUXUXUXUXUXUXUXUXUXUXUXUXUXUXUXUXUXUXUXUXUXUXUXUXUXUXUXUXUXUXUXUXUXUXUXUXUXUXUXUXUXUXUXUXUXUXUXUXUXUXUXUXUXUXUXUXUXUXUXUXUXUXUXUXUXKXMXY.T.J.J.J.J.K.K.K.K.K.P.P.P.P.NX:X# UXUXUXUXUXUXUXUXUXUXUXUXUXUXUXUXUXUXUXUXUXUXUXUXUXUXUXUXUXUXUXUXUXUXUXUXUXUXUXUXUXUXUX",
"UXUXUXUXUXUXUXUXUXUXUXUXUXUXUXUXUXUXUXUXUXUXUXUXUXUXUXUXUXUXr N ^ ~ ;.2.mXKXKXKXKXKXLXmXwX>XUXUXUXUXUXUXUXUXUXUXUXUXUXUXUXUXUXUXUXUXUXUXUXUXUXUXUXUXUXUXUXUXUXUXUXUXUXUXUXUXUXUXUXUXUXUXUXo O r nXFXD.A.A.g.A.g.A.j.`.cXsXUXUXUXUXUXUXUXUXUXUXUXUXUXUXHXUXUXUXUXUXUXKXUXUXUXUXUXUXUXUXUXUXUXUXUXUXUXUXUXUXUXUXUXUXUXUXUXUXUXUXUXUXUXUXUXUXUXUXUXUXUXUXUXUXUXUXUXUXUXUXUXUXUXUXUXUXUXUXUXUXUXUXUXKXMXU.J.J.J.J.J.K.J.K.K.K.K.K.K.P.F.NXH.UXUXUXUXUXUXUXUXUXUXUXUXUXUXUXUXUXUXUXUXUXUXUXUXUXUXUXUXUXUXUXUXUXUXUXUXUXUXUXUXUXUXUXUX",
"UXUXUXUXUXUXUXUXUXUXUXUXUXUXUXUXUXUXUXUXUXUXUXUXUXUXUXUXUXUXUXr C ^ ~ ,.c.FXKXKXKXKXKXLXGXmXmXyXyXmXyXmXwXmXmXwXhXmXwXmXmXmXhXmXmXnXSXmXmXmXSXmXUXUXUXUXUXUXUXUXUXUXUXUXUXUXUXUXUXUXUXUXUXUXo O r IXmXC.m.g.g.g.g.g.j.`.AX$XUXUXUXUXUXUXUXUXUXUXUXUXUXUXUXUXUXUXUXUXGXUXUXUXUXUXUXUXUXUXUXUXUXUXUXUXUXUXUXUXUXUXUXUXUXUXUXUXUXUXUXUXUXUXUXUXUXUXUXUXUXUXUXUXUXUXUXUXUXUXUXUXUXUXUXUXUXUXUXUXUXKXMXT.T.t.J.L.J.J.J.K.K.K.K.K.K.K.P.F.LXJ UXUXUXUXUXUXUXUXUXUXUXUXUXUXUXUXUXUXUXUXUXUXUXUXUXUXUXUXUXUXUXUXUXUXUXUXUXUXUXUXUXUXUXUX",
"UXUXUXUXUXUXUXUXUXUXUXUXUXUXUXUXUXUXUXUXUXUXUXUXUXUXUXUXUXUXUXUXw ^ ~ } 3.<XLXKXKXKXKXKXLXKXKXKXKXJXJXLXKXKXKXKXLXLXKXLXKXLXKXKXKXKXKXKXKXJXKXKXKXLXKXKXLXKXKXKXKXKXKXKXKXKXKXPXDXUXUXUXUXUXUXo O J LXhXA.g.A.g.g.g.g.j.`.HXoXUXUXUXUXUXUXUXUXUXUXUXUXUXUXUXUXUXUXUXUXUXUXUXUXUXUXUXUXUXUXUXUXUXUXUXUXUXUXUXUXUXUXUXUXUXUXUXUXUXUXUXUXUXUXUXUXUXUXUXUXUXUXUXUXUXUXUXUXUXUXUXUXUXUXUXUXUXUXUXKXmXV.w.L.w.t.J.J.J.J.K.K.K.K.K.K.K.F.!.KXD UXUXUXUXUXUXUXUXUXUXUXUXUXUXUXUXUXUXUXUXUXUXUXUXUXUXUXUXUXUXUXUXUXUXUXUXUXUXUXUXUXUXUXUX",
"UXUXUXUXUXUXUXUXUXUXUXUXUXUXUXUXUXUXUXUXUXUXUXUXUXUXUXUXUXUXUXUX# w ^ ` } I.mXKXKXKXKXKXLXGXMXmXeXyXmXwXbXwXwXqXqXqXqXqXqX<XOXqX].OXOX0X0XqXqXdXaXdXdXsXlXlXlXcXCXVXVXZXZXAXAXAXHXIXUXUXUXUXUXUXO # J LX8Xm.h.h.s.j.s.h.h.}.HX'.UXUXUXUXUXUXUXUXUXUXUXUXUXUXUXUXUXUXUXUXUXUXUXUXUXUXUXUXUXUXUXUXUXUXUXUXUXUXUXUXUXUXUXUXUXUXUXUXUXUXUXUXUXUXUXUXUXUXUXUXUXUXUXUXUXUXUXUXUXUXUXUXUXUXUXUXUXKXwXV.w.z.w.w.J.w.J.L.J.J.J.J.J.K.K.K.F.!.KXD UXUXUXUXUXUXUXUXUXUXUXUXUXUXUXUXUXUXUXUXUXUXUXUXUXUXUXUXUXUXUXUXUXUXUXUXUXUXUXUXUXUXUXUX",
"UXUXUXUXUXUXUXUXUXUXUXUXUXUXUXUXUXUXUXUXUXUXUXUXUXUXUXUXUXUXUXUXUXq w ^ } <.,XLXKXKXKXKXKXLXMXyXwXwXwX0XwX0X8X7XOX.X.X X[.[.[.[.}.}.}.}. X X X XOX X+X+XpXpXpXdXsXkXlXlXzXcXcXCXAXDXIXUXUXUXUXUXUXo O :XPX|.A.h.s.s.s.s.y.h.@XHXf.UXUXUXUXUXUXUXUXUXUXUXUXUXUXUXUXUXUXUXUXUXUXUXUXUXUXUXUXUXUXUXUXUXUXUXUXUXUXUXUXUXUXUXUXUXUXUXUXUXUXUXUXUXUXUXUXUXUXUXUXUXUXUXUXUXUXUXUXUXUXUXUXUXUXUXKXwXt.b.e.z.e.w.L.L.J.J.J.J.J.J.J.K.K.L.F.!.KXD UXUXUXUXUXUXUXUXUXUXUXUXUXUXUXUXUXUXUXUXUXUXUXUXUXUXUXUXUXUXUXUXUXUXUXUXUXUXUXUXUXUXUXUX",
"UXUXUXUXUXUXUXUXUXUXUXUXUXUXUXUXUXUXUXUXUXUXUXUXUXUXUXUXUXUXUXUXUXUXr A Q ;.<.,XGXKXKXKXKXLXGXmXwXwX6X8X8X8X7X|.|.|.[..XZ.[.[.}.}.}.[.}.}.OX}. X X X.X+X9X$XpXaXsXsXsXsXzXlXlXCXVXHXDXIXUXUXUXUXUXUXo + :XPXZ.h.s.p.s.s.s.y.a.$XCXUXUXUXUXUXUXUXUXUXUXUXUXUXUXUXUXUXUXUXUXUXUXUXUXUXUXUXUXUXUXUXUXUXUXUXUXUXUXUXUXUXUXUXUXUXUXUXUXUXUXUXUXUXUXUXUXUXUXUXUXUXUXUXUXUXUXUXUXUXUXUXUXUXMXKX6Xb.e.w.e.w.w.w.w.w.w.J.J.L.J.J.K.J.J.F.F.).KXD UXUXUXUXnXUXUXUXUXUXUXUXUXUXUXUXUXUXUXUXUXUXUXUXUXUXUXUXUXUXUXUXUXUXUXUXUXUXUXUXUXUXUXUX",
"UXUXUXUXUXUXUXUXUXUXUXUXUXUXUXUXUXUXUXUXUXUXUXUXUXUXUXUXUXUXUXUXUXUXUXN ^ } ;.<.,XGXKXKXKXKXLXMXmX6X6X3X5X5X4X4X|.|.|.[.[.Z.Z.Z.Z.Z.Z.A.Z.Z.OX[.[. X X XOXOXpX+XpXpXsXlXlXgXzXzXCXAXHXDXIXUXUXUXUXUXUXO # ;XFXA.h.s.u.u.u.u.a.k.aXbXUXUXUXUXUXUXUXUXUXUXUXUXUXUXUXUXUXUXUXUXUXUXUXUXUXUXUXUXUXUXUXUXUXUXUXUXUXUXUXUXUXUXUXUXUXUXUXUXUXUXUXUXUXUXUXUXUXUXUXUXUXUXUXUXUXUXUXUXUXUXUXmXKX6XM.e.r.e.e.w.z.e.e.w.w.w.J.L.J.J.J.J.L.F.F.(.KXD UXUXUXUXKXUXUXUXUXUXUXUXUXUXUXUXUXUXUXUXUXUXUXUXUXUXUXUXUXUXUXUXUXUXUXUXUXUXUXUXUXUXUXUX",
"UXUXUXUXUXUXUXUXUXUXUXUXUXUXUXUXUXUXUXUXUXUXUXUXUXUXUXUXUXUXUXUXUXUXUXr N T ^ } <.!.NXKXKXKXKXGXMXyXwX6X3X3X2X2X|.|.D.[.D.Z.Z.Z.Z.A.Z.Z.}.A.Z. X[.[.[. XOX+XpXpXpXpXsXlXlXzXzXlXzXCXAXPXDXIXUXUXUXUXUXUXo q nXmXg.a.p.u.u.u.u.u.s.vX$XUXUXUXUXUXUXUXUXUXUXUXUXUXUXUXUXUXUXUXUXUXUXUXUXUXUXUXUXUXUXUXUXUXUXUXUXUXUXUXUXUXUXUXUXUXUXUXUXUXUXUXUXUXUXUXUXUXUXUXUXUXUXUXUXUXUXUXUXUXDXKX3Xb.e.l.z.e.e.e.w.e.w.w.w.J.w.J.L.J.J.J.L...F.).KXD UXUXUX-X-XUXUXUXUXUXUXUXUXUXUXUXUXUXUXUXUXUXUXUXUXUXUXUXUXUXUXUXUXUXUXUXUXUXUXUXUXUXUXUX",
"UXUXUXUXUXUXUXUXUXUXUXUXUXUXUXUXUXUXUXUXUXUXUXUXUXUXUXUXUXUXUXUXUXUXUXUXr N A } } <.!.NXKXKXKXKXGXyXyX6X3X3X3X2X2X2X2X|.D.|.Z.Z.Z.Z.Z.Z.Z.Z.[.[. X[. X XOXOX9X+XpXpXsXsXlXlXzXcXzXzXBXAXLXDXnXUXUXUXUXUXUXo # IXwXg.s.s.u.u.&.y.u.y.AX*XUXUXUXUXUXUXUXUXUXUXUXUXUXUXUXUXUXUXUXUXUXUXUXUXUXUXUXUXUXUXUXUXUXUXUXUXUXUXUXUXUXUXUXUXUXUXUXUXUXUXUXUXUXUXUXUXUXUXUXUXUXUXUXUXUXUXUXFXKX2Xb.q.q.q.e.e.q.e.e.e.e.w.w.w.L.w.w.J.J.J.L...F.tXLXD UXUXUXUX:XUXUXUXUXUXUXUXUXUXUXUXUXUXUXUXUXUXUXUXUXUXUXUXUXUXUXUXUXUXUXUXUXUXUXUXUXUXUXUX",
"UXUXUXUXUXUXUXUXUXUXUXUXUXUXUXUXUXUXUXUXUXUXUXUXUXUXUXUXUXUXUXUXUXUXUXUXUX# r C Q } ;.G.NXKXKXKXLXMXyX6X6X3X2X2X2X2X4XfX4X.X.X[.[.[.[.[.Z.}.}.[. XOX XOXOX+X+XpXpXdXaXsXsXlXzXlXzXcXlXCXAXFXDXnXUXUXUXUXUXo o H DX0Xg.s.s.u.y.p.u.y.f.CX'.UXUXUXUXUXUXUXUXUXUXUXUXUXUXUXUXUXUXUXUXUXUXUXUXUXUXUXUXUXUXUXUXUXUXUXUXUXUXUXUXUXUXUXUXUXUXUXUXUXUXUXUXUXUXUXUXUXUXUXUXUXUXUXUXUXHXKXE.b.r.l.q.q.q.q.q.e.e.e.e.e.e.w.w.w.w.J.J.J.L.| F.iXLXJ UXeXUXUX>.UXUXUXUXUXUXUXUXUXUXUXUXUXUXUXUXUXUXUXUXUXUXUXUXUXUXUXUXUXUXUXUXUXUXUXUXUXUXUX",
"UXUXUXUXUXUXUXUXUXUXUXUXUXUXUXUXUXUXUXUXUXUXUXUXUXUXUXUXUXUXUXUXUXUXUXUXUXUX# q { } } } !.DXKXKXKXLXNX6X6X5X3X2X2X4X4XwX4X.X.X X[.[.[.Z.}.[.[.[. X7XfX9X+X+X+XpXpXaXsXsXsXlXlXcXcXcXcXBXCXHXPXDX;XUXUXUXUXUXo O J PX].k.h.s.s.y.y.&.u.x.SXUXUXUXUXUXUXUXUXUXUXUXUXUXUXUXUXUXUXUXUXUXUXUXUXUXUXUXUXUXUXUXUXUXUXUXUXUXUXUXUXUXUXUXUXUXUXUXUXUXUXUXUXUXUXUXUXUXUXUXUXUXUXUXUXGXKX3XN.b.e.l.q. .q.q.q.e.e.e.e.e.w.w.w.w.w.L.w.J.L.X.F.iXLX:.1XUXUXUX=XUXUXUXUXUXUXUXUXUXUXUXUXUXUXUXUXUXUXUXUXUXUXUXUXUXUXUXUXUXUXUXUXUXUXUXUXUXUXUX",
"UXUXUXUXUXUXUXUXUXUXUXUXUXUXUXUXUXUXUXUXUXUXUXUXUXUXUXUXUXUXUXUXUXUXUXUXUXUXUX+ w A Q } <.!.MXKXKXKXGXNXwX6X5X3X4X2X5X4X7X|.OX.X X X X[.[.[.[. X XOXJXKXgXOX9X+XpXpXdXsXsXlXlXzXzXzXVXCXCXVXAXPXPXUXUXUXUXUXUXo O _.LX Xj.k.s.s.f.u.u.y.].zXf.UXUXUXUXUXUXUXUXUXUXUXUXUXUXUXUXUXUXUXUXUXUXUXUXUXUXUXUXUXUXUXUXUXUXUXUXUXUXUXUXUXUXUXUXUXUXUXUXUXUXUXUXUXUXUXUXUXUXUXUXUXLXKX6XN.b.b.0.q.q. .q.q.q.q.e.e.e.w.e.e.e.w.w.J.w.w.L...F.iXKXG.# UXUXUX=XUXUXUXUXUXUXUXUXUXUXUXUXUXUXUXUXUXUXUXUXUXUXUXUXUXUXUXUXUXUXUXUXUXUXUXUXUXUXUX",
"UXUXUXUXUXUXUXUXUXUXUXUXUXUXUXUXUXUXUXUXUXUXUXUXUXUXUXUXUXUXUXUXUXUXUXUXUXUXUXUX+ q w } } <.!.GXKXKXKXMXyX6X6X3X3X2X5X5X5X7XOX.X.X X X X X X X XOXOXBXHX0X+X9X9XpXaXaXsXlXsXlXlXcXCXCXCXZXVXZXHXJXPXUXUXUXUXUXUXo # :XJX}.j.h.k.k.s.u.s.s.<XbXUXUXUXUXUXUXUXUXUXUXUXUXUXUXUXUXUXUXUXUXUXUXUXUXUXUXUXUXUXUXUXUXUXUXUXUXUXUXUXUXUXUXUXUXUXUXUXUXUXUXUXUXUXUXUXUXUXUXs.c.JXJX3XN.b.r.0.0.q. . . .q.| q.q.e.e.e.J.e.e.e.e.w.w.L.w.| ..iXKXD UXUXUXUX=XUXUXUXUXUXUXUXUXUXUXUXUXUXUXUXUXUXUXUXUXUXUXUXUXUXUXUXUXUXUXUXUXUXUXUXUXUXUXUX",
"UXUXUXUXUXUXUXUXUXUXUXUXUXUXUXUXUXUXUXUXUXUXUXUXUXUXUXUXUXUXUXUXUXUXUXUXUXUXUXUXUX# q A ^ } <.!.KXKXKXKXMXyX6X3X3X3X4X4X7X4X7X7XOXOXOXOX X X[. X X+X9X0XpX9X9XpXpXaXsXsXlXgXlXcXcXcXCXVXZXZXVXZXHXPXPXUXUXUXUXUXUXo # ;XBX`.k.g.h.s.f.y.y.y.bX@XUXUXUXUXUXUXUXUXUXUXUXUXUXUXUXUXUXUXUXUXUXUXUXUXUXUXUXUXUXUXUXUXUXUXUXUXUXUXUXUXUXUXUXUXUXUXUXUXUXUXUXUXUX.Xl.%.x.>XKXJX5XB.N.b.q.v.q.9. . . . .q.q.q.q.q.q.e.e.e.e.e.e.J.e.L.X.H.tXKXD UXUXUXUX=XUXUXUXUXUXUXUXUXUXUXUXUXUXUXUXUXUXUXUXUXUXUXUXUXUXUXUXUXUXUXUXUXUXUXUXUXUXUXUX",
"UXUXUXUXUXUXUXUXUXUXUXUXUXUXUXUXUXUXUXUXUXUXUXUXUXUXUXUXUXUXUXUXUXUXUXUXUXUXUXUXUXUX# q A ^ } <.,XKXKXKXKXuXyX6X6X8X5X5X4X7X7X7XOXOXOX X+X X X X XOX X9XOX9X9X9XpXaXaXsXsXgXlXlXlXcXCXVXZXAXZXZXAXJXPXDXUXUXUXUXUXUXO r nXlX`.j.j.k.s.f.s.y.y.BX@XUXUXUXUXUXUXUXUXUXUXUXUXUXUXUXUXUXUXUXUXUXUXUXUXUXUXUXUXUXUXUXUXUXUXUXUXUXUXUXUXUXUXUXUXUXUXUXUXUXUXUX>X1.l.x.<XKXLX6XE.N.b.v.v.q.9.9.5. .9.q.| q.q.| e.e.e.e.e.| ..e.e.e.e.X.!.iXKXD UXUXUXUXUXUXUXUXUXUXUXUXUXUXUXUXUXUXUXUXUXUXUXUXUXUXUXUXUXUXUXUXUXUXUXUXKXKXUXUXUXUXUXUX",
"UXUXUXUXUXUXUXUXUXUXUXUXUXUXUXUXUXUXUXUXUXUXUXUXUXUXUXUXUXUXUXUXUXUXUXUXUXUXUXUXUXUXUX# r w ^ } <.eXKXKXKXGXyXwX6X3X5X8X5X4X7X7X7XOXOXOXOXOXOX XOX XOX9X9XOXpXpXpXpXsXsXgXgXlXzXcXcXVXVXVXZXZXZXVXAXHXPXDXUXUXUXUXUXUXo G IXsX`.j.g.k.h.k.s.y.s.BX=.UXUXUXUXUXUXUXUXUXUXUXUXUXUXUXUXUXUXUXUXUXUXUXUXUXUXUXUXUXUXUXUXUXUXUXUXUXUXUXUXUXUXUXUXUXUXUXUXUX].c.x.].mXKXKXyXE.N.n.b.v.0.0.9.) | | | | | | q.q.| e.| | ..e.e...e.e.w.F...iXKXD UXUXUXUXUXUXUXUXUXUXUXUXUXUXUXUXUXUXUXUXUXUXUXUXUXUXUXUXUXUXUXUXUXUXUXUXUXUXUXUXUXUXUXUX",
"UXUXUXUXUXUXUXUXUXUXUXUXUXUXUXUXUXUXUXUXUXUXUXUXUXUXUXUXUXUXUXUXUXUXUXUXUXUXUXUXUXUXUXUX+ q r } } ..nXKXKXKXGXyX6X6X6X5X5X7X7X8X9X7X7X7XOXOXOXOXOXOXOX9X9XOX9XpXaXpXaXsXlXgXlXlXcXcXCXVXVXZXZXZXVXZXZXJXLXIXUXUXUXUXUXUX@ J DXxX`.`.j.g.}.s.y.y.d.BX@.UXUXUXUXUXUXUXUXUXUXUXUXUXUXUXUXUXUXUXUXUXUXUXUXUXUXUXUXUXUXUXUXUXUXUXUXUXUXUXUXUXUXUXUXUXUXUX].,.1.qXHXKXLXMX3XE.n.b.r.0.9.9.9. . .| |  .| q.| q.q. ...| e.| ..e.e.F.L.} X.iXKXS UXUXUXUXUXUXUXUXUXUXUXUXUXUXUXUXUXUXUXUXUXUXUXUXUXUXUXUXUXUXUXUXUXUXUXUXUXUXUXUXUXUXUXUX",
"UXUXUXUXUXUXUXUXUXUXUXUXUXUXUXUXUXUXUXUXUXUXUXUXUXUXUXUXUXUXUXUXUXUXUXUXUXUXUXUXUXUXUXUXUX# r w A } <.NXKXKXKXMXyX6X6X8X8X8X7X8X8X9X9X7X9X9XOXOXOX9XOX9X9XpXpXpXaXaXaXsXsXlXlXzXzXCXcXCXVXVXZXZXZXVXVXAXHXPXnXUXUXUXUXUXUXq J PX$X`.j.k.k.s.a.u.y.x.BXUXUXUXUXUXUXUXUXUXUXUXUXUXUXUXUXUXUXUXUXUXUXUXUXUXUXUXUXUXUXUXUXUXUXUXUXUXUXUXUXUXUXUXUXUXqXqX$.%.].HXKXKXGXwXD.N.n.b.0.0.9.5.9.[ ] ) | | q.| | | | q.| e.| e.| e.w.w.e.} F.iXKXS UXUXUXUXUXUXUXUXUXUXUXUXUXUXUXUXUXUXUXUXUXUXUXUXUXUXUXUXUXUXUXUXUXUXUXUXUXUXUXUXUXUXUXUX",
"UXUXUXUXUXUXUXUXUXUXUXUXUXUXUXUXUXUXUXUXUXUXUXUXUXUXUXUXUXUXUXUXUXUXUXUXUXUXUXUXUXUXUXUXUX# # q w } } <.DXKXKXKXNX6X6X6X5X8X8X0X0X9X0X9X9X9X9X9X9X9X9X9X9XpXpXpXaXaXsXgXgXgXlXxXxXCXCXCXVXVXZXVXZXVXVXVXZXHXPX;XUXUXUXUXUXO @ :XHXoX`.j.g.k.s.y.y.y.@XvXUXUXUXUXUXUXUXUXUXUXUXUXUXUXUXUXUXUXUXUXUXUXUXUXUXUXUXUXUXUXUXUXUXUXUXUXUXUXUXUXUXUXUXUX>XE ! %.].HXKXKXMX6XD.N.b.v.0.0.9.5. .[ ) ) | | | | | | |  .| ..| e.| w.w.e.w.X.X.rXKXD UXUXUXUXUXUXUXUXUXUXUXUXUXUXUXUXUXUXUXUXUXUXUXUXUXUXUXUXUXUXUXUXUXUXUXUXUXUXUXUXUXUXUXUX",
"UXUXUXUXUXUXUXUXUXUXUXUXUXUXUXUXUXUXUXUXUXUXUXUXUXUXUXUXUXUXUXUXUXUXUXUXUXUXUXUXUXUXUXUXUXUXr # r A A | <.GXKXLXLXmXwXwXwX8X8X8X0X0X9X0X9X0X9X0X9X9X9XpXpXaXaXaXaXsXsXgXlXlXlXlXzXcXcXCXVXVXZXZXZXVXVXVXVXVXHXLXUXUXUXUXUXUXO q -XCXXX`.j.h.k.s.u.u.4.qX$XUXUXUXUXUXUXUXUXUXUXUXUXUX>XUXUXUXUXUXUXUXUXUXUXUXUXUXUXUXUXUXUXUXUXUXUXUXUXUXUXUXUXqXUXUXR #.c.HXKXLXyX3Xn.n.b.r.0.5.[ | ] ) ) | ) | | | | | | | |  ...| w.e.e.e.w.} F.iXKXX.UXUXUXUXUXUXUXUXUXUXUXUXUXUXUXUXUXUXUXUXUXUXUXUXUXUXUXUXUXUXKXKXUXUXUXUXUXUXUXUXUXUXUXUX",
"UXUXUXUXUXUXUXUXUXUXUXUXUXUXUXUXUXUXUXUXUXUXUXUXUXUXUXUXUXUXUXUXUXUXUXUXUXUXUXUXUXUXUXUXUXUX:.r # r r ^ } G.KXLXGXKXyX6X6X8X8X8X0X0XaX0XaX0XaX9X0XpXaX0XaXaXaXfXsXsXgXgXlXlXlXcXcXCXcXVXVXVXVXVXZXZXVXVXVXcXCXLXLXUXUXUXUXUXUXO # ;XvXoX`.j.g.h.s.u.u.y.hX@XUXUXUXUXUXUXUXUXUXUXUXUXUXUXUXUXUXUXUXUXUXUXUXUXUXUXUXUXUXUXUXUXUXUXUXUXUXUXUXUXUXUXUXUXZ $.1.SXJXLXwXE.N.b.r.r.5.5.5.[ ) | Q )  .) | | | | | | | | | e.e.....e.w.} ..iXKXS UXUXUXUXUXUXUXUXUXUXUXUXUXUXUXUXUXUXUXUXUXUXUXUXUXUXUXUXUXUX1XUXUXUXUXUXUXUXUXUXUXUXUXUX",
"UXUXUXUXUXUXUXUXUXUXUXUXUXUXUXUXUXUXUXUXUXUXUXUXUXUXUXUXUXUXUXUXUXUXUXUXUXUXUXUXUXUXUXUXUXUXyX-XS r r r E } G.LXDXGXLXyXwX6X8XwX8X0X0XfX0XaXaXaXfXaXaXaXaXsXsXgXgXgXgXgXlXlXlXzXzXcXcXcXVXVXVXVXZXZXVXVXCXcXcXcXLXLXUXUXUXUXUXUXo r nXcXXX}.j.j.j.s.h.h.k.SXUXUXUXUXUXUXUXUXUXUXUXUXUXUXUXUXUXUXUXUXUXUXUXUXUXUXUXUXUXUXUXUXUXUXUXUXUXUXUXUXUXUXUXUXUXO.,.mXKXKX6XS.n.b.r.0.5.5.| [ Q ) ) ) Q | [ | ) | | | | | z...| | q.e.w.X.F.uXKXX.r UXUXUXUXUXUXUXUXUXUXUXUXUXUXUXUXUXUXUXUXUXUXUXUXUXUXUXUXUXUXUXUXUXUXUXUXUXUXUXUXUXUXUX",
"UXUXUXUXUXUXUXUXUXUXUXUXUXUXUXUXUXUXUXUXUXUXUXUXUXUXUXUXUXUXUXUXUXUXUXUXUXUXUXUXUXUXUXUXUXUXNXKXF.# r # w A ~ =XLXDXLXGXyX6X8X8XwX0XwX0X0XfX0XfXaXaXfXsXfXgXgXgXgXlXgXlXzXcXzXzXcXcXcXCXcXVXVXZXZXVXVXVXcXcXcXlXvXLXPXUXUXUXUXUXUXO J nXBXlXsXsXdX+XqX+X0XqXJXUXUXUXUXUXUXUXUXUXUXUXUXUXUXUXUXUXUXUXUXUXUXUXUXUXUXUXUXUXUXUXUXUXUXUXUXUXUXUXUXUXUXUXUXE +.bXKXNXE.n.b.g.r.6.[ 5.z.[ Q Q ) Q Q ) | | ) | | | Q e. .|  .e.q.e.e. ...eXKXX.r UXUXUXUXUXUXUXUXUXUXUXUXUXUXUXUXUXUXUXUXUXUXUXUXUXUXUXUXUXUXUXUXUXUXUXUXUXUXUXUXUXUXUX",
"UXUXUXUXUXUXUXUXUXUXUXUXUXUXUXUXUXUXUXUXUXUXUXUXUXUXUXUXUXUXUXUXUXUXUXUXUXUXUXUXUXUXUXUXUXUXnXNXGXS r # q r N } ,XKXGXKXMXwXwXwX8X0X0X0XfX0XgXgXsXfXgXfXsXgXgXgXlXlXzXzXzXzXcXzXzXcXCXCXCXVXVXVXZXZXVXVXCXCXcXlXzXBXLXIXUXUXUXUXUXUXo J :X;XnXnXnXnXnXnXnXnXnXUXUXUXUXUXUXUXUXUXUXUXUXUXUXUXUXUXUXUXUXUXUXUXUXUXUXUXUXUXUXUXUXUXUXUXUXUXUXUXUXUXUXUXUXA $.<XKXyXD.n.r.r.5.9.5.) ) Q [ { Q Q Q Q ) | | Q | Q e.| |  . . .q.e.e.....uXKXX.r UXUXUXUXUXUXUXUXUXUXUXUXUXUXUXUXUXUXUXUXUXUXUXUXUXUXUXUXUXUXUXUXUXUXUXUXUXUXUXUXUXUXUX",
"UXUXUXUXUXUXUXUXUXUXUXUXUXUXUXUXUXUXUXUXUXUXUXUXUXUXUXUXUXUXUXUXUXUXUXUXUXUXUXUXUXUXUXUXUXUXNX!.W.GXS r # + q s } 1XLXNXKXyXwX6XwX8XwXfXfXfXfXgXfXBXgXgXfXzXgXzXzXlXzXzXzXzXzXcXcXCXVXCXCXCXZXVXZXVXVXVXCXCXcXcXlXgXmXPXnXUXUXUXUXUXUX+ q q e N e l 9 e 9 e q UXUXUXUXUXUXUXUXUXUXUXUXUXUXUXmXUXUXUXUXUXUXUXUXUXUXUXUXUXUXUXUXUXUXUXUXUXUXUXUXUXUXUXUXw E <XKXwXS.b.r.7.5.] ) ) Q W W Q W Q { Q Q Q | Q Q ..X.| ..|  ...q.e.e...<.uXKXX.r UXUXUXUXUXUXUXUXUXUXUXUXUXUXUXUXUXUXUXUXUXUXUXUXUXUXUXUXUXUXUXUXUXUXUXUXUXUXUXUXUXUXUX",
"UXUXUXUXUXUXUXUXUXUXUXUXUXUXUXUXUXUXUXUXUXUXUXUXUXUXUXUXUXUXUXUXUXUXUXUXUXUXUXUXUXUXUXUXUXUXIXY.e.eXuXS # # # q r } yXLXeXGXwX6X8X8X8XwXfXwXfXfXgXhXhXgXzXzXzXBXBXBXBXcXBXcXBXcXCXCXCXCXVXVXVXZXVXVXVXVXCXcXBXzXzXgXdXSXLX1XUXUXUXUXUXUXo # O O O O O o O O O UXUXUXUXUXUXUXUXUXUXUXUXUXUXUXUXUXUXUXUXUXUXUXUXUXUXUXUXUXUXUXUXUXUXUXUXUXUXUXUXUXUXUXUXUXA >XKX>Xn.m.r.5.] [ [ ) Q Q { Q { Q Q Q Q Q Q | ..| Q | | |  .q.q.e.t. .F.eXKXX.S UXUXUXUXUXUXUXUXUXUXUXUXUXUXUXUXUXUXUXUXUXUXUXUXUXUXUXUXUXUXUXUXUXUXUXUXUXUXUXUXUXUXUX",
"UXUXUXUXUXUXUXUXUXUXUXUXUXUXUXUXUXUXUXUXUXUXUXUXUXUXUXUXUXUXUXUXUXUXUXUXUXUXUXUXUXUXUXUXUXUXIXY.r.t.IXeX# # O # # A ;.mXKXeX>X2X6X8X0XwXfXfXfXfXgXhXgXBXzXhXzXBXBXBXcXBXCXBXBXCXCXVXVXVXVXVXZXVXZXZXVXVXVXcXCXzXzXgXaXaXSXKXUXUXUXUXUXUXUXUXo o o o UXUXUXUXUXUXUXUXUXUXUXUXUXUXUXUXUXUXUXUXUXUXUXUXUXUXUXUXUXUXUXUXUXUXUXUXUXUXUXUXUXUXUXUXUXUXUXUXUXUXr =XKXE.m.m.7.] ) [ Q W { W { Q [ ) { Q Q { Q z.) Q Q | | | .. .q.e.t.| ..uXLXF.w UXUXUXUXUXUXUXUXUXUXUXUXUXUXUXUXUXUXUXUXUXUXUXUXUXUXUXUXUXUXUXUXUXUXUXUXUXUXUXUXUXUXUX",
"UXUXUXUXUXUXUXUXUXUXUXUXUXUXUXUXUXUXUXUXUXUXUXUXUXUXUXUXUXUXUXUXUXUXUXUXUXUXUXUXUXUXUXUXUXUXmXI.q.q.e.PX-Xq UXo o # r ;.mXLX,Xz.m.4XwX0XwXhXfXgXhXfXhXzXzXzXBXBXzXCXCXBXCXCXVXBXBXVXCXVXVXZXVXZXVXZXVXVXVXCXzXcXzXzXgXaXdXFXKXUXUXUXUXUXUXUXUXUXUXUXUXUXUXUXUXUXUXUXUXUXUXUXUXKXUXUXUXUXUXUXUXUXUXUXUXUXUXUXUXUXUXUXUXUXUXUXUXUXUXUXUXUXUXUXUXUXUXUXUXUXq -XKXc.m.7.6.[ ) Q Q W W T [ W ) | Q Q { { ,.| { Q ^ | | | |  .q.w.T...F.NXLX..S UXUXUXUXUXUXUXUXUXUXUXUXUXUXUXUXUXUXUXUXUXUXUXUXUXUXUXUXUXUXUXUXUXUXUXUXUXUXUXUXUXUXUX",
"UXUXUXUXUXUXUXUXUXUXUXUXUXUXUXUXUXUXUXUXUXUXUXUXUXUXUXUXUXUXUXUXUXUXUXUXUXUXUXUXUXUXUXUXUXUXNXT.r.z.r.z.GXH.UXUXO O + w <.IXDX,Xl.7.r.2XwX0XwXfXhXhXhXzXBXBXBXBXBXBXVXCXZXVXBXCXCXVXVXVXZXVXZXZXZXAXVXVXVXCXCXzXzXzXgXfXaXfXPXPXUXUXUXUXUXUXUXUXUXUXUXUXUXUXUXUXUXUXUXUXUXUXUXUXUXUXUXUXUXUXUXUXUXUXUXUXUXUXUXUXUXUXUXUXUXUXUXUXUXUXUXUXUXUXUXUXUXUXUXUXUX<XKXc.v.7.' ) W W W | Q Y { { { T Q { Q <.| { Q Q Q | | | |  .q.t.Q...<.uXKXH.S UXUXUXUXUXUXUXUXUXUXUXUXUXUXUXUXUXUXUXUXUXUXUXUXUXUXUXUXUXUXUXUXUXUXUXUXUXUXUXUXUXUXUX",
"UXUXUXUXUXUXUXUXUXUXUXUXUXUXUXUXUXUXUXUXUXUXUXUXUXUXUXUXUXUXUXUXUXUXUXUXUXUXUXUXUXUXUXUXUXUXNXz.9.0.q.r.I.LX:.UXUXo o O A ,.GXnX,X9.4.6.v.5XfXfXhXhXhXhXBXBXBXAXVXVXCXAXVXZXZXVXZXVXVXVXZXZXZXAXAXZXZXZXVXCXCXcXzXlXgXgXaX0XqXJXPXUXUXUXUXUXUXUXUXUXUXUXUXUXUXUXUXUXUXUXUXUXUXUXUXUXUXUXUXUXUXUXUXUXUXUXUXUXUXUXUXUXUXUXUXUXUXUXUXUXUXUXUXUXUXUXUXUXUXUXUX-XKX,.r.5.[ W W W ~ ~ ^ T { T T Q ^ T { Q { Q { Q Q Q Q | | 9.q.t.t.,.F.NXKXF.S UXUXUXUXUXUXUXUXUXUXUXUXUXUXUXUXUXUXUXUXUXUXUXUXUXUXUXUXUXUXUXUXUXUXUXUXUXUXUXUXUXUXUX",
"UXUXUXUXUXUXUXUXUXUXUXUXUXUXUXUXUXUXUXUXUXUXUXUXUXUXUXUXUXUXUXUXUXUXUXUXUXUXUXUXUXUXUXUXUXUXNXz.9.0.9.q.q.,XGXS UXUXo O o A <.JX1X!.6.6.6.v.v.5XhXhXhXBXBXBXBXBXAXCXZXZXZXAXZXZXAXVXZXZXZXZXZXAXZXZXZXZXVXCXCXzXBXgXlXgXaXaX0X<XKXIXUXUXUXUXUXUXUXUXUXUXUXUXUXUXUXUXUXUXUXUXUXUXUXUXUXUXUXUXUXUXUXUXUXUXUXUXUXUXUXUXUXUXnXUXUXUXUXUXUXUXUXUXUXUXUXUXUXUXUX-XKXz.7.] [ W W T T T T { T { a { { a a { { { { { { Q | |  .q.0.e.t.q.<.uXKXF.A UXUXUXUXUXUXUXUXUXUXUXUXUXUXUXUXUXUXUXUXUXUXUXUXUXUXUXUXUXUXUXUXUXUXUXUXUXUXUXUXUXUXUX",
"UXUXUXUXUXUXUXUXUXUXUXUXUXUXUXUXUXUXUXUXUXUXUXUXUXUXUXUXUXUXUXUXUXUXUXUXUXUXUXUXUXUXUXUXUXUXNXz.9.9.9.9.9.t.yXNXUXUXUXo o O w :.LX-X>X[ ' [ 6.8.m.wXBXmXmXBXAXBXAXAXAXAXAXAXAXHXAXZXZXZXZXZXZXAXAXZXZXVXVXVXcXBXzXzXgXgXgXaXaX7XbXKX1XUXUXUXUXUXUXUXUXUXUXUXUXUXUXUXUXUXUXUXUXUXUXUXUXUXUXUXUXUXUXUXUXUXUXUXUXUXUXUXUXUXUXUXUXUXUXUXUXUXUXUXUXUXUXUXUXUXUX;XKXl.l. .W T { { Y T { a a { a T ^ a { a a { { { Q Q Q Q | q.q.r.M.....NXKXH.S UXUXUXUXUXUXUXUXUXUXUXUXUXUXUXUXUXUXUXUXUXUXUXUXUXUXUXUXUXUXUXUXUXUXUXUXUXUXUXUXUXUXUX",
"UXUXUXUXUXUXUXUXUXUXUXUXUXUXUXUXUXUXUXUXUXUXUXUXUXUXUXUXUXUXUXUXUXUXUXUXUXUXUXUXUXUXUXUXUXUXNXz.9.9.] ] ] 9.z.NXeXUXUXUXo o # w >.LXG.>X[ P [ 4.7.4.m.mXSXBXSXAXAXHXAXAXAXHXAXHXAXAXAXAXZXAXAXZXZXAXZXZXVXCXCXcXzXzXlXgXgXaXaX9X.XmXLX1XUXUXUXUXUXUXUXUXUXUXUXUXUXUXUXUXUXUXUXUXUXUXUXUXUXUXUXUXUXUXUXUXUXUXUXUXUXUXUXUXUXUXUXUXUXUXUXUXUXUXUXUXUXUXUXUXUX;XLX,.6.W W { { K { i { i ~ { { a a ^ a a a { a { Q Q Q ) | | q.r.t. .F.uXKXH.} UXUXUXUXUXUXUXUXUXUXUXUXUXUXUXUXUXUXUXUXUXUXUXUXUXUXUXUXUXUXUXUXUXUXUXUXUXUXUXUXUXUXUX",
"UXUXUXUXUXUXUXUXUXUXUXUXUXUXUXUXUXUXUXUXUXUXUXUXUXUXUXUXUXUXUXUXUXUXUXUXUXUXUXUXUXUXUXUXUXUXNX<.] ] ,.) ] 9.0.z.LX;XUXUXUXo o O r ,XLX:.z.[ P [ 4.7.h.7.D.mXAXAXAXHXAXHXHXHXHXHXHXHXAXAXAXAXZXZXZXAXZXVXVXVXcXcXzXzXzXgXgXaXfX0XqXqXmXJXUXUXUXUXUXUXUXUXUXUXUXUXUXUXUXUXUXUXUXUXUXUXUXUXUXUXUXUXUXUXUXUXUXUXUXUXUXUXUXUXUXUXUXUXUXUXUXUXUXUXUXUXUXUXUXUXUX;XKX` [ W P { { i { i i i a C s a a a a { a a { ^ Q | ) | | 0.q.e.t.e.<.NXLXH.} UXUXUXUXUXUXUXUXUXUXUXUXUXUXUXUXUXUXUXUXUXUXUXUXUXUXUXUXUXUXUXUXUXUXUXUXUXUXUXUXUXUXUX",
"UXUXUXUXUXUXUXUXUXUXUXUXUXUXUXUXUXUXUXUXUXUXUXUXUXUXUXUXUXUXUXUXUXUXUXUXUXUXUXUXUXUXUXUXUXUXNX<.Q ` ) ] ) ] l.0.z.KXG.UXUXUXO o # r eXDX2.,.P [ l.P a.7.7.h..XSXHXAXJXJXJXHXJXHXHXHXJXHXAXAXAXAXZXAXZXZXVXVXCXVXzXzXlXgXgXfXsX0X0X7X4XDXKXUXUXUXUXUXUXUXUXUXUXUXUXUXUXUXUXUXUXUXUXUXUXUXUXUXUXUXUXUXUXUXUXUXUXUXUXUXUXUXUXUXUXUXUXUXUXUXUXUXUXUXUXUXUXUXUX;XKX` [ W { { i i i i i a C i a a a { a { a a a { { | Q | | V.0.r.t.q.F.NXKXH.} UXUXUXUXUXUXUXUXUXUXUXUXUXUXUXUXUXUXUXUXUXUXUXUXUXUXUXUXUXUXUXUXUXUXUXUXUXUXUXUXUXUXUX",
"UXUXUXUXUXUXUXUXUXUXUXUXUXUXUXUXUXUXUXUXUXUXUXUXUXUXUXUXUXUXUXUXUXUXUXUXUXUXUXUXUXUXUXUXUXUXIXz.` W ` [ `  .9.l.n.I.KX:.UXUXUXUXo O r nXmXH.] W [ P [ ( 6.h.7.h..XFXKXJXJXKXJXJXJXJXJXHXHXHXHXHXAXHXZXZXVXVXVXcXBXzXzXzXlXgXaX0X9X7X4X].PXKXUXUXUXUXUXUXUXUXUXUXUXUXUXUXUXUXUXUXUXUXUXUXUXUXUXUXUXUXUXUXUXUXUXUXUXUXUXUXUXUXUXUXUXUXUXUXUXUXUXUXUXUXUXUXUX;XLX,.[ T K { i i i i i a u i u a a a C a a ^ { { { Q ) | [ e.q.r.t.e.H.MXKX!.| A UXUXUXUXUXUXUXUXUXUXUXUXUXUXUXUXUXUXUXUXUXUXUXUXUXUXUXUXUXUXUXUXUXUXUXUXUXUXUXUXUXUX",
"UXUXUXUXUXUXUXUXUXUXUXUXUXUXUXUXUXUXUXUXUXUXUXUXUXUXUXUXUXUXUXUXUXUXUXUXUXUXUXUXUXUXUXUXUXUXNXz.` ` W ` W ) ] D.MXm.1XLXUXUXUXUXUXo o S MX;X;.W P P P [ ( 6.6.7.h.7.2XFXKXKXKXJXJXJXHXJXJXJXHXAXAXAXAXZXZXVXVXCXCXzXzXlXgXgXfXaX0X9X7X7X>XKXGXUXUXUXUXUXUXUXUXUXUXUXUXUXUXUXUXUXUXUXUXUXUXUXUXUXUXUXUXUXUXUXUXUXUXUXUXUXUXUXUXUXUXUXUXUXUXUXUXUXUXUXUXUXUX;XKX$._ T ! a i a a s s a u u u u i a a a a { { { ^ Q Q ) [ | 0.r.t.z.H.NXKX!. .A UXUXUXUXUXUXUXUXUXUXUXUXUXUXUXUXUXUXUXUXUXUXUXUXUXUXUXUXUXUXUXUXUXUXUXUXUXUXUXUXUXUX",
"UXUXUXUXUXUXUXUXUXUXUXUXUXUXUXUXUXUXUXUXUXUXUXUXUXUXUXUXUXUXUXUXUXUXUXUXUXUXUXUXUXUXUXUXUXUXNXc.` ) ` W W ` _ ] 5.l.m.yXDXUXUXUXUXUXo o S GX=X:.{ P P P / [ [ ' 6.h.h.7.7XJXKXKXKXJXJXJXJXJXHXHXHXAXAXZXZXZXVXVXCXcXzXlXzXgXgXaX0X9X8X4X4X>XKXmXUXUXUXUXUXUXUXUXUXUXUXUXUXUXUXUXUXUXUXUXUXUXUXUXUXUXUXUXUXUXUXUXUXUXUXUXUXUXUXUXUXUXUXUXUXUXUXUXUXUXUXUXUX;XKX;._ T Y i i u i i u u u 2 u u a u a a a C a { { Q Q [ | 5.0.t.M.z.!.MXKX).X.} UXUXUXUXUXUXUXUXUXUXUXUXUXUXUXUXUXUXUXUXUXUXUXUXUXUXUXUXUXUXUXUXUXUXUXUXUXUXUXUXUXUX",
"UXUXUXUXUXUXUXUXUXKXUXUXUXUXUXUXUXUXUXUXUXUXUXUXUXUXUXUXUXUXUXUXUXUXUXUXUXUXUXUXUXUXUXUXUXUXNXl.` _ _ ) ! W ` [ ) l.l.V.DXnXUXUXUXUXUXo o H PXG.<.P P P %.W W / ( ' 6.h.h.g.wXJXKXKXKXJXJXJXJXHXHXHXHXAXAXZXZXVXVXcXcXzXzXgXfXfX0X9X7X7X4X.X<XKXmXUXUXUXUXUXUXUXUXUXUXUXUXUXUXUXUXUXUXUXUXUXUXUXUXUXUXUXUXUXUXUXUXUXUXUXUXUXUXUXUXUXUXUXUXUXUXUXUXUXUXUXUX1XKX~ W v j C u i u i u s u y u u a a a s a a { ;.{ Q ) ) ) 5.r.t.t.z.I.GXKXiX<.} UXUXUXUXUXUXUXUXUXUXUXUXUXUXUXUXUXUXUXUXUXUXUXUXUXUXUXUXUXUXUXUXUXUXUXUXUXUXUXUXUXUX",
"UXUXUXUXUXUXUXUXUXPXLXUXUXUXUXUXUXUXUXUXUXUXUXUXUXUXUXUXUXUXUXUXUXUXUXUXUXUXUXUXUXUXUXUXUXUXNX,.C ` _ W W ! W _ ` ` l.l.z.KX1XUXUXUXUXUXo o >.LX:. .{ P W P P I _ / [ 4.h.g.g.A.wXKXKXKXKXKXJXJXJXHXHXHXAXZXVXZXVXCXBXzXgXgXgXfXaX0X7X7X4XOXE.1XKX>XUXUXUXUXUXUXUXUXUXUXUXUXUXUXUXUXUXUXUXUXUXUXUXUXUXUXUXUXUXUXUXUXUXUXUXUXUXUXUXUXUXUXUXUXUXUXUXUXUXUXUX;XKXE W x x s y u a u a y 2 u u 2 a u a u a a a { { { { ) ) 6.r.r.V.z.!.GXKXrX<.| UXUXUXUXUXUXUXUXUXUXUXUXUXUXUXUXUXUXUXUXUXUXUXUXUXUXUXUXUXUXUXUXUXUXUXUXUXUXUXUXUXUX",
"UXUXUXUXUXUXUXUXUXUXUXUXUXUXUXUXUXUXUXUXUXUXUXUXUXUXUXUXUXUXUXUXUXUXUXUXUXUXUXUXUXUXUXUXUXUXmX,.N v $.! W W ! W ! %.` l.m.c.KXUXUXUXUXUXUXo + G.KX:.;.P P P P P _ P / [ 6.6.h.h.g.A.fXKXKXKXKXJXLXJXHXHXHXZXZXZXVXCXCXzXzXgXgXfXfX0X0X7X4X|.|.|.mXKX>XUXUXUXUXUXUXUXUXUXUXUXUXUXUXUXUXUXUXUXUXUXUXUXUXUXUXUXUXUXUXUXUXUXUXUXUXUXUXUXUXUXUXUXUXUXUXUXUXUXUX;XKX+.T x i u 1 u y 2 a u u 2 u u i u a i u a a a { Q { ) [ 0.r.M.V.z.,XLXKXuX!.| A UXUXUXUXUXUXUXUXUXUXUXUXUXUXUXUXUXUXUXUXUXUXUXUXUXUXUXUXUXUXUXUXUXUXUXUXUXUXUXUXUX",
"UXUXUXUXUXUXUXUXUXUXUXUXUXUXUXUXUXUXUXUXUXUXUXUXUXUXUXUXUXUXUXUXUXUXUXUXUXUXUXUXUXUXUXUXUXUXNX1.j x Y ` ` W W ! W Q l.` 0.c.I.LXUXUXUXUXUXUXo r 1XLXS ~ [ P P W P P W / ( ' 6.h.8.g.h.m.wXKXKXKXKXKXJXHXHXAXAXZXVXVXCXzXzXzXhXfXfX8X0X7X4X4X2X|.c.SXKXc.UXUXUXUXUXUXUXUXUXUXUXUXUXUXUXUXUXUXUXUXUXUXUXUXUXUXUXUXUXUXUXUXUXUXUXUXUXUXUXUXUXUXUXUXUXUXUXUXUX;XKXE P x i y y 1 u y 2 y 2 y u u u { u u s a a u a { Q Q [ 0.b.M.B.I.rXKXKXNX!.X.} UXUXUXUXUXUXUXUXUXUXUXUXUXUXUXUXUXUXUXUXUXUXUXUXUXUXUXUXUXUXUXUXUXUXUXUXUXUXUXUXUX",
"UXUXUXUXUXUXUXUXUXUXUXUXUXUXUXUXUXUXUXUXUXUXUXUXUXUXUXUXUXUXUXUXUXUXUXUXUXUXUXUXUXUXUXUXUXUXNXl.C v c Y ! ! R T ! _ ) %.] l.N.wXLXUXUXUXUXUXUXO r eXDXS W P P _ P P P _ / _ ' ' a.6.h.h.g.A.hXKXKXKXKXKXJXHXAXZXZXVXCXBXBXzXhXhXfX0X0X7X4XOX.X|.2XI.LXLXx.UXUXUXUXUXUXUXUXUXUXUXUXUXUXUXUXUXUXUXUXUXUXUXUXUXUXUXUXUXUXUXUXUXUXUXUXUXUXUXUXUXUXUXUXUXUXUXUX1XKXE Y x j u y y y y 2 2 2 u 2 y u 2.i a i s a a a { { ) [ 0.r.r.U.!.uXKXKXLX).<. .^ <.UXUXUXUXwXUXUXUXUXUXUXUXUXUXUXUXUXUXUXUXUXUXUXUXUXUXUXUXUXUXUXUXUXUXUXUXUXUXUX",
"UXUXUXUXUXUXUXUXUXUXUXUXUXUXUXUXUXUXUXUXUXUXUXUXUXUXUXUXUXUXUXUXUXUXUXUXUXUXUXUXUXUXUXUXUXUXMXx.c c c k R W ! ! b ~ _ ! ] l.l.S.FXIXUXUXUXUXUXUXo r mXnXw { { K P P P 1.P I P _ _ 6.( a.7.g.A.A.hXKXJXKXJXJXHXAXZXVXCXBXzXzXzXfXfX0XwX0X7X4X4X2X|.D.>XLXLXx.UXUXUXUXUXUXUXUXUXUXUXUXUXUXUXUXUXUXUXUXUXUXUXUXUXUXUXUXUXUXUXUXUXUXUXUXUXUXUXUXUXUXUXUXUXUXUX1XKXA T x u y y 2 2 2 2 y 2 2 u 2 u u u 2 u a a u a a W Q [ 5.r.M.wXyXNXKXKXKXrX<. .} :.UXUXUXUXUXUXUXUXUXUXUXUXUXUXUXUXUXUXUXUXUXUXUXUXUXUXUXUXUXUXUXUXUXUXUXUXUXUXUX",
"UXUXUXUXUXUXUXUXUXUXUXUXUXUXUXUXUXUXUXUXUXUXUXUXUXUXUXUXUXUXUXUXUXUXUXUXUXUXUXUXUXUXUXUXUXUXmXc.m R M k j v Y K Y v T $.` _ i.v.E.LXeXUXUXUXUXUXo o D JX1XS K K K [ K U K P P P P _ [ / a.8.h.h.h.m.0XKXKXJXHXHXAXZXVXCXzXBXgXhXfXfXwX0X8X5X4X|.|.|.2X>XKXFXx.UXUXUXUXUXUXUXUXUXUXUXUXUXUXUXUXUXUXUXUXUXUXUXUXUXUXUXUXUXUXUXUXUXUXUXUXUXUXUXUXUXUXUXUXUXUX;XLXZ ,.h y y 2 y 2 2 2 2 2 2 s 2 u u 2 s u u u a a { { W Q 6.r.r.B.I.NXLXKXLXiX<.} S 2.UXUXUXUXUXUXUXUXUXUXUXUXUXUXUXUXUXUXUXUXUXUXUXUXUXUXUXUXUXUXUXUXUXUXUXUXUXUXUX",
"UXUXUXUXUXUXUXUXUXUXUXUXUXUXUXUXUXUXUXUXUXUXUXUXUXUXUXUXUXUXUXUXUXUXUXUXUXUXUXUXUXUXUXUXUXUXNXx.C b z x j h v z b v K Y ! ! ` ] i.V.KX-XUXUXUXUXUXo O J KX-XE Y T P K K K K K K K P / / ( 6.4.6.8.h.8.g.wXKXJXHXAXZXZXVXBXzXzXhXgXfX0X0X8X7X4X|.|.|.2X2X1XKXmXp.UXUXUXUXUXUXUXUXUXUXUXUXUXUXUXUXUXUXUXUXUXUXUXUXUXUXUXUXUXUXUXUXUXUXUXUXUXUXUXUXUXUXUXUXUX1XKXA K h h 1 y 2 2 2 2 2 2 2 N 2 2 y 2 u u 2 u a a { { W [ [ 7.r.N.T.eXKXKXGX!...} w G.UXUXUXUXUXUXUXUXUXUXUXUXUXUXUXUXUXUXUXUXUXUXUXUXUXUXUXUXUXUXUXUXUXUXUXUXUXUXUX",
"UXUXUXUXUXUXUXUXUXUXUXUXUXUXUXUXUXUXUXUXUXUXUXUXUXUXUXUXUXUXUXUXUXUXUXUXUXUXUXUXUXUXUXUXUXUXIX[.c M c h h x z x b v n V W ! _ ] 5.0.E.KXUXUXUXUXUXUXo O >.KXG.A K P K K i K b K K K P / / / 6.( ' 4.4.8.8.j.hXKXZXVXVXCXBXzXzXhXgXfXfX0X8X7X4X4X|.|.|.2X5XMXKXmXp.UXUXUXUXUXUXUXUXUXUXUXUXUXUXUXUXUXUXUXUXUXUXUXUXUXUXUXUXUXUXUXUXUXUXUXUXUXUXUXUXUXUXUXUX1XKXA K i u y 2 2 , 2 2 , 2 2 2 2 2 2 2 2 u u u a a a { { [ 6.7.r.t.z.iXLXKXGX,XH.<.:.:.,X>X,XUXUXUXUXUXUXUXUXUXUXUXUXUXUXUXUXUXUXUXUXUXUXUXUXUXUXUXUXUXUXUXUXUXUXUXUX",
"UXUXUXUXUXUXUXUXUXUXUXUXUXUXUXUXUXUXUXUXUXUXUXUXUXUXUXUXUXUXUXUXUXUXUXUXUXUXUXUXUXUXUXUXUXUXIX[.n b z z z h z b z z v K V ! ! ! i.5.0.wXKXUXUXUXUXUXUXo o G.KX:.C T { K K K K K b K K K ! P I _ / / 4.4.4.a.8.h.fXHXVXCXcXBXhXgXhXfXfX0X0X8X4X4X2X2XD.2X3XmXLXKXbXx.x.UXUXUXUXUXUXUXUXUXUXUXUXUXUXUXUXUXUXUXUXUXUXUXUXUXUXUXUXUXUXUXUXUXUXUXUXUXUXUXUXUXUX;XKXB b i y > 2 , 2 ; , , 2 & 3 2 , 2 , 2 u u u u a a { P [ [ 5.r.r.t.,XLXKXNX!.S ;.:.<.>.J UXUXUXUXUXUXUXUXUXUXUXUXUXUXUXUXUXUXUXUXUXUXUXUXUXUXUXUXUXUXUXUXUXUXUXUXUX",
"UXUXUXUXUXUXUXUXUXUXUXUXUXUXUXUXUXUXUXUXUXUXUXUXUXUXUXUXUXUXUXUXUXUXUXUXUXUXUXUXUXUXUXUXUXUXDX[.L b z b b z z z v b c v V Y ! _ _ i.7.0.yXLXUXUXUXUXUXUXo # -XKXUX^ T K K ! c.v b b K U U W K P I P / ( ( ( 4.8.8.s.qXZXCXzXzXgXhXfXfX0X0X8X7X4X2X2X2X|.2X8XMXKXKX1X].u.x.UXUXUXUXUXUXUXUXUXUXUXUXUXUXUXUXUXUXUXUXUXUXUXUXUXUXUXUXUXUXUXUXUXUXUXUXUXUXUXUX;XJXA v f y 2 , & & & , ; ; ; ; , 2 3 2 , a ,.u i a a { { W [ 6.7.b.z.I.LXKXeX<.:.S w H UXUXUXUXUXUXUXUXUXUXUXUXUXUXUXUXUXUXUXUXUXUXUXUXUXUXUXUXUXUXUXUXUXUXUXUXUXUXUX",
"UXUXUXUXUXUXUXUXUXUXUXUXUXUXUXUXUXUXUXUXUXUXUXUXUXUXUXUXUXUXUXUXUXUXUXUXUXUXUXUXUXUXUXUXUXUXDX XL M z z h h h h b z b v K K R ! ! ` l.7.v.GXIXUXUXUXUXUXUX# # 1XGXUXV K P K K p x z p p p K K K P P U U P / ( ( 4.4.8.a.qXAXhXfXfXfXfXfX8X8X5X2X2X2X|.2X2X5XwXMXKXKXbX%.c.UXUXUXUXUXUXUXUXUXUXUXUXUXUXUXUXUXUXUXUXUXUXUXUXUXUXUXUXUXUXUXUXUXUXUXUXUXUXUXUX=XKXB x h t 2 < , 2 & 2 ; 3 2 ; 3 ; ; 3 2 2 2 2 2 i i ) { P [ 5.7.b.z.,XLXKXNX!.<.<.:.:.:.2.UXUXUXUXUXUXUXUXUXUXUXUXUXUXUXUXUXUXUXUXUXUXUXUXUXUXUXUXUXUXUXUXUXUXUXUXUX",
"UXUXUXUXUXUXUXUXUXUXUXUXUXUXUXUXUXUXUXUXUXUXUXUXUXUXUXUXUXUXUXUXUXUXUXUXUXUXUXUXUXUXUXUXUXUXDX XI b b z h z b h h z z b b K P P _ ! [ s.r.V.KXeX2.UXUXUXUXUXo r IXDXUXC K K i K p z i p p z K K p P P U U P P / / ( 4.4.8.a.hXBX0XfXfX0X0X8X5X4X2X2XE.|.2X2X5XmXLXKXKXqX].$.%.UXUXUXUXUXUXUXUXUXUXUXUXUXUXUXUXUXUXUXUXUXUXUXUXUXUXUXUXUXUXUXUXUXUXUXUXUXUX;XKXF R y y 2 , & & & ; ; ; ; 3 2 3 2 2 2 2 2 2 2 u u i { { [ 6.r.b.l.>XPXKXiXX.E w r O UXUXG.UXUXUXUXUXUXUXUXUXUXUXUXUXUXUXUXUXUXUXUXUXUXUXUXUXUXUXUXUXUXUXUXUXUXUXUX",
"UXUXUXUXUXUXUXUXUXUXUXUXUXUXUXUXUXUXUXUXUXUXUXUXUXUXUXUXUXUXUXUXUXUXUXUXUXUXUXUXUXUXUXUXUXUXFX@XI K b h h h h f h h h z b v K 2.,.! _ 5.i.v.E.KXwXUXUXUXUXUXUXo r DXeXUXa K K i v z p i p z z K K p K U K U U U U P P ( ( 4.4.g.hXhX9XwX0X8X7X8X4X2X|.2X|.2X3XwXFXJXKXKXhXx.1.,.UX1.UXUXUXUXUXUXUXUXUXUXUXUXUXUXUXUXUXUXUXUXUXUXUXUXUXUXUXUXUXUXUXUXUXUXUX;XKXG i y > > & & ; ; ; 3 3 ; ; ; ; 2 2 2 , , u u u i i { { W 5.7.b.x.2.GXKXyX<.<.:.;.;.H UXUXUXUXUXUXUXUXUXUXUXUXUXUXUXUXUXUXUXUXUXKXUXUXUXUXUXUXUXUXUXUXUXUXUXUXUXUX",
"UXUXUXUXUXUXUXUXUXUXUXUXUXUXUXUXUXUXUXUXUXUXUXUXUXUXUXUXUXUXUXUXUXUXUXUXUXUXUXUXUXUXUXUXUXUXFX+X/ U b z z h y h y z h y z z b K K ! ! ' i.r.v.6XLX:XUXUXUXUXUXUXo D LX1XN i i v i z z h p i z p T p p p b U b U K U U / p.s.4.4.4.h.fXhX7X5X8X7X4X2X2XD.2X2X3X5XmXGXKXKXKX<X].x.$.1.UXUXUXUXUXUXUXUXUXUXUXUXUXUXUXUXUXUXUXUXUXUXUXUXUXUXUXUXUXUXUXUXUXUXUX;XKXA R > 1 , , & ; & 3 ; ; ; 3 ; ; ; , 2 ; ; 2 u u } Y C T W ] 7.b.l.2.FXKX,XX.} N q UXUX3.UXUXUXUXUXUXUXUXUXUXUXUXUXUXUXUXUXUXUXUXUXUXUXUXUXUXUXUXUXUXUXUXUXUXUXUXUX",
"UXUXUXUXUXUXUXUXUXUXUXUXUXUXUXUXUXUXUXUXUXUXUXUXUXUXUXUXUXUXUXUXUXUXUXUXUXUXUXUXUXUXUXUXUXUXDX+X' K m b h z t f t y p h i z z K K K ! _ ] h.v.m.MXLX2.UXUXUXUXUXUX# J KXUXN i K K b h p y h h K b t t h z p p b b K K U P ( ( ( ( ( 4.p.hXhX4X7X4X2X|.E.3X2X5X6X8XmXJXKXKXFX<X].l.2.;.c.UXUXUXUXUXUXUXUXUXUXUXUXUXUXUXUXUXUXUXUXUXUXUXUXUXUXUXUXUXUXUXUXUX;XKXB i y : , & & & 3 ; 3 ; 3 ; 2 ; 2 3 2 ; 2 2 2 2 a i i { P ' 7.m.m.1.FXKXyXc.;.} H UXUXUXUXUXUXUXUXUXUXUXUXUXUXUXUXUXUXUXUXUXUXUXUXUXUXUXUXUXUXUXUXUXUXUXUXUXUXUXUX",
"UXUXUXUXUXUXUXUXUXUXUXUXUXUXUXUXUXUXUXUXUXUXUXUXUXUXUXUXUXUXUXUXUXUXUXUXUXUXUXUXUXUXUXUXUXUXDX+X@.I U b b h t h h t t d y h z x v K Y _ ' 5.m.b.E.LXLX,.UXUXUXUXUXUXo >.KXUXC C v b i h z p z b d t d t d h p p p b K K P P / / ( ( ( 4.4.i.wXwX|.|.D.2XE.E.2X3X6XwXMXJXKXKXKXbX].c.,.].UXUXUXUXUXUXUXUXUXUXUXUXUXUXUXUXUXUXUXUXUXUXUXUXUXUXUXUXUXUXUXUXUX1XJXB h y , & = $ 3 $ 3 3 H ; 3 ; ; ; 3 2 ; 2 2 2 u y u i { P ' 7.m.x.1.FXKX,X} ^ w :.UXUXUXUXUXUXUXUXUXUXUXUXUXUXUXUXUXUXUXUXUXUXUXUXUXUXUXUXUXUXUXUXUXUXUXUXUXUXUXUX",
"UXUXUXUXUXUXUXUXUXUXUXUXUXUXUXUXUXUXUXUXUXUXUXUXUXUXUXUXUXUXUXUXUXUXUXUXUXUXUXUXUXUXUXUXUXUXDXdX( L v v b h f d d h h y d z z z b v K ! ' %.s.m.n.Q.KXMX,.UXUXUXUXUXUXr :XKXUXC i K b i h y M y t t t t t t t d d p p p U K U U P P P / ( ( 4.x.hXwXD.|.|.2X2X3X6XwXmXGXKXKXKXKXhXqXc.>X,.UXUXUXUXUXUXUXUXUXUXUXUXUXUXUXUXUXUXUXUXUXUXUXUXUXUXUXUXUXUXUXUX;XKXB z > 2 , 3 $ 3 3 3 3 3   ; 3 3 X 3 3 ; ; 2 2 2 u u p { P 6.7.b.m.2.FXLXeX2.;.S + 2.UXUXUXUXUXUXUXUXUXUXUXUXUXUXUXUXUXUXmX:XUXUXUXUXUXUXUXUXUXUXUXUXUXUXUXUXUXUXUX",
"UXUXUXUXUXUXUXUXUXUXUXUXUXUXUXUXUXUXUXUXUXUXUXUXUXUXUXUXUXUXUXUXUXUXUXUXUXUXUXUXUXUXUXUXUXUXPXpX4.L K m b h d f d f d h f f h h h z E K _ %.i.h.C.N.yXLXmX .UXUXUXUXUXr o ;XGXUXV v x c p f y y > > > > > t h y t d d p p $.b U U P U U P / ( ( 4.l.wX8XD.|.2X2XE.6XwXMXLXKXKXKXKXHXqX<X1.l.2.UXUXUXUXUXUXUXUXUXUXUXUXUXUXUXUXUXUXUXUXUXUXUXUXUXUXUXUXUXUX;XKXe b f : & $ $   =   $ $     ; ; ; ; 3 ; ; 2 2 s s i i b P 6.7.m.m.,.SXKX>X} A ;.S UX].UXUXUXUXUXUXUXUXUXUXUXUXUXUXUXUXUXUXUXUXUXUXUXUXUXUXUXUXUXUXUXUXUXUXUXUXUXUX",
"UXUXUXUXUXUXUXUXUXUXUXUXUXUXUXUXUXUXUXUXUXUXUXUXUXUXUXUXUXUXUXUXUXUXUXUXUXUXUXUXUXUXUXUXUXUXDXpX@.I K b b d d d d > d t t t h h h z R Y W _ ] i.m.n.S.MXKXyX| UXUXUXUXA UXO nXDXUXY x x v f t > > , > > > > 7 > t t d h p p z b b U K K K U P / 4.( ( x.wX6XD.E.3X3X8XyXGXKXKXKXKXKXFXmXc.,.` UXUXUXUXUXUXUXUXUXUXUXUXUXUXUXUXUXUXUXUXUXUXUXUXUXUXUXUXUXUX;XKXB c f & & & = 3           ; 3 X X ; ; ; ; 2 ; 2 2 y i v W ' h.m.l.1.SXKX1X<.;.r ;.D UXUXUXUXUXUXUXUXUXUXUXUXUXUXUXUXUXUXUXUXUXUXUXUXUXUXUXUXUXUXUXUXUXUXUXUXUXUXUX",
"UXUXUXUXUXUXUXUXUXUXUXUXUXUXUXUXUXUXUXUXUXUXUXUXUXUXUXUXUXUXUXUXUXUXUXUXUXUXUXUXUXUXUXUXUXUXDXaXu.I U b h d d 7 > 7 > 7 d y f h h h b K K ! _ 5.s.m.n.E.FXKX<X} } UXUX;.UXUX+ IXnXUX~ b j x t > > , * : > > > > > > t d d t z z z b p K U U K P P / ' ' ' x.wX6XE.3X6X6XmXGXKXKXKXKXKXJX<Xc.,.~ UXUXUXUXUXUXUXUXUXUXUXUXUXUXUXUXUXUXUXUXUXUXUXUXUXUXUXUXUX;XKXe z d , & =         $ 3           3 ; ; ; ; 2 2 s u i K W 5.7.h.C.2.SXKX>X;.3.q q ;.UXUXUXUXUXUXUXUXUXUXUXUXUXUXUXUXUXUXUXUXUXUXLXUXUXUXUXUXUXUXUXUXUXUXUXUXUXUXUX",
"UXUXUXUXUXUXUXUXUXUXUXUXUXUXUXUXUXUXUXUXUXUXUXUXUXUXUXUXUXUXUXUXUXUXUXUXUXUXUXUXUXUXUXUXUXUXDXaXy.I L O.h d 7 5 7 > > > t f f z d h z K K ! ! i.i.v.C.E.3XLXKX>Xx.~ UX;.UXUXO r DX1XY T x K x y b t ,.t d f t > > 7 > t t t t d h p z b K K p P P P / / ' ' 6.x.wX6X2X6X6XMXLXKXKXKXKXKXSX>Xz.,.UXUXUXUXUXUXUXUXUXUXUXUXUXUXUXUXUXUXUXUXUXUXUXUXUXUXUXUXUX1XKXe z t : : 3 = 3     $ 3 3 X ; X $ 3 3 ; ; ; 2 2 2 y u K W ' 7.g.v.1.SXKX1X<.,.:.3.;.>.2.=XUXUXUXUXUXUXUXUXUXUXFXUXUXUXUXUXUXUXUXPXUXUXUXUXUXUXUXUXUXUXUXUXUXUXUXUX",
"UXUXUXUXUXUXUXUXUXUXUXUXUXUXUXUXUXUXUXUXUXUXUXUXUXUXUXUXUXUXUXUXUXUXUXUXUXUXUXUXUXUXUXUXUXUXPXdXy.' L n z f t > > > : : > t d f h h h v K Y ! _ i.i.h.D.E.yXKXKX,Xz.,.<.A UXUX+ D KXUXC ! i h z z j p j h l x h h z M z z z z b b K L z p p b b K K P P / _ ' 6.h.D.wXwX6XyXMXLXKXKXKXKXLXyXc.l.,.UXUXUXUXUXUXUXUXUXUXUXUXUXUXUXUXUXUXUXUXUXUXUXUXUXUXUXUX;XKXe M d : & = = $ $ $   X   X X     3 3 ; ; 2 2 2 2 u u b P ' 8.g.x.1.VXJX,X,.E A H 3.H UXUXUXUXUXUXUXUXUXUXUXUXUXUXUXUXUXUXUXUXUX_.UXUXUXUXUXUXUXUXUXUXUXUXUXUXUXUX",
"UXUXUXUXUXUXUXUXUXUXUXUXUXUXUXUXUXUXUXUXUXUXUXUXUXUXUXUXUXUXUXUXUXUXUXUXUXUXUXUXUXUXUXUXUXUXSXsXy.' P K z t f 5 : 5 5 : : t > f d l h M v Y P ! _ i.l.m.D.6XMXKXLX,Xc.c. .A UXUXq J KXUXT Y h j f l l g l l j l l f f g l j k h h z h z b b z p b K U L K I _ ' 5.h.v.S.yXwXwXMXKXKXKXKXKXJX1Xc.,.UXUXUXUXUXUXUXUXUXUXUXUXUXUXUXUXUXUXUXUXUXUXUXUXUXUXUXUX;XKXB b d : , $ $   $           3 . A 3 X ; 3 3 2 y 2 y h x P _ a.g.h.1.SXKX<X,.E A A r UXUXUXUXUXUXUXUXUXUXUXUXUXUXUXUXUXUXUXUXUXUXLXUXUXUXUXUXUXUXUXUXUXUXUXUXUXUXUX",
"UXUXUXUXUXUXUXUXUXUXUXUXUXUXUXUXUXUXUXUXUXUXUXUXUXUXUXUXUXUXUXUXUXUXUXUXUXUXUXUXUXUXUXUXUXUXFXsX8.@.I n z d t 7 : > : : 7 7 d 7 f j b b v K K ! _ ] i.m.C.E.yXLXKXLXyX1X<.<.} S UX+ >.KXUXR i h y l y y y 1 f f 5 t t t t t d h d h h h h c b z z U ! K K I / _ 5.a.v.v.m.2XmXyXMXLXKXKXKXKXFX>X,.,.UXUXUXUXUXUXUXUXUXUXUXUXUXUXUXUXUXUXUXUXUXUXUXUXUXUXUX;XKXG z f 0 & = &   $     X X   X X X   ; ; ; , , 2 2 E z K P / 7.g.j.*XAXKX1X2.,.1.;.:.;.UXUX<XUXUXUXUXUXUXUXUXUXUXUXUXUXUXUXUXUXUXG.UXUXUXUXUXUXUXUXUXUXUXUXUXUXUXUX",
"UXUXUXUXUXUXUXUXUXUXUXUXUXUXUXUXUXUXUXUXUXUXUXUXUXUXUXUXUXUXUXUXUXUXUXUXUXUXUXUXUXUXUXUXUXUXSXlXk.@.I U z l 5 7 5 7 6 : 6 5 f g l g c c x v R R ! _ i.m.n.D.6XNXKXKXLXLXrX!.<.A UXUXo ;XKXUXT u 1 6 : : * : < : * : & : * * : : : > 5 > 7 d d d h z b b K K K P _ ' 6.h.C.n.n.3XmXyXGXKXKXKXKXmXc.l.UXUXUXUXUXUXUXUXUXUXUXUXUXUXUXUXUXUXUXUXUXUXUXUXUXUXUX;XKXB b d : * & $ $     X X X X     X X   3 , 3 2 , 2 y u b K / 4.h.A.=.AXKX].;.~ A # q UXUXUXUXUXUXUXUXUXUXUXUXUXUXUXUXUXUXUXUXUXUXUXUXUXUXUXUXUXUXUXUXUXUXUXUXUXUXUX",
"UXUXUXUXUXUXUXUXUXUXUXUXUXUXUXUXUXUXUXUXUXUXUXUXUXUXUXUXUXUXUXUXUXUXUXUXUXUXUXUXUXUXUXUXUX$.DXlXk.4.I L v d d 7 7 : > 6 6 f l f l h v b C v v Y ! _ _ l.m.n.E.yXLXKXKXKXLXrX<.+.UXUXUXO eXDXUXT l < : * * * * * % % & & % * * * : : : > > 5 d d d h h z z b L L ! _ ' 5.7.h.n.b.S.6XMXGXLXKXKXKX1X,.$.UXUXUXUXUXUXUXUXUXUXUXUXUXUXUXUXUXUXUXUXUXUXUXUXUXUX;XKXB b f 6 B < $     $ X X X X     X X X   ; ; , 2 1 y p b U ( h.h.j.1.AXKX1X2.1.<.3.2.3.:.UXUXUXUXUXUXUXUXUXUXUXUXUXUXUXUXUXUXUXUXUXUXUXUXUXUXUXUXUXUXUXUXUXUXUXUXUX",
"UXUXUXUXUXUXUXUXUXUXUXUXUXUXUXUXUXUXUXUXUXUXUXUXUXUXUXUXUXUXUXUXUXUXUXUXUXUXUXUXUXUXUXUXUXK SXvXk.u./ I b h d 7 7 : 6 > 7 7 l l l b n c c v c K R ! _ i.m.C.S.6XMXKXKXKXKXyXc.} UXUXUXUXO IXIXUXx Y x h l j l l d j l d d h k h h h h m f 5 5 > d d d h z b b K K I ! ' ] i.v.m.n.N.E.6XGXKXKXKXGX].,.UXUXUXUXUXUXUXUXUXUXUXUXUXUXUXUXUXUXUXUXUXUXUXUXUXUXnXKXG b l > : =       % X   X X     X X ;   3 & , & 2 y p b P @.4.h.g.=.AXKX].~ E N q A UXUXUXUXUXUXUXUXUXUXUXUXUXUXUXUXUXUXUXUXUXUXUXUXUXUXUXUXUXUXUXUXUXUXUXUXUXUXUX",
"UXUXUXUXUXUXUXUXUXUXUXUXUXUXUXUXUXUXUXUXUXUXUXUXUXUXUXUXUXUXUXUXUXUXUXUXUXUXUXUXUXUXUXUXUXP SXcXk.y.@.I n d d 7 7 5 > 7 7 f l h c V W v R ;.v V T W _ $.i.C.S.D.yXGXKXKXKXMX2.} UXUXUXUXUX# PXUXj h 1 - * $ & & % & = 9 * = $ = * = = = M f > 7 5 d 7 d d M b b K L I ! _ ' i.h.m.b.C.S.E.MXKXKXKXDXc.` UXUXUXUXUXUXUXUXUXUXUXUXUXUXUXUXUXUXUXUXUXUXUXUXUX;XKXF v d : : $     X . . X .             $ ; & & , 2 y z K P ( a.h.j.1.AXKX=X$.~ B q H UXUXUXUXUXUXUXUXUXUXUXUXUXUXUXUXUXUXUXUXUXUXUXUXUXUXUXUXUXUXUXUXUXUXUXUXUXUXUX",
"UXUXUXUXUXUXUXUXUXUXUXUXUXUXUXUXUXUXUXUXUXUXUXUXUXUXUXUXUXUXUXUXUXUXUXUXUXUXUXUXUXUXUXUXUX#.DXCXj.a.@.! L d l d 5 5 7 6 7 f k h v ! O.Y v i R c Y R ! _ %.l.C.S.E.yXMXKXLXLX,X<.;.UXUXUXUXUXr KXUXx v , : : < : * : : 1 0 * & * * : : : : n > > > 5 : d d d f b b K K ! _ _ ' 6.7.h.m.n.n.E.yXGXKXLXhXx.UXUXUXUXUXUXUXUXUXUXUXUXUXUXUXUXUXUXUXUXUXUXUXUXUX1XKXF v d > * & $     X . .   X       X $ $ 3 & & : > y Z K P @.8.g.j.*XHXKX].;.W A q F UXUXUXUXUXUXUXUXUXUXUXUXUXUXUXUXUXUXUXUXUXUXUXUXUXUXUXUXUXUXUXUXUXUXUXUXUXUXUX",
"UXUXUXUXUXUXUXUXUXUXUXUXUXUXUXUXUXUXUXUXUXUXUXUXUXUXUXUXUXUXUXUXUXUXUXUXUXUXUXUXUXUXUXUXUX#.PXZX`.h.@.! n z d 7 6 f 6 g 7 l c Y ! l.x.Q W Y x T Y ! ~ $.i.l.z.C.S.3XrXNXLXKXyX<.} UXUXUXUXUXUXJ KXUXz T h f j f 7 f f y 1 8 > 6 5 7 h M > > m L > 5 : 5 7 d h +.b b n K W ! ! ' 5.u.h.r.b.C.E.E.NXKXJXbXx.UXUXUXUXUXUXUXUXUXUXUXUXUXUXUXUXUXUXUXUXUXUXUXUXnXKXF L d : & & $ $ X X X . . X $ %     3 $ & & & : y t h U I @.a.j.j.=.HXKX<X$.~ A q F UXUXUXUXUXUXUXUXUXUXUXUXUXUXUXUXUXUXUXUXUXUXUXUXUXUXUXUXUXUXUXUXUXUXUXUXUXUXUX",
"UXUXUXUXUXUXUXUXUXUXUXUXUXUXUXUXUXUXUXUXUXUXUXUXUXUXUXUXUXUXUXUXUXUXUXUXUXUXUXUXUXUXUXUXUXn FXAX`.h.u.I U M d m b v K Y Y R ! ` l.wXMXx.$.! ! ! ` _ $.] %.i.m.n.C.D.2X6XuXGXKX,X| A UXUXUXUXUXUXJ KXUXC v j c h k k j l k k l R h k c : v : : b : * : 5 5 : 7 d f h c K K L ! ! _ _ ' 6.i.m.N.D.I.DXLXSXqXl.UXUXUXUXUXUXUXUXUXUXUXUXUXUXUXUXUXUXUXUXUXUXUX;XKXF b h > , ; 3   X . . . X . .     3 $ X $ & , : h d p K / 6.h.g.j.=.AXKX@X+.~ C q H UXUXUXUXUXUXUXUXUXUXUXUXUXUXUXUXUXUXUXUXUXUXUXUXUXUXUXUXUXUXUXUXUXUXUXUXUXUXUX",
"UXUXUXUXUXUXUXUXUXUXUXUXUXUXUXUXUXUXUXUXUXUXUXUXUXUXUXUXUXUXUXUXUXUXUXUXUXUXUXUXUXUXUXUXUXo.FXAXXXj.u./ L M d h R x c V v v ! ! ` wXwXi.! V Y R W R ! _ %.i.l.m.m.S.S.S.3XQ.GXLXI.} UXUXUXUXUXUXUX-XLXUXj 8 * * 4 % * % % % % 0 % * 0 c : h : > f : : : : 7 5 5 5 d h M v L K ! ! I ! _ ' v.b.N.U.,XKXLXeX>XUXUXUXUXUXUXUXUXUXUXUXUXUXUXUXUXUXUXUXUXUXUXUXnXLXG b y : , ;   . X X . . .             $ $ & : : t z b U / y.h.j.`.*XHXKX@X,.~ A q S UXUXUXUXUXUXUXUXUXUXUXUXUXUXUXUXUXUXUXUXUXUXUXUXUXUXUXUXUXUXUXUXUXUXUXUXUXUXUX",
"UXUXUXUXUXUXUXUXUXUXUXUXUXUXUXUXUXUXUXUXUXUXUXUXUXUXUXUXUXUXUXUXUXUXUXUXUXUXUXUXUXUXUXUXUXR HXHX`.g.u./ L b h f f j c c v V K T ! ` l.! ! T R T T W ! ~ _ ] 5.l.l.C.v.n.S.B.yXGXGXz.;.UXUXUXUXUXUXUX1XLXUXj 6 0 % 4 * % 0 * 0 * * % % f d : M : d d : : 5 : : 5 5 7 f h c L Y K R ! ! ! ! 5.l.m.n.B.iXKXLX<Xc.UXUXUXUXUXUXUXUXUXUXUXUXUXUXUXUXUXUXUXUXUXUX;XKX+.x y > & $ $   . . . X X . . X $   $   $ & : > y R O.P ( y.g.g.}.@XHXKXbX,.O.Z r F UXUXUXUXUXUXUXUXUXUXUXUXUXUXUXUXUXUXUXUXUXUXUXUXUXUXUXUXUXUXUXUXUXUXUXUXUXUXUX",
"UXUXUXUXUXUXUXUXUXUXUXUXUXUXUXUXUXUXUXUXUXUXUXUXUXUXUXUXUXUXUXUXUXUXUXUXUXUXUXUXUXUXUXUXUXI FXHX`.g.y.( L b z f 6 c V c k x b v Y ! ~ Y Z V Z V R W R ! ~ ` %.] l.l.l.i.v.M.D.T.GXIX<.UXUXUXUXUXUXUXUXIXDXUXj 1 7 6 g 7 l 9 7 f f 0 & % M 7 * c : h l : : d 5 : > 7 d f h b L v L R K R W ' 5.l.l.N.V.I.KXFX>Xx.UXUXUXUXUXUXUXUXUXUXUXUXUXUXUXUXUXUXUXUXUX;XKX3.b t , & & $   X   X X X . .   X X = $ = $ , : x Y ! I ( u.g.j.{.@XHXKXbX1.~ A w F UXUXUXUXUXUXUXUXUXUXUXUXUXUXUXUXUXUXUXUXUXUXUXUXUXUXUXUXUXUXUXUXUXUXUXUXUXUXUX",
"UXUXUXUXUXUXUXUXUXUXUXUXUXUXUXUXUXUXUXUXUXUXUXUXUXUXUXUXUXUXUXUXUXUXUXUXUXUXUXUXUXUXUXUXUXI LXHXXXk.a.( I v h f 5 1 l C j k k x c Y R Z V V c x Y v V Y R ! ! ` | ,.] v.7.v.v.z.V.LXyX,.UXUXUXUXUXUXUXUXDXUX< v k < * 0 * 0 * * * 7 5 * % h > > h : h 7 * , * * : 5 7 f k M v v K v K R T _ %.i.l.l.m.z.,XKXmX>Xx.UXUXUXUXUXUXUXUXUXUXUXUXUXUXUXUXUXUXUXUX1XKX3.b t , &         . . X .   . X   X     $ & & , t d b U / a.g.j.{.@XJXKXhX1.+.A r A UXUXUX2.UXUXUXUXUXUXUXUXUXUXUXUXUXUXUXUXUXUXUXUXUXUXUXUXUXUXUXUXUXUXUXUXUXUXUX",
"UXUXUXUXUXUXUXUXUXUXUXUXUXUXUXUXUXUXUXUXUXUXUXUXUXUXUXUXUXUXUXUXUXUXUXUXUXUXUXUXUXUXUXUXUX#.PXJX{.g.a.@.I n M f 1 6 j N g g g g l x k j k j j f z i c v v V Y T W ~ ` ` 5.] i.9.l.V.LX,XUXUXUXUXUXUXUXUXUXLXUXg Y c k k g f 5 * % & h * % * k : 7 l : m * * * * Z : 6 f f f +.x x x c c Y ! ` ` ` l.D.m.z.,XKXeX].UXUXUXUXUXUXUXUXUXUXUXUXUXUXUXUXUXUXUXUX1XKX>.b f : $ & X X   . X   X X .           = & = > > d b L / a. X{.XXdXLXKXSX1.,.Z B F UXUXUXUXUXUXUXUXUXUXUXUXUXUXUXUXUXUXUXUXUXUXUXUXUXUXUXUXUXUXUXUXUXUXUXUXUXUXUX",
"UXUXUXUXUXUXUXUXUXUXUXUXUXUXUXUXUXUXUXUXUXUXUXUXUXUXUXUXUXUXUXUXUXUXUXUXUXUXUXUXUXUXUXUXUX! HXJXXXg.a.#.I K z f 5 1 l 7 N g l g j j l k k g k k u 3.c V V n Y Y R R ! ! ~ $.] )  .l.E.LXG.UXUXUXUXUXUXUXUXUXKXUX< 1 6 c > : k & 0 : % M % % & c : f f : n * * * : : : 5 6 1 +.h l l R b R ! _ ` _ ` c.l.l. .eXKXrX.XUXUXUXUXUXUXUXUXUXUXUXUXUXUXUXUXUXUXUX;XJX>.b f : & 3 $   X X         X       3 $ $ & & & > h b P @.y.g.Z.oXgXKXKXHX].;.~ w A UXUXUXUXUXUXUXUXUXUXUXUXUXUXUXUXUXUXUXUXUXUXUXUXUXUXUXUXUXUXUXUXUXUXUXUXUXUXUX",
"UXUXUXUXUXUXUXUXUXUXUXUXUXUXUXUXUXUXUXUXUXUXUXUXUXUXUXUXUXUXUXUXUXUXUXUXUXUXUXUXUXUXUXUXUXO.LXJXXXk.h.@.! K M h > 6 k 7 g k g h h y l g l j l C k c C N k c c V V V Z Y R T _ ` ~ %. .I.KXz.UXUXUXUXUXUXUXUXUXKXUX1 u y j 5 7 h : * * * k % % 5 f * l 5 : c & % : * F : > 7 f f f l h h R ~ ! ! ! ` _ ` ] 9.z.mXKX,X].UXUXUXUXUXUXUXUXUXUXUXUXUXUXUXUXUXUX;XKX3.v y , & $ $ X       X       %       = $ % & * > d M U / a.g.`.oXvXJXKXKX>X*.;.B ;.UXUXUXUXUXUXUXUXUXUXUXUXUXUXUXUXUXUXUXUXUXUXUXUXUXUXUXUXUXUXUXUXUXUXUXUXUXUXUX",
"UXUXUXUXUXUXUXUXUXUXUXUXUXUXUXUXUXUXUXUXUXUXUXUXUXUXUXUXUXUXUXUXUXUXUXUXUXUXUXUXUXUXUXUXUX/ LXJXXXg.s.' _ L b d d < k 7 g 8 g 7 f g g g g g g g g g g k g j j j C x V Y Y R v ~ ~ ` T Q 1XPXUXUXUXUXUXUXUXUXUXG.KXUXy z d j 6 f f : : * : k & : 7 f & M > f 7 * * : < : : : k 7 f f f j V R Y ! R ` ! _ ` `  .,.GXKX,X.XUXUXUXUXUXUXUXUXUXUXUXUXUXUXUXUXUX;XKX;.v y 1 , & 3 $     -     X X X   X = = $ = & * , t z L / y.h.A.XXvXKXKXHX_.,.E A F UXUXUXUXUXUXUXUXUXUXUXUXUXUXUXUXUXUXUXUXUXUXUXUXUXUXUXUXUXUXUXUXUXUXUXUXUXUXUX",
"UXUXUXUXUXUXUXUXUXUXUXUXUXUXUXUXUXUXUXUXUXUXUXUXUXUXUXUXUXUXUXUXUXUXUXUXUXUXUXUXUXUXUXUXUX#.HXKXXXg.a.@./ I b z f 6 c 7 1 1 8 f 8 8 g g 8 g 8 8 8 w g g N k N N N j c V C V Y ! ! W Y T Q NXNXUXUXUXUXUXUXUXUXUX-XKXUX> b u y : j 7 5 : * 6 l * & h 7 * l 3.7 l : < : * 0 : > : 1 5 d f h T R T W _ ! W W ~ `  .<.GXLX!.D.UXUXUXUXUXUXUXUXUXUXUXUXUXUXUXUX1XJX;.b u > , $ & X $ $     $ . . X   X $ $ $ & & = : d d U o.y.h.j.XX@XKXKXSX2.$.A e H UXUXUXUXUXUXUXUXUXUXUXUXUXUXUXUXUXUXUXUXUXUXUXUXUXUXUXUXUXUXUXUXUXUXUXUXUXUXUX",
"UXUXUXUXUXUXUXUXUXUXUXUXUXUXUXUXUXUXUXUXUXUXUXUXUXUXUXUXUXUXUXUXUXUXUXUXUXUXUXUXUXUXUXUXUX#.JXKX#Xj.h.}.#.I n h 7 5 k g g 8 7 8 8 f 8 f 7 8 8 6 8 8 g g 6 8 8 g j l B A x j j x j Y T T T Q MXeXUXUXUXUXUXUXUXUXUXnXLX> t p h y > h > : Z : 9 6 0 * M > : h & h > * * * * : : : : : > d t R R $.$.,.%._ R ! ! ` 9.<.GXGXI.c.UXUXUXUXUXUXUXUXUXUXUXUXUXUXUX;XKXH v h 2 & & $ X $     = 3.X     3   $ = % $ , : > > d b P @.h.j.`.@XJXKXhX1.+.B e H UXUXUXUXUXUXUXUXUXUXUXUXUXUXUXUXUXUXUXUXUXUXUXUXUXUXUXUXUXUXUXUXUXUXUXUXUXUXUX",
"UXUXUXUXUXUXUXUXUXUXUXUXUXUXUXUXUXUXUXUXUXUXUXUXUXUXUXUXUXUXUXUXUXUXUXUXUXUXUXUXUXUXUXUX! *.JXJXoXg.h.u.#.I R b f 9 h 9 f 8 7 8 8 8 l g g 8 8 g g N N N k B N g j g j c j k k c c c V V R ^ | KX-XUXUXUXUXUXUXUXUXUXDXmX<Xc.~ U t 1 z > : : : f 7 : : M : f d * k * * * : : : : : : > > > K W R $.wXx.) ! Y Y R  .9.G.KXmXI.UXUXUXUXUXUXUXUXUXUXUXUXUXUXUX;XKXH V j > & & $ $ 3 $ X   X       $ $ $ $ $ & * * : > t b U @.a.j.`.@XJXKX<X3.$.e r H UXUXUXUXUXUXUXUXUXUXUXUXUXUXUXUXUXUXUXUXUXUXUXUXUXUXUXUXUXUXUXUXUXUXUXUXUXUXUX",
"UXUXUXUXUXUXUXUXUXUXUXUXUXUXUXUXUXUXUXUXUXUXUXUXUXUXUXUXUXUXUXUXUXUXUXUXUXUXUXUXUXUXUXUXO.#.JXKX$XA.h.i.' ! L b l g k l g f < 8 f 1 < 8 8 8 < 8 9 g 9 8 g g 8 8 8 1 8 8 8 8 g g N g N x C R V } KXUXUXUXUXUXUXUXUXUXUXPXUX{ 1.>X>X1.Y b t 5 : : h < - : c : f 5 : h * = * * 5 B : : : : > ! ! ~ z.FX5Xi.$.~ ! ~ `  . .,XLXeXz.UXUXUXUXUXUXUXUXUXUXUXUXUXUX1XKX;.V z 1 2 & $ & $ X   3   X = $ * $ $ $ % $ , , : > t d U / y.g.j.*XJXKX].,.Z q UXH UXUXUXUXUXUXUXUXUXUXUXUXUXUXUXUXUXUXUXUXUXUXUXUXUXUXUXUXUXUXUXUXUXUXUXUXUXUXUX",
"UXUXUXUXUXUXUXUXUXUXUXUXUXUXUXUXUXUXUXUXUXUXUXUXUXUXUXUXUXUXUXUXUXUXUXUXUXUXUXUXUXUXUXUX! -.HXKX#Xg.h.a.@.! L x 8 f ,.;.j 1 1 8 7 < 6 8 8 8 6 7 6 8 8 8 8 8 8 8 g 8 8 8 8 f l g Z 8 8 g g C x b 2.KXUXUXUXUXUXUXUXUXUXUXKXUXv K U T 2.5X<X^ > > > c : 1 7 h : M 7 * M * * * & * = * = : , b v V ~ l.%.T Y V v T ` ` ,.,.eXKXiXI.UXUXUXUXUXUXUXUXUXUXUXUXUX;XLX:.Y j 1 < 2 & & $ $ $ $   % % $ $ $ & * $ = , & & > > d b U y.8.j.=.HXKX2.+.A + UXH UXUXUXUXUXUXUXUXUXUXUXUXUXUXUXUXUXUXUXUXUXUXUXUXUXUXUXUXUXUXUXUXUXUXUXUXUXUXUX",
"UXUXUXUXUXUXUXUXUXUXUXUXUXUXUXUXUXUXUXUXUXUXUXUXUXUXUXUXUXUXUXUXUXUXUXUXUXUXUXUXUXUXUXUX! *.LXKX$Xj.h.a.u.! R c k g 1.;.j g < 8 8 < < 8 < - 8 8 8 f F 8 6 8 N 8 k 8 7 8 8 8 g g l N g j j j x V Y =XKXUXUXUXUXUXUXUXUXUXJ KXUXC R b b b I 2.>X+.> d m 7 5 h f : M : 7 k * * * * * * : & = b v c ! ! R V V c v C ! Y !  .;.NXKXI.I.UXUXUXUXUXUXUXUXUXUXUXUX;XKX:.R i y 2 < & & & $ $ $ $ $ & : * * $ & * = 3.= & : > t b L @.8.j.=.AXKX1.+.r + UXH UXUXUXUXUXUXUXUXUXUXUXUXUXUXUXUXUXUXUXUXUXUXUXUXUXUXUXUXUXUXUXUXUXUXUXUXUXUXUX",
"UXUXUXUXUXUXUXUXUXUXUXUXUXUXUXUXUXUXUXUXUXUXUXUXUXUXUXUXUXUXUXUXUXUXUXUXUXUXUXUXUXUXUXUXO.-.JXKX$XA.g.h.u._ L v g g v k g 1 7 g 6 < < 6 < Z % ; & - & 8 8 g 8 8 8 8 8 8 8 g g N x ^ g j g g u j u x 1XGXUXUXUXUXUXUXUXUXUX:XLXUXY R Z v v R h ;.].+.p k > : h d f m : l R : * * : * * * & c x x K Z v j c j c c E Y R ~  .;.NXGXI.I.UXUXUXUXUXUXUXUXUXUXUX;XKX;.T v y > < : & - $ $ $ * * - 1 & & & * & & & & & : > d h K / y.8.=.AXKX1.E r UXUXUXUXUXUXUXUXUXUXUXUXUXUXUXUXUXUXUXUXUXUXUXUXUXUXUXUXUXUXUXUXUXUXUXUXUXUXUXUXUXUX",
"UXUXUXUXUXUXUXUXUXUXUXUXUXUXUXUXUXUXUXUXUXUXUXUXUXUXUXUXUXUXUXUXUXUXUXUXUXUXUXUXUXUXUXUX~ *.LXKX$Xj.g.a.u._ P v g g M l 8 1 Z 1 f 1 < < < < - N 1 7 1 1 w 8 6 < 8 < - < 8 < 8 8 1.wXY N g l j g y j i IXUXUXUXUXUXUXUXUXUXUX:XPXV ! R R n Z R c y ;.>X;.t > 5 n h f m : h : * : * & : & $ k z h b b z f f l g C O.! ! ~ ] q.:.LXuXH.c.UXUXUXUXUXUXUXUXUXUX1XKX;.W V u 1 2 , & , < < 8 * * < f < & & & & $ & & * * > > h K I @.h.o.SXKX;.Z q UXUXUXUXUXUXUXUXUXUXUXUXUXUXUXUXUXUXUXUXUXUXUXUXUXUXUXUXUXUXUXUXUXUXUXUXUXUXUXUXUXUX",
"UXUXUXUXUXUXUXUXUXUXUXUXUXUXUXUXUXUXUXUXUXUXUXUXUXUXUXUXUXUXUXUXUXUXUXUXUXUXUXUXUXUXUXUX#.=.JXKX$XA.g.8.a._ $.c j 8 v k 8 1 1 8 g < 8 < < < - ; ; 6 6 1 8 < 8 8 6 < 6 8 6 4 8 9 ,.>XZ k w g 8 8 g N u u LXUXUXUXUXUXUXUXUXUXUXnXnXY ! ! R R R R c k d ;.>X;., : R f d l > z 5 * : * * & & c h h l v f 1 y 8 l l C V Y W ! ~  .<.KXeX<.UXUXUXUXUXUXUXUXUXUX1XKX;.^ Y i 1 2 < < : < : 6 < < g x 1 g B < & = & & g * : > d b I @.a.O.BXJX;.B + UXUXUXUXUXUXUXUXUXUXUXUXUXUXUXUXUXUXUXUXUXUXUXUXUXUXUXUXUXUXUXUXUXUXUXUXUXUXUXUXUXUX",
"UXUXUXUXUXUXUXUXUXUXUXUXUXUXUXUXUXUXUXUXUXUXUXUXUXUXUXUXUXUXUXUXUXUXUXUXUXUXUXUXUXUXUXUX#.=.JXKX$Xj.g.h.u._ W v k g k k k f 6 1 8 6 7 g 6 7 ; - 8 - < 8 8 < 6 < w 8 8 < 8 8 6 < g V N g g g g g g g g 2 A KXUXUXUXUXUXUXUXUXUXUXIX;X^ O.R R R R R m c h p 1.>X1.t R d l d : h 5 > : * : % h h g j V y < 1 7 8 f l k c Y T E  . .G.KX,X<.UXUXUXUXUXUXUXUXUX1XKXS W T x u 1 , > < : 1 1 8 l V ! p f > & & & * % * : : > d b L ( y.O.hXKX;.e + UXUXUXUXUXUXUXUXUXUXUXUXUXUXUXUXUXUXUXUXUXUXUXUXUXUXUXUXUXUXUXUXUXUXUXUXUXUXUXUXUXUX",
"UXUXUXUXUXUXUXUXUXUXUXUXUXUXUXUXUXUXUXUXUXUXUXUXUXUXUXUXUXUXUXUXUXUXUXUXUXUXUXUXUXUXUXUX#.=.JXKXkXj.g.7.8.%.! n j g c k 8 8 8 8 1 6 7 8 < < ; - 8 8 2 N 7 < < 8 1 8 8 8 8 8 8 8 w N 1 w 8 g 8 8 8 g g g j H KXUXUXUXUXUXUXUXUXUXr PXUX` $.! ~ ! O.Y B Z l Z z ;.>X=.K > v y h Z k +., * % h d l l c 7 : < 0 1 1 y g l x c V ^  .| G.KXI.<.UXUXUXUXUXUXUXUX1XLX:.~ T v u y 1 < > 2 1 8 c T $.%.! b t : : - $ % & & : f 7 h U / y.#.hXLXF r UXUXUXUXUXUXUXUXUXUXUXUXUXUXUXUXUXUXUXUXUXUXUXUXUXUXUXUXUXUXUXUXUXUXUXUXUXUXUXUXUXUXUX",
"UXUXUXUXUXUXUXUXUXUXUXUXUXUXUXUXUXUXUXUXUXUXUXUXUXUXUXUXUXUXUXUXUXUXUXUXUXUXUXUXUXUXUX! %.*XJXKXkX}.g.h.6._ I v k 8 k C 8 f g 8 g < 7 8 - < ; < 8 1 8   8 - < < < 6 8 1 8 6 w - - 6 < 2 6 6 1 w 8 8 8 w N 1 >.LXUXUXUXUXUXUXUXUXUXD LX2.,.` O.$.! $.R Y V k Z R d ;.].2.t R y l 6 : : & % z h l j v k < : g Y Z Z V Z Y Y R ! ` l.| eXLXc.:.UXUXUXUXUXUXUX;XKX;.` _ K p y f 2 : 1 y h x ` >XwX] P y y : & * $ $ & & < > h b L y.O.nXKXF q UXUXUX=XUXUXUXUXUXUXUXUXUXUXUXUXUXUXUXUXUXUXUXUXUXUXUXUXUXUXUXUXUXUXUXUXUXUXUXUXUXUXUX",
"UXUXUXUXUXUXUXUXUXUXUXUXUXUXUXUXUXUXUXUXUXUXUXUXUXUXUXUXUXUXUXUXUXUXUXUXUXUXUXUXUXUX3.#.*.*XKXKXjX}.g.7.a.' P v c j V k k C ;.g 8 6 1 < < < - - 1 1 8 % 1 < < < < < 1 < < < 6 - - - < < < - 6 6 6 6 w 8 N l C eXGXUXUXUXUXUXUXUXUXUX3.PXc.l.%.$.$.! $.R Z Z m Z Z c h 3.<X1.L 7 > : : & = j h k f c k < 8 v k c c v c v v Y Y R ,. .} mXNX;.UXUXUXUXUXUXUX1XKX .[ W T x x x C C Y R $.,.>XKXKXwXl.~ Y x y < ; - & & * 5 j +.K y.O.bXKXG H UXUXUX2.UXUXUXUXUXUXUXUXUXUXUXUXUXUXUXUXUXUXUXUXUXUXUXUXUXUXUXUXUXUXUXUXUXUXUXUXUXUXUX",
"UXUXUXUXUXUXUXUXUXUXUXUXUXUXUXUXUXUXUXUXUXUXUXUXUXUXUXUXUXUXUXUXUXUXUXUXUXUXUXUXUXUX-.$.*.@XJXKXlX[.A.g.a.' I L c N R c g Z 3.f g 8 7 7 < < - 6 w < 8 - < < 6 w 8 Z ;.j 8 - - - - ; - ; - % ; - - - - 2 4 8 7 1 mXUXUXUXUXUXUXUXUXUXUX:XGX!.l.l.$.,.O.$.! Z R Z L L M h I ;.qX2.: > : 5 & x z c g V k 1 k V l 7 f 8 8 g f k j C V ] | } PXuXUXUXUXUXUXUXUX-XLX<.5._ T x f 1 < < 2 y z K %.wXmXl.K u 2 * & * % % $ & & : > k U ( R bXKXA O UXUXUXUXUXUX<XUXUXUXUXUXUXUXUXUXUXUXUXUXUXUXUXUXUXUXUXUXUXUXUXUXUXUXUXUXUXUXUXUXUXUXUX",
"UXUXUXUXUXUXUXUXUXUXUXUXUXUXUXUXUXUXUXUXUXUXUXUXUXUXUXUXUXUXUXUXUXUXUXUXUXUXUXUXUXUXc.>X].bXLXKXcX Xn.g.a.i.I K x j c N l l 1 g f g 8 8 - 8 < < 8 1 w - < 7 < - * N MXA 8 < 6 w 4 4 - q - q - 4 - ; 4 4 - 6 8 w w GXUXUXUXUXUXUXUXUXUXUX-XPXQ.l.l.*.%.$.%.! R R Z R R N v R U 1.>X].y , 2 b z c f n l k g g 9 7 l 7 7 f f g j c C R  . .;.LXeXUXUXUXUXUXUX-XKXX.5.~ T j y f 1 1 f j h v ! ,.l.Y x y 1 < < % $     % % % : d b / o.<XKX3.F UXUXUX3.UXUXUXhXUXUXUXUXUXUXUXUXUXUXUXUXUXUXUXUXUXUXUXUXUXUXUXUXUXUXUXUXUXUXUXUXUXUXUX",
"UXUXUXUXUXUXUXUXUXUXUXUXUXUXUXUXUXUXUXUXUXUXUXUXUXUXUXUXUXUXUXUXUXUXUXUXUXUXUXUXUXUXO.=.=.vXKXKXCX+XA.g.h.] _ L c k c V j g g g 8 6 1 6 < j - < N 1 1 - - 6 ; *   8 NXNXy - ;       .   . . .   . @ . % ; - - - < A KXUXUXUXUXUXUXUXUXUXo nXPXQ.z.l.l.*.%.,.+.R R R O.Y R L ! ! ! %.<X2., v z h g Y k b wXy 6 g 9 g 9 7 8 f g j x V !  .| :.KX,XUXUXUXUXUX-XKX,.5.[ W v j 1 < < < < f j v K E h j < < * - - 2.;   % . = * > p I B <XKXr o UXUXUXUXUXUXUXUXMXUXUXUXUXUXUXUXUXUXUXUXUXUXUXUXUXUXUXUXUXUXUXUXUXUXUXUXUXUXUXUXUXUXUX",
"UXUXUXUXUXUXUXUXUXUXUXUXUXUXUXUXUXUXUXUXUXUXUXUXUXUXUXUXUXUXUXUXUXUXUXUXUXUXUXUXUXUX! =.1.dXJXKXZXOXC.A.h.i._ I v x V k j g g f 8 8 8 1 < < 1 8 g 1 w < < 1 1 * * N IX:.wXu ; $   % %         %       %   - ; ; < 1 :.KXUXUXUXUXUXUXUXUXUXr IXPXE.S.m.l.%.,.%.O.R R E $.R R R R ! qXK +.<X2.Y z j Y N h z f 9 8 7 1 1 7 f f f g j C T ~  .| H.LX!.UXUXUXUX-XKX .0.5._ V u u < < < - 1 1 y g C < < < $ -       = % .   = = 5 d U M <XKXH r UXUXUXUXUXUXUXUXUXUXUXUXUXUXUXUXUXUXUXUXUXUXUXUXUXUXUXUXUXUXUXUXUXUXUXUXUXUXUXUXUXUXUX",
"UXUXUXUXUXUXUXUXUXUXUXUXUXUXUXUXUXUXUXUXUXUXUXUXUXUXUXUXUXUXUXUXUXUXUXUXUXUXUXUXUXUXO.1.=.dXJXKXHXOXZ.n.g.u.#.! R c k Z V x y h f 8 < : 2 2 1 w N 1 8 < < 1 1 - * w IXUX=X>X2 - - ; ;   e       %   4     % - - < 8 1 =XLXUXUXUXUXUXUXUXUX# r LXGXE.S.x.m.p.%.,.O.+.O.wX$.L R #.K #.b v K x.1Xc.p R c d h 6 6 8 8 1.f 5 1 6 1 1 j j b V _ ,.| ,XKXI.UXUXUX-XKXX.m.7.) b u 1 2 - < & < * < < 8 % % % % $ B $ $   .   % = = 5 M U l <XKXr UXUXUXUXUXUXUXUXUXUXUXSXUXUXUXUXUXUXUXUXUXUXUXUXUXUXUXUXUXUXUXUXUXUXUXUXUXUXUXUXUXUXUXUX",
"UXUXUXUXUXUXUXUXUXUXUXUXUXUXUXUXUXUXUXUXUXUXUXUXUXUXUXUXUXUXUXUXUXUXUXUXUXUXUXUXUXUX#.1.=.bXHXKXJX9XZ.C.g.a.*.I K v c k c c k j f 8 8 8 - < < 8 N g w < 6 8 < 2 f Z IXUXUXeX2.< - % $       % .   .     F   ; 4 - - 8 1 nXGXUXUXUXUXUXUXUXUXq J KXMX3XS.N.l.l.l.%.$.#.#.! ! c.+.m ! b c c ` P 1.1Xc.x f v 7 7 7 7 > : 6 > 6 1 1 g f k V Y ` 5.| 1XLXUXUXUX-XKX}  .5.Q C s s - ; ; ; % ; 2 - 4 - $             . . .     = 5 d m m ].KXr UXUXUXUXUXUXUXUXUXUXUXUXUXUXUXUXUXUXUXUXUXUXUXUXUXUXUXUXUXUXUXUXUXUXUXUXUXUXUXUXUXUXUXUX",
"UXUXUXUXUXUXUXUXUXUXUXUXUXUXUXUXUXUXUXUXUXUXUXUXUXUXUXUXUXUXUXUXUXUXUXUXUXUXUXUXUXUX*.=.x.kXLXKXJXaX|.Z.n.h.l._ ! Y V C V c k 3.1 8 6 6 < < 8 8 8 C 8 - 1 1 1 Z ;.A NXUXUXUXmX,.2 - - $ . ;   ; % 4 %         - - ; < 8 s NXUXUXUXUXUXUXUXUXUX+ >.KXNX3XD.S.A.l.l.%.$.$.$.O.,.$.L ! v c c #.! ! P 1.wX2.R f 6 8 7 6 7 > 1 : > f 1 f 8 j V E ,.v.} eXMXUXUXH DX1XE ~ W C s 2 ; ; ; $ ; ; $ ; -     . . . .   .   X X X % = : d U G <XLX_.3.UXUXUXUXUXUXUXUXUXUXUXUXUXUXUXUXUXUXUXUXUXUXUXUXUXUXUXUXUXUXUXUXUXUXUXUXUXUXUXUXUXUXUX",
"UXUXUXUXUXUXUXUXUXUXUXUXUXUXUXUXUXUXUXUXUXUXUXUXUXUXUXUXUXUXUXUXUXUXUXUXUXUXUXUXUXUX*.1.1.kXKXKXKXgX XS.n.h.i.#.R W Z Z g N g j g 8 1 8 < < 7 8 8 1 8 8 8 1 1 N g } DXUXUXUXUXSXT 2 ; $       $ . 9       % % %   % - < 1 A LXUXUXUXUXUXUXUXUXO + :XKXMXQ.D.S.m.m.l.l.%.$.$.$.$.R O.n Z Z ` ! R L ! ! 2.mX2.f 9 6 8 6 6 : < < 6 6 1 1 g N Y ` mX .} NXnXUXUXr IXG.A Q a s 2 2 ; ;   $ $   ;         . . . . .   X   . = = 5 d M l <XJX# UXUXUXUXUXUXUXUXUXUXUXUXUXUXUXUXUXUXUXUXUXUXUXUXUXUXUXUXUXUXUXUXUXUXUXUXUXUXUXUXUXUXUXUX",
"UXUXUXUXUXUXUXUXUXUXUXUXUXUXUXUXUXUXUXUXUXUXUXUXUXUXUXUXUXUXUXUXUXUXUXUXUXUXUXUXUX1.! 1._.xXKXKXKXgXOXZ.Z.v.s._ ! Y Y x C g 8 Z g 1 8 < - 8 < g 8 1 8 < 1 1 1 g 1 S DXUXUXUXUXH FXi - % ; %       4           % % $ ; - 1 u ;.KXUXUXUXUXUXUXUXUXr :.1XKXMX3XD.S.C.m.l.i.,.$.%.$.! O.L Z Y O.! R ! ! R R K 2.wX,.y 7 7 8 6 5 1 : < 6 1 8 g k T _ i. .} LXeXUXo D PX<.UXA s 2 2 ; ;   ;         . . . . .   . .   X .     % : d p m =XLX>.>.UXUXUXUXUXLXPXUXUXUXUXUXUXUXUXUXUXUXUXUXUXUXUXUXUXUXUXUXUXUXUXUXUXUXUXUXUXUXUXUXUXUXUX",
"UXUXUXUXUXUXUXUXUXUXUXUXUXUXUXUXUXUXUXUXUXUXUXUXUXUXUXUXUXUXUXUXUXUXUXUXUXUXUXUX1.! ! 1.*XCXKXKXKXlXOXZ.A.h.s.' _ L Y C j j g 1 g u 8 8 < 8 < g 1 8 w < 8 < 1 N N A DXUXUXUXUXUX>.mXt $ & $ $                     $ ; - - 8 u 2.KXUXUXUXUXUXUXUXr r A nXKXNX3XE.D.C.x.l.l.%.x.*.#.#.R K L ` ! ! ! ! R v c R K 1.>X;.t 9 5 : 7 : : < 6 7 7 g x C ! ] ) :.LX-Xo o J LXUXUXa u 2 2 ; 3 3         . . . . . X . . .     = % % 5 d m G =XLX# UXUXUXUXUXUX:XUXUXUXUXUXUXUXUXUXUXUXUXUXUXUXUXUXUXUXUXUXUXUXUXUXUXUXUXUXUXUXUXUXUXUXUXUX",
"UXUXUXUXUXUXUXUXUXUXUXUXUXUXUXUXUXUXUXUXUXUXUXUXUXUXUXUXUXUXUXUXUXUXUXUXUXUXUXUXUX! ! =.@XCXKXKXKXzXOXD.n.m.i.%.! W K V j C g 8 1 8 8 8 < < g u 8 y 1 < 8 g 2 ;.A A DXUXUXUXUXUXUX=XwX, 2 $ $ $             .     $   % - - N E ,XNXUXUXUXUXUXUXUX# + H DXKXmXE.E.D.S.m.l.l.l.l.$.$.! R R #.! O.R ! R c k k M h x 1.>X;.t 6 5 6 g < 6 1 7 1 g C C ! ] ) >.KXH.# O >.LXUXUXu 2 2 ; ;   ;   %     . . . . . . . . . . . % % 5 d M m =XLXr UXUXUXUXUXUXUXUXUXUXUXUXUXUXUXUXUXUXUXUXUXUXUXUXUXUXUXUXUXUXUXUXUXUXUXUXUXUXUXUXUXUXUXUX",
"UXUXUXUXUXUXUXUXUXUXUXUXUXUXUXUXUXUXUXUXUXUXUXUXUXUXUXUXUXUXUXUXUXUXUXUXUXUXUXUXO.! $.1.@XAXKXKXKXBXOXZ.A.h.s.5._ ! R v A k C g 1 1 N g < 1 8 w N 2 8 8 g u j Y N } PXUXUXUXUXUXUXUXbX].2 ; ; $ % ;   . @     % $     - ; ; < w C mXUXUXUXUXUXUXUXUXq w ;.PXKXyX3XD.D.C.m.x.x.l.l.*.O.! ! ,.! $.O.! R n V c k k h k > 1.>X+.: 5 5 6 6 < 6 1 1 j C T ~ ] Q =XKXD # O ;XDXUXN s 2 2 ; ; ;       . . . . . . . . .         * 5 d M m _.LX# UXUXUXUXUXUXUXUXUXUXUXUXUXUXUXUXUXUXUXUXUXUXUXUXUXUXUXUXUXUXUXUXUXUXUXUXUXUXUXUXUXUXUXUX",
"UXUXUXUXUXUXUXUXUXUXUXUXUXUXUXUXUXUXUXUXUXUXUXUXUXUXUXUXUXUXUXUXUXUXUXUXUXUXUXUXUX$.$.*XdXHXKXKXKXCXOXZ.n.m.a.i._ ! R R V k g g N 1 1 C g 8 j 8 2 g g 6 g g 8 x N } DXUXUXUXUXUXUXUXUXDX1.; ; ; %     e   . .         %   ; - 1 1 N GXUXUXUXUXUXUXUXUX+ w ;.LXKXyX3XD.D.S.n.C.x.l.l.$.O.! ,.#.$.! #.! R c k M c k k l l t 3.>X;.> 6 < 6 < 6 1 g g C T ~  .^ 1XGXD O o nXNXUXs s 8 ; ; ; $       . . . . . . . . . .   = * 0 5 l B =XLXr UXUXUXUXUXUXUXUXUXUXUXUXUXUXUXUXUXUXUXUXUXUXUXUXUXUXUXUXUXUXUXUXUXUXUXUXUXUXUXUXUXUXUXUX",
"UXUXUXUXUXUXUXUXUXUXUXUXUXUXUXUXUXUXUXUXUXUXUXUXUXUXUXUXUXUXUXUXUXUXUXUXUXUXUXUXR O.1.@XzXKXKXKXKXCX9XZ.|.g.a.' ` ! ! Y V j g j g i y K y g g N 8 1 y < N j g C N ;.DXUXUXUXUXUXUXUXUXUXFX+.; ; %         . . .     @ %   - - 4 w 1 A LXUXUXUXUXUXUXUXUXq A >.KXKXyX2XD.D.D.S.A.l.l.%.$.$.,.#.%.*.c.,.L n c M h M l M l l 9 7 1.>X+.: - 4 8 8 1 1 N C Y `  .^ nXIXUXUX# PXUXUXg 1 2 - ;       X . . . . % . . . . . % % % = 5 d l =XPX@ UXUXUXUXUXUXUXUXUXUXUXUXUXUXUXUXUXUXUXUXUXUXUXUXUXUXUXUXUXUXUXUXUXUXUXUXUXUXUXUXUXUXUXUX",
"UXUXUXUXUXUXUXUXUXUXUXUXUXUXUXUXUXUXUXUXUXUXUXUXUXUXUXUXUXUXUXUXUXUXUXUXUXUXUXUX#.&.=.bXJXHXKXKXKXlXOXD.C.h.6.u._ ! ! T C C j j j u 2.=Xg 1 u g g g j < C k j c i ;.DXUXUXUXUXUXUXUXUXUXJ HXY ; - - -   %   . X   . . . $   - - < < N ;.KXUXUXUXUXUXUXUXO r A =XKXKXyX2XD.D.D.S.x.l.l.i.%.p.%.,.%.].c.L R n n m M d h M l l 9 9 d 3.>X+.* < 6 1 1 1 u a T ) ) } DX;XUXUXD LXUXUXl 1 < < A $     . X . . . . . . % . . . * : 5 d l =XLX+ UXUXUXUXUXUXUXUXUXUXUXUXUXUXUXUXUXUXUXUXUXUXUXUXUXUXUXUXUXUXUXUXUXUXUXUXUXUXUXUXUXUXUXUX",
"UXUXUXUXUXUXUXUXUXUXUXUXUXUXUXUXUXUXUXUXUXUXUXUXUXUXUXUXUXUXUXUXUXUXUXUXUXUXUXUX&.=.<XJXlXVXKXKXKXgX.XZ.C.h.7.' _ ! T R V C Y j C u x C j j y g 1 C A N C j j x N :.DXUXUXUXUXUXUXUXUXUXUX>.FXj % - % %     . $         @ 4 ; ; - < w 1 G.JXUXUXUXUXUXUXUX@ w A eXKXGX6X2X|.D.D.A.C.x.l.p.l.l.p.%.%._ R L n L m L +.c m k k l l d l d 3.>X;.> 8 8 g 1 N C R  .) } LX-XUXUXJ KXUXUX1 6 ; % $     . . . . . . . . . . % % % : 5 d B =XLX# UXUXUXUXUXUXUXUXUXUXUXUXUXUXUXUXUXUXUXUXUXUXUXUXUXUXUXUXUXUXUXUXUXUXUXUXUXUXUXUXUXUXUXUX",
"UXUXUXUXUXUXUXUXUXUXUXUXUXUXUXUXUXUXUXUXUXUXUXUXUXUXUXUXUXUXUXUXUXUXUXUXUXUXUX_ #.hXKX9XpXxXKXKXJXaX.XZ.A.g.i.5._ ! R Y V Y V V j C C u V j j j N u Z g N C C x C <.DXUXUXUXUXUXUXUXUXUXUXUX_.bXy N * %   % $   .     4     4   - - & w 8 1XUXUXUXUXUXUXUXUX+ w +.nXKXFX6X2X|.D.D.C.m.m.l.x.l.l.%.%.#.! R R Z L n n n M m k l l l l l l f 3.>X+.y 1 1 N a C V ` ) :.KX>.UX# =XKXUXUX1 ; % % ; $   . . . % % . % % % % % * * 5 d l =XLXUXUXUXUXUXUXUXUXUXUXUXUXUXUXUXUXUXUXUXUXUXUXUXUXUXUXUXUXUXUXUXUXUXUXUXUXUXUXUXUXUXUXUXUXUX",
"UXUXUXUXUXUXUXUXUXUXUXUXUXUXUXUXUXUXUXUXUXUXUXUXUXUXUXUXUXUXUXUXUXUXUXUXUXUXUX=.hXLX.XZ.+XkXKXKXFXpX[.C.n.h.i.] _ ! W Y T v Y C C g j C x i 1 j j g x N c C V x T <.DXUXUXUXUXUXUXUXUXUXUXUXUXbXqXt : = %   % . . . % .   4   4 - % 4 4 8 g nXUXUXUXUXUXUXUXUXr B ;.DXKXFX6X2X|.D.D.C.C.m.A.m.l.l.p.%._ ! L R L L n n m k l M l l l l l l g 1 1.>XE y u u C C T ) Q H.LXUXUX# nXLXUX8 1 - ; * $ $ $ %       % . % . % % 0 0 _.d l =XLXUXUXUXUXUXUXUXUXUXUXUXUXUXUXUXUXUXUXUXUXUXUXUXUXUXUXUXUXUXUXUXUXUXUXUXUXUXUXUXUXUXUXUXUXUX",
"UXUXUXUXUXUXUXUXUXUXUXUXUXUXUXUXUXUXUXUXUXUXUXUXUXUXUXUXUXUXUXUXUXUXUXUXUXUXUXmXFX[.Z.Z.OXdXJXKXAX9X|.n.m.g.i.' _ ~ W ! T V V C C C C j C j u C N j C j C c +.V ^ 2.DXUXUXUXUXUXUXUXUXUXUXUXUXUXnX].> % * %   % % % . .           - - 4 8 8 g GXUXUXUXUXUXUXUX# e w ;.LXKXFXwX3X|.|.S.C.S.S.x.x.p.l.%.#.#.! O.L L L L n m M l M l l l l l g k l x 1.>X;.t j C C ^ ) T -XLXUXUXo DXUXUX1 < , - & & $ % % % % %   % % % % % * 5 d G _.LXUXUXUXUXUXUXUXUXUXUXUXUXUXUXUXUXUXUXUXUXUXUXUXUXUXUXUXUXUXUXUXUXUXUXUXUXUXUXUXUXUXUXUXUXUX",
"UXUXUXUXUXUXUXUXUXUXUXUXUXUXUXUXUXUXUXUXUXUXUXUXUXUXUXUXUXUXUXUXUXUXUXUXUXUXAXSX[.A.A.A. X$XHXKXBX7XC.C.g.h.a.] _ ` 1.W T Y V C Y C C x x x i j x x C x C x x Y ^ 2.DXUXUXUXUXUXUXUXUXUXUXUXUXUXUXSX1.t * * $ % % . % % %   4   % - % 6 8 6 9 N LXUXUXUXUXUXUXUXO w A 3.LXKXFX8X5X2XD.Z.S.C.A.m.l.l.p.%.#.O.O.! o.R L n n n M l l l l l l l l k l k p ,.>X;.u C C V ) ^ eXNXUXUX# LXUXUXy < < * * & % % % %   % % e % * * * 5 5 l :XPXUXUXUXUXUXUXUXUXUXUXUXUXUXUXUXUXUXUXUXUXUXUXUXUXUXUXUXUXUXUXUXUXUXUXUXUXUXUXUXUXUXUXUXUXUX",
"UXUXUXUXUXUXUXUXUXUXUXUXUXUXUXUXUXUXUXUXUXUXUXUXUXUXUXUXUXUXUXUXUXUXUXUXUXLXSXm.g.g.g.g.[.oXJXKXBXOXD.C.m.v.i.%.` W ! ^ T Y V Y V V Y C C C j x C V Y C v C Y T E c.IXUXUXUXUXUXUXUXUXUXUXUXUXUXUXG ZX@.5 : % % % @ % % 4 % % 4 4 % - 4 - 4 8 8 ;.FXUXUXUXUXUXUXUXq r A ].KXKXMX8X5X2XD.D.D.C.n.A.A.l.i.*.#.#.#.O.L L L n n m m M M B l k l l k f j l l j ,.>X;.i C ^ ) ^ nXeXUXUXH KXUXUXf 1 : : * * % % % % % % F   * % 0 0 5 9 _.PXUXUXUXUXUXUXUXUXUXUXUXUXUXUXUXUXUXUXUXUXUXUXUXUXUXUXUXKXUXUXUXUXUXUXUXUXUXUXUXUXUXUXUXUXUX",
"UXUXUXUXUXUXUXUXUXUXUXUXUXUXUXUXUXUXUXUXUXUXUXUXUXUXUXUXUXUXUXUXUXUXUXUXKXSXg.7.h.h.h.g.}.XXJXKXhX|.C.C.m.h.5.] _ ` W ! T Y Y C V T ^ V V C ,.Y V V V C ! V C T Q I.IXUXUXUXUXUXUXUXUXUXUXUXUXUXUXUX3.CXI 5 7 < * * 4 % % % 4 4 % % e B 4 4 4 4 l 2.IXUXUXUXUXUXUX# q e R -XKXKXmX8X2XD.D.D.S.C.m.C.l.p.%.%.*.$.! ! I L R n n n n m m M k k l l l l k k k k z 1.>X~ i Q ) ^ DXeXUXUXJ KXUXUXg 8 5 5 * * * % % % % % % % % % 0 5 9 >.LXUXUXUXUXUXUXUXUXUXUXUXUXUXUXUXUXUXUXUXUXUXUXUXUXUXUXUXPXUXUXUXUXUXUXUXUXUXUXUXUXUXUXUXUXUX",
"UXUXUXUXUXUXUXUXUXUXUXUXUXUXUXUXUXUXUXUXUXUXUXUXUXUXUXUXUXUXUXUXUXUXUXKXmXh.6.' u.a.h.7.A.}.JXKXhX|.C.m.m.a.%.] _ ` W T ~ T E Y V Y Y V Y Y T T V V ^ V C V T ! ] >XDXUXUXUXUXUXUXUXUXUXUXUXUXUXUXUXUX_.zX/ m : 0 % % 4 4 4 4 4 4 % 0 0 4 4 4 4 N y <XUXUXUXUXUXUXUX+ + B O.1XKXKXyX5X2X|.D.D.C.C.C.A.l.l.p.*.%.#.O.O.o.O.R o.Z R m m m m k k m M M c M m Z C N b 2.>X,.) ) } KX-XUXUX-XKXUXUXh 5 5 0 * 0 * * % % % % % % 0 0 5 9 >.LXUXUXUXUXUXUXUXUXUXUXUXUXUXUXUXUXUXUXUXUXUXUXUXUXUXUXUXUXUXUXUXUXUXUXUXUXUXUXUXUXUXUXUXUXUX",
"UXUXUXUXUXUXUXUXUXUXUXUXUXUXUXUXUXUXUXUXUXUXUXUXUXUXUXUXUXUXUXUXUXUXKXmXh.6._ ! @.' 6.i.A.j.JXKXwX|.C.n.v.i.5.' ` ! ! W E T R T T T R T T T T Y Y T Y Y Y T T ! ] >XDXUXUXUXUXUXUXUXUXUXUXUXUXUXUXUXUXUX].vXp > 6 4 4 4 4 % 0 4 4 4 % 0 4 4 4 6 8 w g nXUXUXUXUXUXUXUXO q B E nXKXGXwX5X2X2XD.D.C.Z.m.A.p.p.p.i.*.$.#.! O.R R o.o.L n n m m m M M c h k N m N c Z C T 2.>Xc.) <.LXG.UXUXnXGXUXc d 7 5 0 5 * % * 0 % 0 % % 0 0 0 9 3.LXUXUXUXUXUXUXUXUXUXUXUXUXUXUXUXUXUXUXUXUXUXUXUXUXUXUXUXUXUXUXUXUXUXUXUXUXUXUXUXUXUXUXUXUXUX",
"UXUXUXUXUXUXUXUXUXUXUXUXUXUXUXUXUXUXUXUXUXUXUXUXUXUXUXUXUXUXUXUXUXKXhXh.6.6.! I _ _ 6.6.g.j.HXKXwX|.n.n.v.l.i.] [ ` W Q W T T T ;.T T W ! Y Y T R Y ~ R Y T ,.! ] ,XPXUXUXUXUXUXUXUXUXUXUXUXUXUXUXUXUXUXO vX+Xp 5 % 4 4 9 - 4 4 % 4 % 0 4 4 4 4 4 1 f g FXUXUXUXUXUXUXUXO q Z +.SXKXFXwX5X7X|..XD.D.C.m.m.x.l.p.%.*.#.O.O.! o.L R R n n n m m m m m M M M k c M c C v V W z.>Xq.G.KXUXUXq DXUXUXc M 5 5 0 * 0 * 0 % % % % % 0 0 l UXLXUXUXUXUXUXUXUXUXUXUXUXUXUXUXUXUXUXUXUXUXUXUXUXUXUXUXUXUXUXUXUXUXUXUXUXUXUXUXUXUXUXUXUXUXUX",
"UXUXUXUXUXUXUXUXUXUXUXUXUXUXUXUXUXUXKXPXUXUXUXUXUXUXUXUXUXUXUXfXKXhXh.6.] _ ! Y _ W ' 6.h.g.FXKX8XD.n.b.v.0.5.] ` Q ! ! W T ! ^ T T T R ! W >X` T R T T T Y W W  .,XPXUXUXUXUXUXUXUXUXUXUXUXUXUXUXUXUXUXUXe BX@Xz 9 5 0 9 0 0 * % 4 4 4 4 4 w 9 6 6 9 8 Z LXUXUXUXUXUXUXUX+ q Z +.PXKXFXwX8X4X2X|.D.Z.C.m.A.m.x.l.&.*.*.#.O.O.! R L L L L n m m m n m M M c c M c Z k V V W ` c.<.eXGXUXUXD KXUXUXm k 7 5 5 0 * % 0 % % 0 % 0 0 9 UXPXUXUXUXUXUXUXUXUXUXUXUXUXUXUXUXUXUXUXUXUXUXUXUXUXUXUXUXUXUXUXUXUXUXUXUXUXUXUXUXUXUXUXUXUXUX",
"UXUXUXUXUXUXUXUXUXUXUXUXUXUXUXUXUXUX:XUXUXUXUXUXUXUXUXUXUXUXUXKXwXs.l.%.%.$.! ! ! ! _ ' h.g.HXKX6XD.n.n.v.a.i.] ` ` W W ! W W T T W T W T W ,._ ! T ! T Y R W ` l.6XGXUXUXUXUXUXUXUXUXUXUXUXUXUXUXUXUXUXUXUX+.AXd.z l 9 0 0 - 0 4 4 4 0 4 4 0 6 - 6 6 6 g ;.LXUXUXUXUXUXUXUXO w Z 3.LXKXMX8X8X4X|.|.D.Z.Z.m.].l.l.x.%.*.$.#.O.#.O.O.R R R R m n n Z m M c m c m c V x C Y ;.~ Q >X} NXNXUXUXJ KXUXUXM h d 5 0 5 0 * % % 0 0 0 0 9 UXDXUXUXUXUXUXUXUXUXUXUXUXUXUXUXUXUXUXUXUXUXUXUXUXUXUXUXUXUXUXUXUXUXUXUXUXUXUXUXUXUXUXUXUXUXUX",
"UXUXUXUXUXUXUXUXUXUXUXUXUXUXUXUXUXUXUXUXUXUXUXUXUXUXUXUXUXUXKXqXs.` ! R R K Z j V n R _ 6.g.HXKXwXD.n.n.v.0.] ] ] ` ) _ Q ~ W W ^ W W ^ W ~ ` ~ ! W ! c.W R ! ` 9.6XPXUXUXUXUXUXUXUXUXUXUXUXUXUXUXUXUXUXUXUXUX*XAXf.M d 0 6 0 - 4 - 4 0 6 0 6 0 4 6 - 6 8 f _.MXUXUXUXUXUXUXo @ w E ].KXKXmX0X8X4X4X|.[.C.A.x.A.x.s.p.i.*.*.*.%.#.O.O.o.o.R n n n L m n m c v m m k c c j V R ~ ] E.<.GXeXUXq :XKXUXUXb d l d 5 0 0 0 * 0 0 0 0 9 UXDXUXUXUXUXUXUXUXUXUXUXUXUXUXUXUXUXUXUXUXUXUXUXUXUXUXUXUXUXUXUXUXUXUXUXUXUXUXUXUXUXUXUXUXUXUX",
"UXUXUXUXUXUXUXUXUXUXUXUXUXUXUXUXUXUXUXUXUXUXUXUXUXUXUXUXbXKX0XA.i.%.` $.! ! W R R W ! ' s.g.FXKX6XD.n.b.m.v.l.] ] [ _ ` ) W _ T W ~ W _ W ~ ~ W ! ! ` W W ~ ` ` l.1XGXUXUXUXUXUXUXUXUXUXUXUXUXUXUXUXUXUXUXUXUXq @XHX@.m f 0 0 0 4 4 4 4 6 4 0 6 4 - 9 6 6 k l <XIXUXUXUXUXUXUXO q B R =XKXKXBXwX8X7X2X.XD.C.C.A.x.x.x.p.l.&.1.*.#.#.O.O.O.R R R R R R Z n C +.c c k c c k V V E ~ ] >XH.KX,XUXr ;XKXUXv M l d 5 5 5 0 0 0 0 0 9 9 UXIXUXUXUXUXUXUXUXUXUXUXUXUXUXUXUXUXUXUXUXUXUXUXUXUXUXUXUXUXUXUXUXUXUXUXUXUXUXUXUXUXUXUXUXUXUX",
"UXUXUXUXUXUXUXUXUXUXUXUXUXUXUXUXUXUXKXKXUXUXUXUXUXUXUXvXKX7Xh.] [ W ! T V x j u j b T ! a.g.FXLX6XS.N.b.b.i.0.5.] ] ] ] ] ) ) ) W W W W ) ! ~ _ W ` _ W ! ) ` %.l.wXGXUXUXUXUXUXUXUXUXUXUXUXUXUXUXUXUXUXUXUXUXUXe dXlX( M 5 5 0 4 0 6 5 9 0 0 0 0 0 9 0 9 l l l mXUXUXUXUXUXUXUX+ q B Z nXLXJXhX8X8X4X.XD.Z.S.Z.n.x.x.x.p.l.x.*.*.%.#.O.O.O.O.R R o.R %.R R Z m c c c c k Z V Y R ` ,.I.G.KXG.r w IXMXUXv M h l 5 5 0 5 0 5 9 0 9 UXIXUXUXUXUXUXUXUXUXUXUXUXUXUXUXUXUXUXUXUXUXUXUXUXUXUXUXUXUXUXUXUXUXUXUXUXUXUXUXUXUXUXUXUXUXUX",
"UXUXUXUXUXUXUXUXUXUXUXUXUXUXUXUXUXUXUXUXUXUXUXUXUXUXnXLX2Xm.l.l.%.%.$.` ~ ~ E R Y T ! ' s.j.HXJXQ.D.N.n.b.v.v.0.9.9.] ] ) ] [ ) ) W ` ` W Q ) ! _ ) ` ~ _ ) `  .z.yXLXw UXUXUXUXUXUXUXUXUXUXUXUXUXUXUXUXUXUXUXUXUXF cXdX@.M l 5 6 0 6 5 5 0 0 0 0 0 5 9 5 9 G m c GXUXUXUXUXUXUXUXO q B +.SXKXJXgXwX7X7X|.[.[.S.A.A.A.x.x.x.&.p.*.*.$.#.#.O.! R O.R O.MX#.R K Z n m Z c c V V Z R ! ) l.z.,XKX:.A w DXwXUXL n l l d 5 5 5 5 0 0 9 UXIXUXUXUXUXUXUXUXUXUXUXUXUXUXUXUXUXUXUXUXUXUXUXUXUXUXUXUXUXUXUXUXUXUXUXUXUXUXUXUXUXUXUXUXUXUX",
"UXUXUXUXUXUXUXUXUXUXUXUXUXUXUXUXUXUXUXUXUXUXUXUXUXIXKXD.5.] _ _ W W Y C x C 8 1 N j V W 5.h.FXGX6XD.M.n.b.v.0.l.0.5.9.5.[ [ [ ) [ ` ) [ ` ` ) ) ` [ ,._ ` ` ] 9.0.yXLXw UXUXUXUXUXUXUXUXUXUXUXUXUXUXUXUXUXUXUXUXUXO F ZX{.U d d 5 5 9 9 9 0 0 0 0 0 9 0 9 5 G l k +.JXUXUXUXUXUXUXUXO e B -.FXKXSXfX0X7XOX.X|.Z.Z.C.C.x.x.f.l.p.,.p.%.*.#.O.O.O.O.! O.#.O.R R Z m Z n m Z Z Z V T E ~ ` D.z.eXLXS w H LXUXUXL b M d 5 l l 0 9 l 9 UXIXUXUXUXUXUXUXUXUXUXUXUXUXUXUXUXUXUXUXUXUXUXUXUXUXUXUXUXUXUXUXUXUXUXUXUXUXUXUXUXUXUXUXUXUXUX",
"UXUXUXUXUXUXUXUXUXUXUXUXUXUXUXUXUXUXUXUXUXUXUXUXFXKX|.C.m.l.l.%.%.$.~ ~ ! R Y E Y Y W _ 6.g.AXGXQ.B.N.M.M.r.v.v.9.0.5. .5.9.[ [ ) ) ] [ ` ] _ ) _ [ ,.] ` ` ] l.v.mXLXw UXUXUXUXUXUXUXUXUXUXUXUXUXUXUXUXUXUXUXUXUXUXo -.HX'.U d l 7 5 5 0 0 l 5 0 9 9 0 5 9 5 l l g ,.LXUXUXUXUXUXUXUXO B F ;.PXJXAXfX0X7XOX.X[..XZ.A.A.A.A.f.x.p.p.p.*.*.#.#.#.O.O.O.R E o.R R R L R n n R K R Y Y ! ~ ] E.e.NXMXS r J KXUXUXL m M l d l l l 9 9 UXmXUXUXUXUXUXUXUXUXUXUXUXUXUXUXUXUXUXUXUXUXUXUXUXUXUXUXUXUXUXUXUXUXUXUXUXUXUXUXUXUXUXUXUXUXUX",
"UXUXUXUXUXUXUXUXUXUXUXUXUXUXUXUXUXUXUXUXUXUXUXLXLXD.m.v.l.` ` ! W W Y Y T C C C C C V T ' 7.SXGX3XB.N.N.b.b.V.V.v.0.0.9.9.l.5.5.] ' [ 5.[ ) ) [ ) [ ` ` ` ]  .l.V.mXLXS UXUXUXUXUXUXUXUXUXUXUXUXUXUXUXUXUXUXUXUXUXUXUXG *XJXf.o.M d 5 9 5 5 0 0 9 0 0 5 0 9 9 5 9 l c =XSXUXUXUXUXUXUXo q q B 1.KXKXBXsX9X7XOX.X.XZ.Z.Z.Z.x.A.x.x.p.p.p.&.*.*.*.#.#.O.O.O.R o.R R R L L L R R L R R ~ ~ $.l.E.<.PXeXA r >.JXUXL L n M M M l d M l UXnXUXUXUXUXUXUXUXUXUXUXUXUXUXUXUXUXUXUXUXUXUXUXUXUXUXUXUXUXUXUXUXUXUXUXUXUXUXUXUXUXUXUXUXUXUX",
"UXUXUXUXUXUXUXUXUXUXUXUXUXUXUXUXUXUXUXUXUXUXKXGXE.S.n.m.v.l.,.l.,.%.` $.E E Z Z C Z Y W 6.7.FXGX6XD.B.D.M.b.b.r.v.r.r.6.0.v.0.5.5.5.0.9.] ] [ [ [ ] [ ] 5.,.,.l.V.NXGXA UXUXUXUXUXUXUXUXUXUXUXUXUXUXUXUXUXUXUXUXUXUXUXUX@ bXVX@.L m l 5 9 5 9 5 5 9 0 9 0 9 9 9 9 9 l p 1XUXUXUXUXUXUXUXq @ e F _.KXJXCXaX9X7XOX.X.X[..XZ.x.A.x.A.f.l.f.p.p.*.*.*.*.#.O.#.O.O.O.o.! O.R O.R R R R R ! O.` ] l.E.z.LXeXw r -XGXUX/ I n b M M M M M UXwXUXUXUXUXUXUXUXUXUXUXUXUXUXUXUXUXUXUXUXUXUXUXUXUXUXUXUXUXUXUXUXUXUXUXUXUXUXUXUXUXUXUXUXUXUX",
"UXUXUXUXUXUXUXUXUXUXUXUXUXUXUXUXUXUXUXUXUXKXMXE.n.m.v.l.5.,.' ` ` ~ W R T Y x j x C K W [ 7.FXGX6XU.B.B.M.b.b.r.r.r.r.r.0.0.0.0.0.5.5.[ 5.5.] 9.] ] [ ] 5.l.9.v.M.uXLXA UXUXUXUXUXUXUXUXUXUXUXUXUXUXUXUXUXUXUXUXUXUXUXUXUXG bXcX@.U M d l 5 5 5 9 5 0 5 9 0 l 0 9 l f l M mXUXUXUXUXUXUXUXo @ e n bXKXJXxXdXpX9X7X.X.X.X[.Z.A.A.A.x.A.x.d.l.p.p.*.*.*.#.#.#.O.O.o.O.O.R R o.R ! R ! R ~ O.$.,.l.E.H.KX-Xw q nXmXUX! o.U m m n b M UX<XUXUXUXUXUXUXUXUXUXUXUXUXUXUXUXUXUXUXUXUXUXUXUXUXUXUXUXUXUXUXUXUXUXUXUXUXUXUXUXUXUXUXUXUXUX",
"UXUXUXUXUXUXUXUXUXUXUXUXUXUXUXUXUXUXUXUXKXyXE.N.n.n.v.v.i.5.] [ [ ! ^ Y Y T C C N i v W 4.7.MXGXW.E.B.B.M.M.M.b.t.b.r.r.r.0.0.0.5.9.5.5.9.5.5.[ ] z.5.] 5.l.v.M.V.mXLXA UXUXUXUXUXUXUXUXUXUXUXUXUXUXUXUXUXUXUXUXUXUXUXUXUXUXe SXdX/ m M l 9 l 0 9 9 l 5 l 0 0 9 9 9 l l k R FXUXUXUXUXUXUXUXO @ l -.mXKXHXlXsXpXOXOXOX.X.X[.Z.Z.A.A.A.j.x.h.x.f.p.p.&.&.*.#.#.#.#.#.O.O.! O.o.! O.! R O._ ` ] %.S.E.I.KX>.r r IX<XUXI U o.m m m m UX<XUXUXUXUXUXUXUXUXUXUXUXUXUXUXUXUXUXUXUXUXUXUXUXUXUXUXUXUXUXUXUXUXUXUXUXUXUXUXUXUXUXUXUXUXUX",
"UXUXUXUXUXUXUXUXUXUXUXUXUXUXUXUXUXUXUXKXMXQ.E.B.N.n.m.v.i.i.] ` _ W W T Y Y C C j C C W [ 7.MXGX6XY.B.V.M.B.M.r.b.M.r.r.r.0.0.0.0.0.5.9.5.0.5.5.5.9.9.9.l.v.m.B.E.MXLXA UXUXUXUXUXUXUXUXUXUXUXUXUXUXUXUXUXUXUXUXUXUXUXUXUXUXUXG SX{.I M l l l d 9 9 l 0 9 B l 9 9 9 9 l l M o.HXUXUXUXUXUXUXUXO e n o.DXJXAXxXsXpX9XOXOX.X[.Z.[.[.Z.x.Z.x.x.x.x.d.p.f.&.&.&.*.*.#.#.#.O.O.o.O.O.! O.O.O.#.` $.%.5.E.z.1XGXS e r PXUXUXI I L L m n UX<XUXUXUXUXUXUXUXUXUXUXUXUXUXUXUXUXUXUXUXUXUXUXUXUXUXUXUXUXUXUXUXUXUXUXUXUXUXUXUXUXUXUXUXUXUX",
"UXUXUXUXUXUXUXUXUXUXUXUXUXUXUXUXUXUXLXeX).G.<.<.,.,.} E Z A A Z A A UXUXUXUXUXUXUXUXUXUXZ ) FXGXW.E.U.B.B.V.M.M.M.b.t.r.V.r.r.v.0.r.0.7.9.5.9.9.9.5.9.v.D.E.M.D.E.MXPX} A UXUXUXUXUXUXUXUXUXUXUXUXUXUXUXUXUXUXUXUXUXUXUXUXUXUXUXG VX'.&.m M l F l l 9 l 9 l 9 l 9 l 9 l l M v 3.HXUXUXUXUXUXUXUX@ e B -.DXKXVXjXsXpX9XOXOX.X X X[.[.Z.}.}.A.A.j.x.f.p.p.p.x.p.&.-.*.#.#.#.O.#.@.#.#.#.O.$.O.#.*.%.l.2Xz.nXmXA r H KXUX! I I L o.n UX<XUXUXUXUXUXUXUXUXUXUXUXUXUXUXUXUXUXUXUXUXUXUXUXUXUXUXUXUXUXUXUXUXUXUXUXUXUXUXUXUXUXUXUXUXUX",
"UXUXUXUXUXUXUXUXUXUXUXUXUXUXUXUXUXUXUX# o o o o o o UXUXUXUXUXUXUXUXUXUXUXUXUXUXUXUXUXUXUXN DXGX6XQ.E.U.U.U.V.M.M.b.b.r.M.r.r.r.r.r.r.0.0.0.0.0.l.0.l.0.m.b.N.B.Q.PXLX<.2.UXUXUXUXUXUXUXUXUXUXUXUXUXUXUXUXUXUXUXUXUXUXUXUXUXUXUXUX3.AXf.I m b M l l l l 9 9 9 9 9 l 5 l 9 l M b ].SXUXUXUXUXUXUXo @ e o.1.LXKXVXxXdXpXOXOXOXOX X.X[.[.[.[.Z.}.}.}.x.x.=.f.f.p.p.&.&.&.&.@.O.#.#.#.#.#.#.#.O.$.$.%.i.l.E.q.DXeXN w >.KXUXI I o.L R UX<XUXUXUXUXUXUXUXUXUXUXUXUXUXUXUXUXUXUXUXUXUXUXUXUXUXUXUXUXUXUXUXUXUXUXUXUXUXUXUXUXUXUXUXUXUX",
"UXUXUXUXUXUXUXUXUXUXUXUXUXUXUXUXUXUXUXUXUXUXUXUXUXUXUXUXUXUXUXUXUXUXUXUXUXUXUXUXUXUXUXUXUXN PXMXrXQ.Y.U.U.B.B.M.M.M.M.b.t.r.b.M.r.r.r.0.r.0.v.0.0.0.r.m.b.N.S.E.6XLXLX>X,.,.UXUXUXUXUXUXUXUXUXUXUXUXUXUXUXUXUXUXUXUXUXUXUXUXUXUXUXo _.VXy.I O.L o.n L m m m m Z m m L n Y n R K b 1X<XUXUXUXUXUXUXO @ e o._.KXJXcXjXsXpX9XOXOX X X X X[.[.[. Xx.A.d.}.f.f.f.f.p.p.&.p.&.&.&.&.&.-.#.*.*.#.#.*.#.$.*.%.l.E.,.LX-Xw e :XPXUXO.@.I L UXqXUXUXUXUXUXUXUXUXUXUXUXUXUXUXUXUXUXUXUXUXUXUXUXUXUXUXUXUXUXUXUXUXUXUXUXUXUXUXUXUXUXUXUXUXUX",
"UXUXUXUXUXUXUXUXUXUXUXUXUXUXUXUXUXUXUXUXUXUXUXUXUXUXUXUXUXUXUXUXUXUXUXUXUXUXUXUXUXUXUXUXUXV GXGX6XQ.Y.E.U.U.V.V.V.M.M.U.b.r.M.r.r.r.r.r.r.v.0.v.v.v.v.M.n.N.B.3XyXLXKXH.` N UXUXUXUXUXUXUXUXUXUXUXUXUXUXUXUXUXUXUXUXUXUXUXUXUXUXUXUX@ bXCX&.O.o.o.L Z n Z n Z Z Z Z R Z R R R R R L mXUXUXUXUXUXUXUXo q m o.].LXJXxXjXaXpXpXOXOXOX X X X X}.[.}.}.x.}.x.d.x.d.f.x.f.&.&.&.&.&.&.=.*.#.#.$.#.*.#.#.$.*.*.x.V.I.LX:Xw e 1XSXUX@._ O.UX>XUXUXUXUXUXUXUXUXUXUXUXUXUXUXUXUXUXUXUXUXUXUXUXUXUXUXUXUXUXUXUXUXUXUXUXUXUXUXUXUXUXUXUXUXUX",
"UXUXUXUXUXUXUXUXUXUXUXUXUXUXUXUXUXUXUXUXUXUXUXUXUXUXUXUXUXUXUXUXUXUXUXUXUXUXUXUXUXUXUXUXUX^ PXGX/.Q.Y.Y.U.Y.T.T.T.V.B.E.t.M.r.M.r.r.b.r.b.r.r.r.v.b.b.n.N.D.E.6XNXKXLX,X,.^ UXUXUXUXUXUXUXUXUXUXUXUXUXUXUXUXUXUXUXUXUXUXUXUXUXUXUXUXUXe vXdX@.o.o.L L F Z Z o.Z Z Z o.R R o.! R R O.I CXUXUXUXUXUXUXUXO e o.F bXKXHXcXkXsXpX9X$X+X+X+X X X X}..X}.}.A.}.x.`.x.d.d.f.d.f.f.f.f.&.&.&.&.&.*.-.*.*.*.*.$.*.,.x.V.>XLX;.A A IX1XUX@.O.UX>XUXUXUXUXUXUXUXUXUXUXUXUXUXUXUXUXUXUXUXUXUXUXUXUXUXUXUXUXUXUXUXUXUXUXUXUXUXUXUXUXUXUXUXUXUX",
"UXUXUXUXUXUXUXUXUXUXUXUXUXUXUXUXUXUXUXUXUXUXUXUXUXUXUXUXUXUXUXUXUXUXUXUXUXUXUXUXUXUXUXUXUX^ LXMXrXQ.Q.Y.U.U.U.T.B.T.U.V.M.M.M.r.r.M.b.r.r.b.r.m.b.b.b.N.S.E.E.yXLXKXKXmX<.| UXUXUXUXUXUXUXUXUXUXUXUXUXUXUXUXUXUXUXUXUXUXUXUXUXUXUXUXUX@ G VX+X&.O.L o.L o.o.o.o.O.R o.R R ! I O.! O.O.+.HXUXUXUXUXUXUXUXq l m o.1XKXHXxXkXdXpXpX+X+XOXOXoX X X X X}.}.].}.`.x.x.x.d.d.f.d.x.f.&.&.&.&.&.&.&.&.*.-.*.#.*.*.p.x.m.1XFXA B F DX].R #.UX].UXUXUXUXUXUXUXUXUXUXUXUXUXUXUXUXUXUXUXUXUXUXUXUXUXUXUXUXUXUXUXUXUXUXUXUXUXUXUXUXUXUXUXUXUX",
"UXUXUXUXUXUXUXUXUXUXUXUXUXUXUXUXUXUXUXUXUXUXUXUXUXUXUXUXUXUXUXUXUXUXUXUXUXUXUXUXUXUXUXUXUXV PXGXrXQ.Q.Y.Y.Y.Y.Y.T.U.B.T.V.V.M.M.M.r.b.M.b.r.b.b.b.b.M.D.U.E.6XNXLXKXKXMXc.` UXUXUXUXUXUXUXUXUXUXUXUXUXUXUXUXUXUXUXUXUXUXUXUXUXUXUXUXUXUX@ -.HX'.@.o.L m m B l l B k m m m m n m m m m m 1.ZXUXUXUXUXUXUX@ e G F o.SXKXHXxXjXdXdXpXpX+X+X+X+X X X X}.}.}.}.}.}.`.}.d.x.d.d.f.f.f.f.f.f.p.&.&.&.&.*.*.*.#.&.*.p.S.7.mXSXA N H PXUXO.+.].UXUXUXUXUXUXUXUXUXUXUXUXUXUXUXUXUXUXUXUXUXUXUXUXUXUXUXUXUXUXUXUXUXUXUXUXUXUXUXUXUXUXUXUXUX",
"UXUXUXUXUXUXUXUXUXUXUXUXUXUXUXUXUXUXUXUXUXUXUXUXUXUXUXUXUXUXUXUXUXUXUXUXUXUXUXUXUXUXUXUXUXa GXGXrXQ.Q.Y.R.6XY.Y.U.U.U.U.T.V.M.V.M.M.M.b.b.b.b.b.b.N.N.B.E.3XyXGXKXKXKX,X,.A UXUXUXUXUXUXUXUXUXUXUXUXUXUXUXUXUXUXUXUXUXUXUXUXUXUXUXUXUXUXUXe *XPX'.o.o.L m m m m m m m m n n n m m m m m m ].bXUXUXUXUXUXUXq e B o.-.DXKXAXxXjXsXdXpX$X$XOX+X+X+X+X X X{.}.}.}.}.}.`.x.d.d.f.d.d.d.f.f.f.f.&.f.&.p.&.&.&.&.&.&.u.A.0.SX1XB N 3.PXUX+.>XUXUXUXUXUXUXUXUXUXUXUXUXUXUXUXUXUXUXUXUXUXUXUXUXUXUXUXUXUXUXUXUXUXUXUXUXUXUXUXUXUXUXUXUXUX",
"UXUXUXUXUXUXUXUXUXUXUXUXUXUXUXUXUXUXUXUXUXUXUXUXUXUXUXUXUXUXUXUXUXUXUXUXUXUXUXUXUXUXUXUXUXA PXGXrXQ.W.Y.Q.Y.Y.Y.Y.U.Y.U.U.V.V.V.M.V.M.M.M.B.M.b.b.N.B.D.Q.6XNXKXKXKXnX2.;.+.UXUXUXUXUXUXUXUXUXUXUXUXUXUXUXUXUXUXUXUXUXUXUXUXUXUXUXUXUXUXUXe F @XAXk.@.o.o.n m m m m m m m m m n m n m n L U <X@XUXUXUXUXUX@ q e B o.1.JXLXZXxXkXkXdXpXpX$X9X+X+X+XoXoX XXX{.}.}.}.`.}.'.`.d.d.x.d.d.d.f.f.&.&.f.f.&.=.&.&.&.&.&.s.A.i.JX<XN w >.HX+.<XUXUXUXUXUXUXUXUXUXUXUXUXUXUXUXUXUXUXUXUXUXUXUXUXUXUXUXUXUXUXUXUXUXUXUXUXUXUXUXUXUXUXUXUXUX",
"UXUXUXUXUXUXUXUXUXUXUXUXUXUXUXUXUXUXUXUXUXUXUXUXUXUXUXUXUXUXUXUXUXUXUXUXUXUXUXUXUXUXUXUXUXA GXGX/.W.Q.Q.Q.R.R.Y.Y.Y.Y.U.T.T.B.B.B.V.M.M.M.M.b.N.N.B.D.E.yXyXKXKXmX1X2.;.} S S UXUXUXUXUXUXUXUXUXUXUXUXUXUXUXUXUXUXUXUXUXUXUXUXUXUXUXUXUXUXUXo.-.$XcXy.@.o.U m M m G l m M m F m n n m m m L I hXUXUXUXUXUXUX@ q e m o.@XLXLXcXxXjXkXsXdXpX$X$XpX$X+X+XoXoX X X{.{.}.}.`.`.d.`.d.d.d.f.d.d.f.f.=.&.&.&.y.&.@.&.f.u.s.A.f.KX_.w w =XnX<XUXUXUXUXUXUXUXUXUXUXUXUXUXUXUXUXUXUXUXUXUXUXUXUXUXUXUXUXUXUXUXUXUXUXUXUXUXUXUXUXUXUXUXUXUX",
"UXUXUXUXUXUXUXUXUXUXUXUXUXUXUXUXUXUXUXUXUXUXUXUXUXUXUXUXUXUXUXUXUXUXUXUXUXUXUXUXUXUXUXUXUXA GXGXtXW.W.Q.Q.Y.Q.R.R.Y.Y.Y.U.U.U.B.V.M.M.M.M.M.N.M.B.E.Q.yXLXKXKX1X<.} ^ A w q UXUXUXUXUXUXUXUXUXUXUXUXUXUXUXUXUXUXUXUXUXUXUXUXUXUXUXUXUXUXUXUXG F F bXkXy.@.o.o.m m m m m m n n n n n m m m L L #.vXUXUXUXUXUXUX@ @ G m o.@XKXKXcXxXxXkXkXkXpXpX$X$X+X+X+X XoXXX X{.{.}.}.}.`.}.`.`.}.d.d.d.f.f.f.=.f.f.p.f.&.@.f.p.p.s.g.x.HX1.N 9 ;XIXUXUXUXUXUXUXUXUXUXUXUXUXUXUXUXUXUXUXUXUXUXUXUXUXUXUXUXUXUXUXUXUXUXUXUXUXUXUXUXUXUXUXUXUXUX",
"UXUXUXUXUXUXUXUXUXUXUXUXUXUXUXUXUXUXUXUXUXUXUXUXUXUXUXUXUXUXUXUXUXUXUXUXUXUXUXUXUXUXUXUXUXA GXGXtXW.W.W.W.R.Q.R.Q.Y.Y.Y.Y.U.U.U.B.V.M.M.M.M.U.D.E.E.rXuXKXKX,X} E ^ r q + UXUXUXUXUXUXUXUXUXUXUXUXUXUXUXUXUXUXUXUXUXUXUXUXUXUXUXUXUXUXUXUXUXUXG G o.vX$Xy./ L n m m m m m m n n n n L n n L L o.&.vXUXUXUXUXUXUXo q m F o.dXLXLXcXxXjXkXsXkXdX$XpXpX$X+X+X+XoXXXoX XXX[.+X{.}.`.`.}.`.`.d.f.d.f.f.f.f.f.y.=.y.&.&.p.s.k.j.@XJX+.w w >.UXUXUXUXUXUXUXUXUXUXUXUXUXUXUXUXUXUXUXUXUXUXUXUXUXUXUXUXUXUXUXUXUXUXUXUXUXUXUXUXUXUXUXUXUX",
"UXUXUXUXUXUXUXUXUXUXUXUXUXUXUXUXUXUXUXUXUXUXUXUXUXUXUXUXUXUXUXUXUXUXUXUXUXUXUXUXUXUXUXUXUXS MXGX/./.W.W.W.W.W.Y.R.Y.Y.Y.Y.U.U.U.U.B.B.B.N.B.U.E.Q.6XMXKXKX=X~ E Z N # # o UXUXUXUXUXUXUXUXUXUXUXUXUXUXUXUXUXUXUXUXUXUXUXUXUXUXUXUXUXUXUXUXUXUXG q q o.VX{.y.o.L o.m n m m L m n L n n n L L I O.O.1.vXUXUXUXUXUXUXq q B o.-.vXJXHXxXxXxXkXkXkXsXsXkX$X$X$X$X+XoXoXoXoXXX+X{.{.{.}.'.`.`.`.`.d.f.d.d.d.f.f.f.f.&.y.f.f.s.g.h.bXVXo.w @ UXUXUXUXUXUXUXUXUXUXUXUXUXUXUXUXUXUXUXUXUXUXUXUXUXUXUXUXUXUXUXUXUXUXUXUXUXUXUXUXUXUXUXUXUX",
"UXUXUXUXUXUXUXUXUXUXUXUXUXUXUXUXUXUXUXUXUXUXUXUXUXUXUXUXUXUXUXUXUXUXUXUXUXUXUXUXUXUXUXUXUX^ GXGXtX/.W.W./.W.W.W.Q.R.R.Y.Y.U.U.U.T.B.B.U.B.U.Y.Q.rXNXKXJX2.E ^ w r q O o UXUXUXUXUXUXUXUXUXUXUXUXUXUXUXUXUXUXUXUXUXUXUXUXUXUXUXUXUXUXUXUXUXUXUXF e q F *XVXd.@.I o.o.m n L n L n n L L R L o.R ! #./ @X<XUXUXUXUXUX+ @ e l o.-.cXKXAXxXxXxXkXkXkXkXkX$XdX$X$X+X$X+XoXoXoXoXXXXX{.{.{.`.'.`.d.`.d.d.d.d.f.d.f.f.f.f.f.f.f.d.g.k.BXvXZ UXUXUXUXUXUXUXUXUXUXUXUXUXUXUXUXUXUXUXUXUXUXUXUXUXUXUXUXUXUXUXUXUXUXUXUXUXUXUXUXUXUXUXUXUXUX",
"UXUXUXUXUXUXUXUXUXUXUXUXUXUXUXUXUXUXUXUXUXUXUXUXUXUXUXUXUXUXUXUXUXUXUXUXUXUXUXUXUXUXUXUXUXS GXGXrX/././.W.W.W.W.W.R.Q.Y.Q.Y.Y.Y.U.U.U.U.E.Q.Q.6XGXKXPX<.^ A q + O o o UXUXUXUXUXUXUXUXUXUXUXUXUXUXUXUXUXUXUXUXUXUXUXUXUXUXUXUXUXUXUXUXUXUXUXUXUXUXUXe G -.CXk.( I U L L o.n L L L o.R L L ! ! O.#._ ' bX_.UXUXUXUXUXq q q m o.*XFXKXAXxXxXjXxXkXkXkXkXdX$X$X$X$X#X+X#X+XoXoX XXX{.XX{.{.}.'.`.}.`.`.`.d.d.d.d.f.d.f.f.s.f.f.j.f.ZXbXL UXUXUXUXUXUXUXUXUXUXUXUXUXUXUXUXUXUXUXUXUXUXUXUXUXUXUXUXUXUXUXUXUXUXUXUXUXUXUXUXUXUXUXUXUX",
"UXUXUXUXUXUXUXUXUXUXUXUXUXUXUXUXUXUXUXUXUXUXUXUXUXUXUXUXUXUXUXUXUXUXUXUXUXUXUXUXUXUXUXUXUXS GXGX(./././././.W.W.R.W.R.W.Y.R.Y.Y.Y.Y.U.E.Q.W.rXGXKXDX;.^ B + O O o UXUXUXUXUXUXUXUXUXUXUXUXUXUXUXUXUXUXUXUXUXUXUXUXUXUXUXUXUXUXUXUXUXUXUXUXUXUXUXUXUXUXB e _.vXy.@.O.I L L o.L L L I o.! I ! ! #.#._ ' %.vX1.UXUXUXUXUXO q e B o.@XKXKXVXcXxXjXjXjXkXkX%XkX$X$X$X#X$X$XoX#XoXoXXXoXoXXX`.{.`.`.`.'.`.`.d.'.`.k.k.'.f.k.f.f.f.j.`.'.HXbXUXUXUXUXUXUXUXUXUXUXUXUXUXUXUXUXUXUXUXUXUXUXUXUXUXUXUXUXUXUXUXUXUXUXUXUXUXUXUXUXUXUXUXUXUX",
"UXUXUXUXUXUXUXUXUXUXUXUXUXUXUXUXUXUXUXUXUXUXUXUXUXUXUXUXUXUXUXUXUXUXUXUXUXUXUXUXUXUXUXUXUXS MXGXtX/./././././././.W.W.R.Q.Y.Y.Y.Y.Y.Q.Q.rXyXGXKXmX;.E N q O o UXUXUXUXUXUXUXUXUXUXUXUXUXUXUXUXUXUXUXUXUXUXUXUXUXUXUXUXUXUXUXUXUXUXUXUXUXUXUXUXUXUXUXUXr @ q _.BXy./ @.O.I I I ! I O.! I #.@._ ' 6.u.u.i.i.SX-.UXUXUXUXUX@ q e o.-.@XLXKXVXxXxXjXjXkXjXkXkX%XkX%X$X$X$X#X#X+XoXoXoXoXoXXXXXXXXX`.}.`.`.`.`.`.`.`.d.d.'.d.f.k.f.j.}.oXHX@XUXUXUXUXUXUXUXUXUXUXUXUXUXUXUXUXUXUXUXUXUXUXUXUXUXUXUXUXUXUXUXUXUXUXUXUXUXUXUXUXUXUXUXUX",
"UXUXUXUXUXUXUXUXUXUXUXUXUXUXUXUXUXUXUXUXUXUXUXUXUXUXUXUXUXUXUXUXUXUXUXUXUXUXUXUXUXUXUXUXUXUXGXGXtX/.(./././.rX~./.W.W.W.W.Q.Q.Y.Q.Q.Q./.rXLXKXnX} A w @ O o UXUXUXUXUXUXUXUXUXUXUXUXUXUXUXUXUXUXUXUXUXUXUXUXUXUXUXUXUXUXUXUXUXMXUXUXUXUXUXUXUXUXUXUXUXUXUXe e <XOXy./ / / _ ! I 1.#._ / ( 4.4.a.4.a.7.h.l.].vXUXUXUXUXUXUX@ e Z o.-.@XKXJXCXxXxXjXjXjXjXjXkX%XkX%X$X$X$X$X$X#X$XoX#XoXXXXXXXXXXXXX`.{.`.`.`.`.`.`.`.j.k.j.d.j.j.A.oX$XHX@XUXUXUXUXUXUXUXUXUXUXUXUXUXUXUXUXUXUXUXUXUXUXUXUXUXUXUXUXUXUXUXUXUXUXUXUXUXUXUXUXUXUXUX",
"UXUXUXUXUXUXUXUXUXUXUXUXUXUXUXUXUXUXUXUXUXUXUXUXUXUXUXUXUXUXUXUXUXUXUXUXUXUXUXUXUXUXUXUXUXUXGXNXtXrX(./.(./././.W.W.W.W.W.Q.Q.Q.6XQ.W.yXJXKX1X;.E w + O o UXUXUXUXUXUXUXUXUXUXUXUXUXUXUXUXUXUXUXUXUXUXUXUXUXUXUXUXUXUXUXUXUXUXUXUXUXUXUXUXUXUXUXUXUXUXUXUXUXUXq 1X9X.X[.]..X.X.X].OXOX].7XqXqXaXaXfXhXBXFXJXHXvXUXUXUXUXUX@ e q F o.*XbXKXJXcXxXxXjXjXjXjXkXkXkXkXkXkX$X%X$X$X$X$X#X#XoXoXoXXXXXXXXXXX`.`.XX`.`.`.`.`.`.`.d.d.A.j.A.$XdXJX}.UXUXUXUXUXUXUXUXUXUXUXUXUXUXUXUXUXUXUXUXUXUXUXUXUXUXUXUXUXUXUXUXUXUXUXUXUXUXUXUXUXUX",
"UXUXUXUXUXUXUXUXUXUXUXUXUXUXUXUXUXUXUXUXUXUXUXUXUXUXUXUXUXUXUXUXUXUXUXUXUXUXUXUXUXUXUXUXUXUXGXNXtX(.tX/././././././.W.W.W.Q.W.W./.6XiXLXKX1XE ^ N # o o UXUXUXUXUXUXUXUXUXUXUXUXUXUXUXUXUXUXUXUXUXUXUXUXUXUXUXUXUXUXUXUXUXUXUXUXUXUXUXUXUXUXUXUXUXUXUXUXUXUXUXUXO UXUXUXUXUXUXUXUXUXUXUXUXe G e e e G H J J H J UXUXUXUXUXUX@ @ m n -.*XnXJXJXCXxXxXjXxXjXjXjXjXkX%X%XkX%X%X%X$X$X#X#X#X#XoXoXoXXXXXXXXXXX`.XX`.XX`.`.`.`.j.j.j.j.A.j.$XkXAXd.UXUXUXUXUXUXUXUXUXUXUXUXUXUXUXUXUXUXUXUXUXUXUXUXUXUXUXUXUXUXUXUXUXUXUXUXUXUXUXUXUX",
"UXUXUXUXUXUXUXUXUXUXUXUXUXUXUXUXUXUXUXUXUXUXUXUXUXUXUXUXUXUXUXUXUXUXUXUXUXUXUXUXUXUXUXUXUXUXNXNXtX/.(./.(.(.(./././././.W././.rX).yXKXKX,X~ A w @ # UXUXUXUXUXUXUXUXUXUXUXUXUXUXUXUXUXUXUXUXUXUXUXUXUXUXUXUXUXUXUXUXUXUXUXUXUXUXUXUXUXUXUXUXUXUXUXUXUXUXUXUXUXUXUXUXUXUXUXUXUXUXUXUXUXUXUXUXUXUXUXUXo o O O @ o UXUXUXUXUXUXUX@ e G m -.*XSXKXHXVXcXxXxXxXjXjXjXjXjXkXkX%X%XkX%X$X$X#X$X#X#X#XoXoX#XoXXXXXXXXXXXXX`.XX`.`.`.`.j.j.j.A.[.$XvXvXy.UXUXUXUXUXUXUXUXUXUXUXUXUXUXUXUXUXUXUXUXUXUXUXUXUXUXUXUXUXUXUXUXUXUXUXUXUXUXUXUX",
"UXUXUXUXUXUXUXUXUXUXUXUXUXUXUXUXUXUXUXUXUXUXUXUXUXUXUXUXUXUXUXUXUXUXUXUXUXUXUXUXUXUXUXUXUXUXMXuXtX(.tX(.(.(././././././././.rXrXyXLXKXG.^ A q # o o UXUXUXUXUXUXUXUXUXUXUXUXUXUXUXUXUXUXUXUXUXUXUXUXUXUXUXUXUXUXUXUXUXUXUXUXUXUXUXUXUXUXUXfXUXUXUXUXUXUXUXUXUXUXUXUXUXUXUXUXUXUXUXUXUXUXUXUXUXUXUXUXUXq q @ q r UXUXUXUXUXUXUXUXq e e o.o.*XPXKXHXcXcXxXxXxXxXjXjXjXjXkX%XjX%X%X%X%X%X&X&X#X#X#X#X#XoXXXXXXXXXXXXXXX{.`.}.`.`.`.j.j.j.A. XxXZXdXk.UXUXUXUXUXUXUXUXUXUXUXUXUXUXUXUXUXUXUXUXUXUXUXUXUXUXUXUXUXUXUXUXUXUXUXUXUXUXUX",
"UXUXUXUXUXUXUXUXUXUXUXUXUXUXUXUXUXUXUXUXUXUXUXUXUXUXUXUXUXUXUXUXUXUXUXUXUXUXUXUXUXUXUXUXUXUXGXuX(.tX/.(./.(.(.rX^././././.rX).yXKXKXG.^ A q O O UXUXUXUXUXUXUXUXUXUXUXUXUXUXUXUXUXUXUXUXUXUXUXUXUXUXUXUXUXUXUXUXUXUXUXUXUXUXUXUXUXUXUXUXUXUXUXUXUXUXUXUXUXUXUXUXUXUXUXUXUXUXUXUXUXUXUXUXUXUXUXUXUXUXUXUXUXUXUXUXUXUXUXUXUXUXUXUXq q G m o.-.@XJXKXAXCXCXcXcXxXxXxXjXjXjXjXjXjX%X%X%X%X%X%X&X&X&X#X#X#X#X#XoX#XXXXXXXXXXX`.{.`.`.`.`.Z.j.}.+XjXJX$X*XUXUXUXUXUXUXUXUXUXUXUXUXUXUXUXUXUXUXUXUXUXUXUXUXUXUXUXUXUXUXUXUXUXUXUXUXUXUX",
"UXUXUXUXUXUXUXUXUXUXUXUXUXUXUXUXUXUXUXUXUXUXUXUXUXUXUXUXUXUXUXUXUXUXUXUXUXUXUXUXUXUXUXUXUXUXGXtX(.(.(.tX(.tX(.(.(./.rXtXrXiXuXLXPX<.E A q O o UXUXUXUXUXUXUXUXUXUXUXUXUXUXUXUXUXUXUXUXUXUXUXUXUXUXUXUXUXUXUXUXUXUXUXUXUXUXUXUXUXUXUXUXUXUXUXUXUXUXUXUXUXUXUXUXUXUXUXUXUXUXUXUXUXUXUXUXUXUXUXUXUXUXUXUXUXUXUXUXUXUXUXUXUXUXUXUXUXUXq @ G R o.-.&XPXLXHXVXCXCXcXcXcXxXxXxXxXjXjXkXkX%X%X%X%X%X&X%X&X&X&X&X#X#X#XXXXXXXXXXXXXXX'.XX}.j.}.`.A.j.$XxXPX&X'.UXUXUXUXUXUXUXUXUXUXUXUXUXUXUXUXUXUXUXUXUXUXUXUXUXUXUXUXUXUXUXUXUXUXUXUXUX",
"UXUXUXUXUXUXUXUXUXUXUXUXUXUXUXUXUXUXUXUXUXUXUXUXUXUXUXUXUXUXUXUXUXUXUXUXUXUXUXUXUXUXUXUXUXUXKXtX(.tX(.(.(.(.(.(.(.tXtXrXiXuXKXDX:.} A q O o UXUXUXUXUXUXUXUXUXUXUXUXUXUXUXUXUXUXUXUXUXUXUXUXUXUXUXUXUXUXUXUXUXUXUXUXUXUXUXUXUXUXUXUXUXUXUXUXUXUXUXUXUXUXUXUXUXUXUXUXUXUXUXUXUXUXUXUXUXUXUXUXUXUXUXUXUXUXUXUXUXUXUXUXUXUXUXUXUXUXUX@ e e B +.o.*XkXLXLXHXZXAXVXVXVXcXxXxXxXjXjXjXkX%X%X%X%X%X%X%X&X&X&X&X#X#X#X#XoX#XXXXXXXXXXX`.{.{.}.A.Z.}.Z.$XCXHX#X=.UXUXUXUXUXUXUXUXUXUXUXUXUXUXUXUXUXUXUXUXUXUXUXUXUXUXUXUXUXUXUXUXUXUXUXUX",
"UXUXUXUXUXUXUXUXUXUXUXUXUXUXUXUXUXUXUXUXUXUXUXUXUXUXUXUXUXUXUXUXUXUXUXUXUXUXUXUXUXUXUXUXUXX.LXtXtX(.(.(.tXtXtX(.(.(.tXtXNXKXIX} ^ A q O O UXUXUXUXUXUXUXUXUXUXUXUXUXUXUXUXUXUXUXUXUXUXUXUXUXUXUXUXUXUXUXUXUXUXUXUXUXUXUXUXUXUXUXUXUXUXUXUXUXUXUXUXUXUXUXUXUXUXUXUXUXUXUXUXUXUXUXUXUXUXUXUXUXUXUXUXUXUXUXUXUXUXUXUXUXUXUXUXUXUXUXUXUX@ G B o.+.-.'.vXKXLXJXHXHXZXVXVXCXcXcXxXjXjXkXkXkX%X%X%X%X%X&X&X&X&X&X&X&X&X#X#X#XXX#XXXXXXX{.{.}.}.`.Z.j.Z.kXVXHX#X'.UXUXUXUXUXUXUXUXUXUXUXUXUXUXUXUXUXUXUXUXUXUXUXUXUXUXUXUXUXUXUXUXUXUXUX",
"UXUXUXUXUXUXUXUXUXUXUXUXUXUXUXUXUXUXUXUXUXUXUXUXUXUXUXUXUXUXUXUXUXUXUXUXUXUXUXUXUXUXUXUXUXH.LXtXtXtXtXtX(.(.(.(.tXrXrXNXKXNX} S r # o o UXUXUXUXUXUXUXUXUXUXUXUXUXUXUXUXUXUXUXUXUXUXUXUXUXUXUXUXUXUXUXUXUXUXUXUXUXUXUXUXUXUXUXUXUXUXUXUXUXUXUXUXUXUXUXUXUXUXUXUXUXUXUXUXUXUXUXUXUXUXUXUXUXUXUXUXUXUXUXUXUXUXUXUXUXUXUXUXUXUXUXUXUXUXUX+ r G o.o.-.*XSXPXKXJXJXHXAXZXVXCXcXcXxXjXjXjXjXjX%XkX%X%X%X&X&X&X&X&X&X&X#X#X#X#XXXXXXXXXXX{.{.{.}.}.}.}.{.kXHXSX#X'.UXUXUXUXUXUXUXUXUXUXUXUXUXUXUXUXUXUXUXUXUXUXUXUXUXUXUXUXUXUXUXUXUXUX",
"UXUXUXUXUXUXUXUXUXUXUXUXUXUXUXUXUXUXUXUXUXUXUXUXUXUXUXUXUXUXUXUXUXUXUXUXUXUXUXUXUXUXUXUXUX!.LXtXtX(.tXtX(.tXtXtX(.tXGXLXeXS A r + O o UXUXUXUXUXUXUXUXUXUXUXUXUXUXUXUXUXUXUXUXUXUXUXUXUXUXUXUXUXUXUXUXUXUXUXUXUXUXUXUXUXUXUXUXUXUXUXUXUXUXUXUXUXUXUXUXUXUXUXUXUXUXUXUXUXUXUXUXUXUXUXUXUXUXUXUXUXUXUXUXUXUXUXUXUXUXUXUXUXUXUXUXUXUXUXUXUXO e B F +.=.@XHXKXKXJXJXJXLXJXLXJXJXHXHXHXHXHXAXAXAXVXCXxXxXxXjXjXjXkXkXjX%X%X%X&X%X#X&X&X#X#XoXoXXX}.}.}.oXkXLXHX%X'.UXUXUXUXUXUXUXUXUXUXUXUXUXUXUXUXUXUXUXUXUXUXUXUXUXUXUXUXUXUXUXUXUX",
"UXUXUXUXUXUXUXUXUXUXUXUXUXUXUXUXUXUXUXUXUXUXUXUXUXUXUXUXUXUXUXUXUXUXUXUXUXUXUXUXUXUXUXUXUXeXGXtXtXtXtXtXtXtX(.tXtXGXKXeX} S r # O o UXUXUXUXUXUXUXUXUXUXUXUXUXUXUXUXUXUXUXUXUXUXUXUXUXUXUXUXUXUXUXUXUXUXUXUXUXUXUXUXUXUXUXUXUXUXUXUXUXUXUXUXUXUXUXUXUXUXUXUXUXUXUXUXUXUXUXUXUXUXUXUXUXUXUXUXUXUXUXUXUXUXUXUXUXUXUXUXUXUXUXUXUXUXUXUXUXUXUX@ q e R +.*XkXKXKXKXJXKXKXKXKXKXKXKXKXKXKXLXKXLXLXLXLXJXJXKXJXLXLXPXJXJXJXKXJXAXJXJXJXKXJXKXLXLXJXPXHXJXJXKXKXKXHX%X@XUXUXUXUXUXUXUXUXUXUXUXUXUXUXUXUXUXUXUXUXUXUXUXUXUXUXUXUXUXUXUXUX",
"UXUXUXUXUXUXUXUXUXUXUXUXUXUXUXUXUXUXUXUXUXUXUXUXUXUXUXUXUXUXUXUXUXUXUXUXUXUXUXUXUXUXUXUXUXNXNXtXtXtXtXtXtXtX(.uXPXLX!.S S q O # o UXUXUXUXUXUXUXUXUXUXUXUXUXUXUXUXUXUXUXUXUXUXUXUXUXUXUXUXUXUXUXUXUXUXUXUXUXUXUXUXUXUXUXUXUXUXUXUXUXUXUXUXUXUXUXUXUXUXUXUXUXUXUXUXUXUXUXUXUXUXUXUXUXUXUXUXUXUXUXUXUXUXUXUXUXUXUXUXUXUXUXUXUXUXUXUXUXUXUXUXUX@ 9 e o.+.*XdXvXvXbX$X@X@X@X_.*X=.-.-.-.-.-.-.-.-.-.-.o.+.+.o.-.o.-.-.F o.F -.F +.F F o.+.o.+.+.O.+.-.=.kXAXKXKXAX%X'.UXUXUXUXUXUXUXUXUXUXUXUXUXUXUXUXUXUXUXUXUXUXUXUXUXUXUXUXUXUXUX",
"UXUXUXUXUXUXUXUXUXUXUXUXUXUXUXUXUXUXUXUXUXUXUXUXUXUXUXUXUXUXUXUXUXUXUXUXUXUXUXUXUXUXUXUXF.KXuXtXtXtXtXtXtX(.uXLXKXG.S q O # o o UXUXUXUXUXUXUXUXUXUXUXUXUXUXUXUXUXUXUXUXUXUXUXUXUXUXUXUXUXUXUXUXUXUXUXUXUXUXUXUXUXUXUXUXUXUXUXUXUXUXUXUXUXUXUXUXUXUXUXUXUXUXUXUXUXUXUXUXUX<X5XUXUXUXUXUXUXUXUXUXUXUXUXUXUXUXUXUXUXUXUXUXUXUXUXUXUXUXUXUXUXUXo O q e +.-.=.-.-.=.-.3.-.-.O.+.o.F m F B B B e m G G B e G e G e B B B e e e e e e B G e B B B Z o.O.-.-.bXCXJXKXZX&X'.UXUXUXUXUXUXUXUXUXUXUXUXUXUXUXUXUXUXUXUXUXUXUXUXUXUXUXUXUXUX",
"UXUXUXUXUXUXUXUXUXUXUXUXUXUXUXUXUXUXUXUXUXUXUXUXUXUXUXUXUXUXUXUXUXUXUXUXUXUXUXUXUXUXUXUX).KXuXtXtXtXtXtXtXuXLXKXH.D r # o o o UXUXUXUXUXUXUXUXUXUXUXUXUXUXUXUXUXUXUXUXUXUXUXUXUXUXUXUXUXUXUXUXUXUXUXUXUXUXUXUXUXUXUXUXUXUXUXUXUXUXUXUXUXUXUXUXUXUXUXUXUXUXUXUXUXUXUXUXUXUXUXUXUXUXUXUXUXUX>XUXUXUX<XUXUXUXUXUXUXUXUXUXUXUXUXUXUXUXUXUXUXUXUXUXO @ q q B F o.Z +.+.o.+.Z Z B e e q q q q q q q q @ @ q @ q @ q @ q + @ + q @ q @ G @ q @ q e e G B +.O.-.@XcXJXKXvX#X*XUXUXUXUXUXUXUXUXUXUXUXUXUXUXUXUXUXUXUXUXUXUXUXUXUXUXUXUXUX",
"UXUXUXUXUXUXUXUXUXUXUXUXUXUXUXUXUXUXUXUXUXUXUXUXUXUXUXUXUXUXUXUXUXUXUXUXUXUXUXUXUXUXUXUXuXKXuXuXtXtXtXuXuXKXPX:.S q O O o o UXUXUXUXUXUXUXUXUXUXUXUXUXUXUXUXUXUXUXUXUXUXUXUXUXUXUXUXUXUXUXUXUXUXUXUXUXUXUXUXUXUXUXUXUXUXUXUXUXUXUXUXUXUXUXUXUXUXUXUXUXUXUXUXUXUXUXUXUXUXUXUXUXUXUXUXUXUXUXUXUXUXUXUXUXUXUXUXUXUXUXUXUXUXUXUXUXUXUXUXUXUXUXUXUXUXo @ @ @ q e B e B B q q q @ O @ O O o @ O O o @ O O O O O O O O O # O O o o O O o o O O O O o o q e B E -.@XVXJXKXcX#X'.UXUXUXUXUXUXUXUXUXUXUXUXUXUXUXUXUXUXUXUXUXUXUXUXUXUXUXUX",
"UXUXUXUXUXUXUXUXUXUXUXUXUXUXUXUXUXUXUXUXUXUXUXUXUXUXUXUXUXUXUXUXUXUXUXUXUXUXUXUXUXUXUXF.GXGXuXtXtXtXtXNXKXNXX.D # o o o UXUXUXUXUXUXUXUXUXUXUXUXUXUXUXUXUXUXUXUXUXUXUXUXUXUXUXUXUXUXUXUXUXUXUXUXUXUXUXUXUXUXUXUXUXUXUXUXUXUXUXUXUXUXUXUXUXUXUXUXUXUXUXUXUXUXUXUXUXUXUXUXUXUXUXUXUXUXUXUXUXUXUXUXUXUXUXUXUXUXUXUXUXUXUXUXUXUXUXUXUXUXUXUXUXUXUXUXUXO O O O o e r @ @ O O O o o o o o o o o o o o o o o O + o o o o o o o o o o o o o o o o o o o O O + B Z +._.VXLXKXcX@Xf.UXUXUXUXUXUXUXUXUXUXUXUXUXUXUXUXUXUXUXUXUXUXUXUXUXUXUX",
"UXUXUXUXUXUXUXUXUXUXUXUXUXUXUXUXUXUXUXUXUXUXUXUXUXUXUXUXUXUXUXUXUXUXUXUXUXUXUXUXI.UXUX).KXNXuXtXtXtXNXKXIXX.# # o o o UXUXUXUXUXUXUXUXUXUXUXUXUXUXUXUXUXUXUXUXUXUXUXUXUXUXUXUXUXUXUXUXUXUXUXUXUXUXUXUXUXUXUXUXUXUXUXUXUXUXUXUXUXUXUXUXUXUXUXUXUXUXUXUXUXUXUXUXUXUXUXUXUXUXUXUXUXUXUXUXUXUXUXUXUXUXUXUXUXFXUXUXUXUXUXUXUXUXUXUXUXUXUXUXUXUXUXUXUXUXUXUXo o o o G O o O o o o o o o o UXUXUXUXUXUXUXUXUXUXG UXUXUXUXUXUXUXUXUXUXUXUXUXUXUXUXUXUXUXUXUXO + w A O.=.SXKXKXxX'.UXUXUXUXUXUXUXUXUXUXUXUXUXUXUXUXUXUXUXUXUXUXUXUXUXUXUX",
"UXUXUXUXUXUXUXUXUXUXUXUXUXUXUXUXUXUXUXUXUXUXUXUXUXUXUXUXUXUXUXUXUXUXUXUXUXUXUXUX!.UX..uXKXuXuXuXuXNXLXnXX.r # o o o UXUXUXUXUXUXUXUXUXUXUXUXUXUXUXUXUXUXUXUXUXUXUXUXUXUXUXUXUXUXUXUXUXUXUXUXUXUXUXUXUXUXUXUXUXUXUXUXUXUXUXUXUXUXUXUXUXUXUXUXUXUXUXUXUXUXUXUXUXUXUXUXUXUXUXUXUXUXUXUXUXUXUXUXUXUXUXUXUXUXUXKXUXUXUXUXUXUXUXUXUXUXUXUXUXUXUXUXUXUXUXUXUXUXo O O G O o o o UXUXUXUXUXUXUXUXUXUXUXUXUXUXUXUXUXUXUXUXUXUXUXUXUXUXUXUXUXUXUXUXUXUXUXUXUXUXUXO O w B +.-.vXKXKX%X=.UXUXUXUXUXUXUXUXUXUXUXUXUXUXUXUXUXUXUXUXUXUXUXUXUXUX",
"UXUXUXUXUXUXUXUXUXUXUXUXUXUXUXUXUXUXUXUXUXUXUXUXUXUXUXUXUXUXUXUXUXUXUXUXUXUXUXUXrXF.F.LXGXuXuXtXGXKXuXS # # o o o UXUXUXUXUXUXUXUXUXUXUXUXUXUXUXUXUXUXUXUXUXUXUXUXUXUXUXUXUXUXUXUXUXUXUXUXUXUXUXUXUXUXUXUXUXUXUXUXUXUXUXUXUXUXUXUXUXUXUXUXUXUXUXUXUXUXUXUXUXUXUXUXUXUXUXUXUXUXUXUXUXUXUXUXUXUXUXUXUXUXUXUXUXUXUXUXUXUXUXUXUXUXUXUXUXUXUXUXUXUXUXUXUXUXUXUXUXUX# UXUXUXUXUXUXUXUXUXUXUXUXUXUXUXUXUXUXUXUXUXUXUXUXUXUXUXUXUXUXUXUXUXUXUXUXUXUXUXUXUXUXUXUXUXO q B Z +.vXKXHX&Xf.UXUXUXUXUXUXUXUXUXUXUXUXUXUXUXUXUXUXUXUXUXUXUXUXUX",
"UXUXUXUXUXUXUXUXUXUXUXUXUXUXUXUXUXUXUXUXUXUXUXUXUXUXUXUXUXUXUXUXUXUXUXUXUXUXUXuXuXrXrXLXGXuXuXLXKXiXS # # o o # UXUXUXUXUXUXUXUXUXUXUXUXUXUXUXUXUXUXUXUXUXUXUXUXUXUXUXUXUXUXUXUXUXUXUXUXUXUXUXUXUXUXUXUXUXUXUXUXUXUXUXUXUXUXUXUXUXUXUXUXUXUXUXUXUXUXUXUXUXUXUXUXUXUXUXUXUXUXUXUXUXUXUXUXUXUXUXUXUXUXUXUXUXUXUXUXUXUXUXUXUXUXUXUXUXUXUXUXUXUXUXUXUXUXUXUXUXUXUX# UXUXUXUXUXUXUXUXUXUXUXUXUXUXUXUXUXUXUXUXUXUXUXUXUXUXUXUXUXUXUXUXUXUXUXUXUXUXUXUXUXUXUXUXUXUXO + w Z O.<XPXAXoX&.UXUXUXUXUXUXUXUXUXUXUXUXUXUXUXUXUXUXUXUXUXUXUXUX",
"UXUXUXUXUXUXUXUXUXUXUXUXUXUXUXUXUXUXUXUXUXUXUXUXUXUXUXUXUXUXUXUXUXUXUXUXUXUXUXH.eX).LXKXNXuXLXLX-XS r # o o UXUXUXUXUXUXUXUXUXUXUXUXUXUXUXUXUXUXUXUXUXUXUXUXUXUXUXUXUXUXUXUXUXUXUXUXUXUXUXUXUXUXUXUXUXUXUXUXUXUXUXUXUXUXUXUXUXUXUXUXUXUXUXUXUXUXUXUXUXUXUXUXUXUXUXUXUXUXUXUXUXUXUXUXUXUXUX>.UXUXUXUXUXUXUXUXUXUXMXUXUXUXUXUXUXUXUXUXUXUXUXUXUXUXUXUXUXUXUXUXUXUXUXUXUXUXUXUXUXUXUXUXUXUXUXUXUXUXUXUXUXUXUXUXUXUXUXUXUXUXUXUXUXUXUXUXUXUXUXUXUXUXUXUXUXUXUXUXUXO + r B o.<XLXCX'.UXUXUXUXUXUXUXUXUXUXUXUXUXUXUXUXUXUXUXUXUXUXUXUX",
"UXUXUXUXUXUXUXUXUXUXUXUXUXUXUXUXUXUXUXUXUXUXUXUXUXUXUXUXUXUXUXUXUXUXUXUXUXUXUXUXX.rXLXGXuXLXLX!.S # o o o UXUXUXUXUXUXUXUXUXUXUXUXUXUXUXUXUXUXUXUXUXUXUXUXUXUXUXUXUXUXUXUXUXUXUXUXUXUXUXUXUXUXUXUXUXUXUXUXUXUXUXUXUXUXUXUXUXUXUXUXUXUXUXUXUXUXUXUXUXUXUXUXUXUXUXUXUXUXUXUXUXUXUXUXUXUXUXUXUXUXUXUXUXUXUXUXUXUXUXUXUXUXUXUXUXUXUXUXUXUXUXUXUXUXUXUXUXUXUXUXUXUXUXUXUXUXUXUXUXUXUXUXUXUXUXUXUXUXUXUXUXUXUXUXUXUXUXUXUXUXUXUXUXUXUXUXUXUXUXUXUXUXUXUXUXUXUXUXUXUXUXO O r w Z <XJXvX&.UXUXUXUXUXUXUXUXUXUXUXUXUXUXUXUXUXUXUXUXUXUXUX",
"UXUXUXUXUXUXUXUXUXUXUXUXUXUXUXUXUXUXUXUXUXUXUXUXUXUXUXUXUXUXUXUXUXUXUXUXUXUXUXX.!.LXKXNXLXLX!.S r o # o UXUXUXUXUXUXUXUXUXUXUXUXUXUXUXUXUXUXUXUXUXUXUXUXUXUXUXUXUXUXUXUXUXUXUXUXUXUXUXUXUXUXUXUXUXUXUXUXUXUXUXUXUXUXUXUXUXUXUXUXUXUXUXUXUXUXUXUXUXUXUXUXUXUXUXUXUXUXUXUXUXUXUXUXUXUXUXUXUXUXUXUXUXUXUXUXUXUXUXUXUXUXUXUXUXUXUXUXUXUXUXUXUXUXUXUXUXUXUXUXUXUXUXUXUXUXUXUXUXUXUXUXUXUXUXUXUXUXUXUXUXUXUXUXUXUXUXUXUXUXUXUXUXUXUXUXUXUXUXUXUXUXUXUXUXUXUXUXUXUXUXUXUXUXO O r Z <XKXdXUXUXUXUXUXUXUXUXUXUXUXUXUXUXUXUXUXUXUXUXUXUXUX",
"UXUXUXUXUXUXUXUXUXUXUXUXUXUXUXUXUXUXUXUXUXUXUXUXUXUXUXUXUXUXUXUXUXUXUXUXUXUXUXF.uXLXGXLXPXH.S r # o o UXUXUXUXUXUXUXUXUXUXUXUXUXUXUXUXUXUXUXUXUXUXUXUXUXUXUXUXUXUXUXUXUXUXUXUXUXUXUXUXUXUXUXUXUXUXUXUXUXUXUXUXUXUXUXUXUXUXUXUXUXUXUXUXUXUXUXUXUXUXUXUXUXUXUXUXUXUXUXUXUXUXUXUXUXUXUXUXUXUXUXUXUXUXUXUXUXUXUXUXUXUXUXUXUXUXUXUXUXUXUXUXUXUXUXUXUXUXUXUXUXUXUXUXUXUXUXUXUXUXUXUXUXUXUXUXUXUXUXUXUXUXUXUXUXUXUXUXUXUXUXUXUXUXUXUXUXUXUXUXUXUXUXUXUXUXUXUXUXUXUXUXUXUXUXUXO O q e @XLXvXUXUXUXUXUXUXUXUXUXUXUXUXUXUXUXUXUXUXUXUXUXUX",
"UXUXUXUXUXUXUXUXUXUXUXUXUXUXUXUXUXUXUXUXUXUXUXUXUXUXUXUXUXUXUXUXUXUXUXUXUXUX../.KXLXLXGXH.D # # o o UXUXUXUXUXUXUXUXUXUXUXUXUXUXUXUXUXUXUXUXUXUXUXUXUXUXUXUXUXUXUXUXUXUXUXUXUXUXUXUXUXUXUXUXUXUXUXUXUXUXUXUXUXUXUXUXUXUXUXUXUXUXUXUXUXUXUXUXUXUXUXUXUXUXUXUXUXUXUXUXUXUXUXUXUXUXUXUXUXUXUXUXUXUXUXUXUXUXUXUXUXUXUXUXUXUXUXUXUXUXUXUXUXUXUXUXUXUXUXUXUXUXUXUXUXUXUXUXUXUXUXUXUXUXUXUXUXUXUXUXUXUXUXUXUXUXUXUXUXUXUXUXUXUXUXUXUXUXUXUXUXUXUXUXUXUXUXUXUXUXUXUXUXUXUXUXUXUXUXo o r ].LXdXUXUXUXUXUXUXUXUXUXUXUXUXUXUXUXUXUXUXUXUXUX",
"UXUXUXUXUXUXUXUXUXUXUXUXUXUXUXUXUXUXUXUXUXUXUXUXUXUXUXUXUXUXUXUXUXUXUXUXUXUX!.GXLXKXDX:.D # # # o UXUXUXUXUXUXUXUXUXUXUXUXUXUXUXUXUXUXUXUXUXUXUXUXUXUXUXUXUXUXUXUXUXUXUXUXUXUXUXUXUXUXUXUXUXUXUXUXUXUXUXUXUXUXUXUXUXUXUXUXUXUXUXUXUXUXUXUXUXUXUXUXUXUXUXUXUXUXUXUXUXUXUXUXUXUXUXUXUXUXUXUXUXUXUXUXUXUXUXUXUXUXUXUXUXUXUXUXUXUXUXUXUXUXUXUXUXUXUXUXUXUXUXUXUXUXUXUXUXUXUXUXUXUXUXUXUXUXUXUXUXUXUXUXUXUXUXUXUXUXUXUXUXUXUXUXUXUXUXUXUXUXUXUXUXUXUXUXUXUXUXUXUXUXUXUXUXUXUXUXUXo @ e _.JXpXUXUXUXUXUXUXUXUXUXUXUXUXUXUXUXUXUXUXUXUX",
"UXUXUXUXUXUXUXUXUXUXUXUXUXUXUXUXUXUXUXUXUXUXUXUXUXUXUXUXUXUXUXUXUXUXUXUXUXL.uXKXLXNXX.D # # o UXUXUXUXUXUXUXUXUXUXUXUXUXUXUXUXUXUXUXUXUXUXUXUXUXUXUXUXUXUXUXUXUXUXUXUXUXUXUXUXUXUXUXUXUXUXUXUXUXUXUXUXUXUXUXUXUXUXUXUXUXUXUXUXUXUXUXUXUXUXUXUXUXUXUXUXUXUXUXUXUXUXUXUXUXUXUXUXUXUXUXUXUXUXUXUXUXUXUXUXUXUXUXUXUXUXUXUXUXUXUXUXUXUXUXUXUXUXUXUXUXUXUXUXUXUXUXUXUXUXUXUXUXUXUXUXUXUXUXUXUXUXUXUXUXUXUXUXUXUXUXUXUXUXUXUXUXUXUXUXUXUXUXUXUXUXUXUXUXUXUXUXUXUXUXUXUXUXUXUXUXUXUXUXUXO r _.JXoXUXUXUXUXUXUXUXUXUXUXUXUXUXUXUXUXUXUXUX",
"UXUXUXUXUXUXUXUXUXUXUXUXUXUXUXUXUXUXUXUXUXUXUXUXUXUXUXUXUXUXUXUXUXUXUXUXUXiXKXKXyXX.D # # o UXUXUXUXUXUXUXUXUXUXUXUXUXUXUXUXUXUXUXUXUXUXUXUXUXUXUXUXUXUXUXUXUXUXUXUXUXUXUXUXUXUXUXUXUXUXUXUXUXUXUXUXUXUXUXUXUXUXUXUXUXUXUXUXUXUXUXUXUXUXUXUXUXUXUXUXUXUXUXUXUXUXUXUXUXUXUXUXUXUXUXUXUXUXUXUXUXUXUXUXUXUXUXUXUXUXUXUXUXUXUXUXUXUXUXUXUXUXUXUXUXUXUXUXUXUXUXUXUXUXUXUXUXUXUXUXUXUXUXUXUXUXUXUXUXUXUXUXUXUXUXUXUXUXUXUXUXUXUXUXUXUXUXUXUXUXUXUXUXUXUXUXUXUXUXUXUXUXUXUXUXUXUXUXUXUXUXo r _.xXoXUXUXUXUXUXUXUXUXUXUXUXUXUXUXUXUXUXUX",
"UXUXUXUXUXUXUXUXUXUXUXUXUXUXUXUXUXUXUXUXUXUXUXUXUXUXUXUXUXUXUXUXUXUXUXUX).KXLX1XX.r # o o UXUXUXUXUXUXUXUXUXUXUXUXUXUXUXUXUXUXUXUXUXUXUXUXUXUXUXUXUXUXUXUXUXUXUXUXUXUXUXUXUXUXUXUXUXUXUXUXUXUXUXUXUXUXUXUXUXUXUXUXUXUXUXUXUXUXUXUXUXUXUXUXUXUXUXUXUXUXUXUXUXUXUXUXUXUXUXUXUXUXUXUXUXUXUXUXUXUXUXUXUXUXUXUXUXUXUXUXUXUXUXUXUXUXUXUXUXUXUXUXUXUXUXUXUXUXUXUXUXUXUXUXUXUXUXUXUXUXUXUXUXUXUXUXUXUXUXUXUXUXUXUXUXUXUXUXUXUXUXUXUXUXUXUXUXUXUXUXUXUXUXUXUXUXUXUXUXUXUXUXUXUXUXUXUXUXUXUXUXo q _.&XoXUXUXUXUXUXUXUXUXUXUXUXUXUXUXUXUXUX",
"UXUXUXUXUXUXUXUXUXUXUXUXUXUXUXUXUXUXUXUXUXUXUXUXUXUXUXUXUXUXUXUXUXUXUX!.GXKX,XD r # o # UXUXUXUXUXUXUXUXUXUXUXUXUXUXUXUXUXUXUXUXUXUXUXUXUXUXUXUXUXUXUXUXUXUXUXUXUXUXUXUXUXUXUXUXUXUXUXUXUXUXUXUXUXUXUXUXUXUXUXUXUXUXUXUXUXUXUXUXUXUXUXUXUXUXUXUXUXUXUXUXUXUXUXUXUXUXUXUXUXUXUXUXUXUXUXUXUXUXUXUXUXUXUXUXUXUXUXUXUXUXUXUXUXUXUXUXHXUXUXUXUXUXUXUXUXUXUXUXUXUXUXUXUXUXUXUXUXUXUXUXUXUXUXUXUXUXUXUXUXUXUXUXUXUXUXUXUXUXUXUXUXUXUXUXUXUXUXUXUXUXUXUXUXUXUXUXUXUXUXUXUXUXUXUXUXUXUXUXUXUXUXUX+ _.'.UXUXUXUXUXUXUXUXUXUXUXUXUXUXUXUXUX",
"UXUXUXUXUXUXUXUXUXUXUXUXUXUXUXUXUXUXUXUXUXUXUXUXUXUXUXUXUXUXUXUXUXUXUXNXLXG.D r # o UXUXUXUXUXUXUXUXUXUXUXUXUXUXUXUXUXUXUXUXUXUXUXUXUXUXUXUXUXUXUXUXUXUXUXUXUXUXUXUXUXUXUXUXUXUXUXUXUXUXUXUXUXUXUXUXUXUXUXUXUXUXUXUXUXUXUXUXUXUXUXUXUXUXUXUXUXUXUXUXUXUXUXUXUXUXUXUXUXUXUXUXUXUXUXUXUXUXUXUXUXUXUXUXUXUXUXUXUXUXUXUXUXUXUXUXUXUXUXUXUXUXUXUXUXUXUXUXUXUXUXUXUXUXUXUXUXUXUXUXUXUXUXUXUXUXUXUXUXUXUXUXUXUXUXUXUXUXUXUXUXUXUXUXUXUXUXUXUXUXUXUXUXUXUXUXUXUXUXUXUXUXUXUXUXUXUXUXUXUXUXUXUXUXUX+ _.x.UXUXUXUXUXUXUXUXUXUXUXUXUXUXUXUX",
"UXUXUXUXUXUXUXUXUXUXUXUXUXUXUXUXUXUXUXUXUXUXUXUXUXUXUXUXUXUXUXUXUXUXNXGXH.r o o UXUXUXUXUXUXUXUXUXUXUXUXUXUXUXUXUXUXUXUXUXUXUXUXUXUXUXUXUXUXUXUXUXUXUXUXUXUXUXUXUXUXUXUXUXUXUXUXUXUXUXUXUXUXUXUXUXUXUXUXUXUXUXUXUXUXUXUXUXUXUXUXUXUXUXUXUXUXUXUXUXUXUXUXUXUXUXUXUXUXUXUXUXUXUXUXUXUXUXUXUXUXUXUXUXUXUXUXUXUXUXUXUXUXUXUXUXUXUXUXUXUXUXUXUXUXUXUXUXUXUXUXUXUXUXUXUXUXUXUXUXUXUXUXUXUXUXUXUXUXUXUXUXUXUXUXUXUXUXUXUXUXUXUXUXUXUXUXUXUXUXUXUXUXUXUXUXUXUXUXUXUXUXUXUXUXUXUXUXUXUXUXUXUXUXUXUXUXUX+.UXUXUXUXUXUXUXUXUXUXUXUXUXUXUXUX",
"UXUXUXUXUXUXUXUXUXUXUXUXUXUXUXUXUXUXUXUXUXUXUXUXUXUXUXUXUXUXUXUXUXNXmXS r # UXUXUXUXUXUXUXUXUXUXUXUXUXUXUXUXUXUXUXUXUXUXUXUXUXUXUXUXUXUXUXUXUXUXUXUXUXUXUXUXUXUXUXUXUXUXUXUXUXUXUXUXUXUXUXUXUXUXUXUXUXUXUXUXUXUXUXUXUXUXUXUXUXUXUXUXUXUXUXUXUXUXUXUXUXUXUXUXUXUXUXUXUXUXUXUXUXUXUXUXUXUXUXUXUXUXUXUXUXUXUXUXUXUXUXUXUXUXUXUXUXUXUXUXUXUXUXUXUXUXUXUXUXUXUXUXUXUXUXUXUXUXUXUXUXUXUXUXUXUXUXUXUXUXUXUXUXUXUXUXUXUXUXUXUXUXUXUXUXUXUXUXUXUXUXUXUXUXUXUXUXUXUXUXUXUXUXUXUXUXUXUXUXUXUXUXUXUXUXUXUXUXUXUXUXUXUXUXUXUXUXUXUXUXUXUXUXUX",
"UXUXUXUXUXUXUXUXUXUXUXUXUXUXUXUXUXUXUXUXUXUXUXUXUXUXUXUXUXUXUXUXNXeXr # UXUXUXUXUXUXUXUXUXUXUXUXUXUXUXUXUXUXUXUXUXUXUXUXUXUXUXUXUXUXUXUXUXUXUXUXUXUXUXUXUXUXUXUXUXUXUXUXUXUXUXUXUXUXUXUXUXUXUXUXUXUXUXUXUXUXUXUXUXUXUXUXUXUXUXUXUXUXUXUXUXUXUXUXUXUXUXUXUXUXUXUXUXUXUXUXUXUXUXUXUXUXUXUXUXUXUXUXUXUXUXUXUXUXUXUXUXUXUXUXUXUXUXUXUXUXUXUXUXUXUXUXUXUXUXUXUXUXUXUXUXUXUXUXUXUXUXUXUXUXUXUXUXUXUXUXUXUXUXUXUXUXUXUXUXUXUXUXUXUXUXUXUXUXUXUXUXUXUXUXUXUXUXUXUXUXUXUXUXUXUXUXUXUXUXUXUXUXUXUXUXUXUXUXUXUXUXUXUXUXUXUXUXUXUXUXUXUXUXUX",
"UXUXUXUXUXUXUXUXUXUXUXUXUXUXUXUXUXUXUXUXUXUXUXUXUXUXUXUXUXUXUXNXeXUXUXUXUXUXUXUXUXUXUXUXUXUXUXUXUXUXUXUXUXUXUXUXUXUXUXUXUXUXUXUXUXUXUXUXUXUXUXUXUXUXUXUXUXUXUXUXUXUXUXUXUXUXUXUXUXUXUXUXUXUXUXUXUXUXUXUXUXUXUXUXUXUXUXUXUXUXUXUXUXUXUXUXUXUXUXUXUXUXUXUXUXUXUXUXUXUXUXUXUXUXUXUXUXUXUXUXUXUXUXUXUXUXUXUXUXUXUXUXUXUXUXUXUXUXUXUXUXUXUXUXUXUXUXUXUXUXUXUXUXUXUXUXUXUXUXUXUXUXUXUXUXUXUXUXUXUXUXUXUXUXUXUXUXUXUXUXUXUXUXUXUXUXUXUXUXUXUXUXUXUXUXUXUXUXUXUXUXUXUXUXUXUXUXUXUXUXUXUXUXUXUXUXUXUXUXUXUXUXUXUXUXUXUXUXUXUXUXUXUXUXUXUX",
"UXUXUXUXUXUXUXUXUXUXUXUXUXUXUXUXUXUXUXUXUXUXUXUXUXUXUXUXUXUXNX;XUXUXUXUXUXUXUXUXUXUXUXUXUXUXUXUXUXUXUXUXUXUXUXUXUXUXUXUXUXUXUXUXUXUXUXUXUXUXUXUXUXUXUXUXUXUXUXUXUXUXUXUXUXUXUXUXUXUXUXUXUXUXUXUXUXUXUXUXUXUXUXUXUXUXUXUXUXUXUXUXUXUXUXUXUXUXUXUXUXUXUXUXUXUXUXUXUXUXUXUXUXUXUXUXUXUXUXUXUXUXUXUXUXUXUXUXUXUXUXUXUXUXUXUXUXUXUXUXUXUXUXUXUXUXUXUXUXUXUXUXUXUXUXUXUXUXUXUXUXUXUXUXUXUXUXUXUXUXUXUXUXUXUXUXUXUXUXUXUXUXUXUXUXUXUXUXUXUXUXUXUXUXUXUXUXUXUXUXUXUXUXUXUXUXUXUXUXUXUXUXUXUXUXUXUXUXUXUXUXUXUXUXUXUXUXUXUXUXUXUXUXUXUXUX",
"UXUXUXUXUXUXUXUXUXUXUXUXUXUXUXUXUXUXUXUXUXUXUXUXUXUXUXUXUXNX-XUXUXUXUXUXUXUXUXUXUXUXUXUXUXUXUXUXUXUXUXUXUXUXUXUXUXUXUXUXUXUXUXUXUXUXUXUXUXUXUXUXUXUXUXUXUXUXUXUXUXUXUXUXUXUXUXUXUXUXUXUXUXUXUXUXUXUXUXUXUXUXUXUXUXUXUXUXUXUXUXUXUXUXUXUXUXUXUXUXUXUXUXUXUXUXUXUXUXUXUXUXUXUXUXUXUXUXUXUXUXUXUXUXUXUXUXUXUXUXUXUXUXUXUXUXUXUXUXUXUXUXUXUXUXUXUXUXUXUXUXUXUXUXUXUXUXUXUXUXUXUXUXUXUXUXUXUXUXUXUXUXUXUXUXUXUXUXUXUXUXUXUXUXUXUXUXUXUXUXUXUXUXUXUXUXUXUXUXUXUXUXUXUXUXUXUXUXUXUXUXUXUXUXUXUXUXUXUXUXUXUXUXUXUXUXUXUXUXUXUXUXUXUXUXUX",
"UXUXUXUXUXUXUXUXUXUXUXUXUXUXUXUXUXUXUXUXUXUXUXUXUXUXUXUXNXG.UXUXUXUXUXUXUXUXUXUXUXUXUXUXUXUXUXUXUXUXUXUXUXUXUXUXUXUXUXUXUXUXUXUXUXUXUXUXUXUXUXUXUXUXUXUXUXUXUXUXUXUXUXUXUXUXUXUXUXUXUXUXUXUXUXUXUXUXUXUXUXUXUXUXUXUXUXUXUXUXUXUXUXUXUXUXUXUXUXUXUXUXUXUXUXUXUXUXUXUXUXUXUXUXUXUXUXUXUXUXUXUXUXUXUXUXUXUXUXUXUXUXUXUXUXUXUXUXUXUXUXUXUXUXUXUXUXUXUXUXUXUXUXUXUXUXUXUXUXUXUXUXUXUXUXUXUXUXUXUXUXUXUXUXUXUXUXUXUXUXUXUXUXUXUXUXUXUXUXUXUXUXUXUXUXUXUXUXUXUXUXUXUXUXUXUXUXUXUXUXUXUXUXUXUXUXUXUXUXUXUXUXUXUXUXUXUXUXUXUXUXUXUXUXUXUX",
"UXUXUXUXUXUXUXUXUXUXUXUXUXUXUXUXUXUXUXUXUXUXUXUXUXUXUXMXUXUXUXUXUXUXUXUXUXUXUXUXUXUXUXUXUXUXUXUXUXUXUXUXUXUXUXUXUXUXUXUXUXUXUXUXUXUXUXUXUXUXUXUXUXUXUXUXUXUXUXUXUXUXUXUXUXUXUXUXUXUXUXUXUXUXUXUXUXUXUXUXUXUXUXUXUXUXUXUXUXUXUXUXUXUXUXUXUXUXUXUXUXUXUXUXUXUXUXUXUXUXUXUXUXUXUXUXUXUXUXUXUXUXUXUXUXUXUXUXUXUXUXUXUXUXUXUXUXUXUXUXUXUXUXUXUXUXUXUXUXUXUXUXUXUXUXDXUXUXUXUXUXUXUXUXUXUXUXUXUXUXUXUXUXUXUXUXUXUXUXUXUXUXUXUXUXUXUXUXUXUXUXUXUXUXUXUXUXUXUXUXUXUXUXUXUXUXUXUXUXUXUXUXUXUXUXUXUXUXUXUXUXUXUXUXUXUXUXUXUXUXUXUXUXUXUXUX",
"UXUXUXUXUXUXUXUXUXUXUXUXUXUXUXUXUXUXUXUXUXUXUXUXUXUXMXUXUXUXUXUXUXUXUXUXUXUXUXUXUXUXUXUXUXUXUXUXUXUXUXUXUXUXUXUXUXUXUXUXUXUXUXUXUXUXUXUXUXUXUXUXUXUXUXUXUXUXUXUXUXUXUXUXUXUXUXUXUXUXUXUXUXUXUXUXUXUXUXUXUXUXUXUXUXUXUXUXUXUXUXUXUXUXUXUXUXUXUXUXUXUXUXUXUXUXUXUXUXUXUXUXUXUXUXUXUXUXUXUXUXUXUXUXUXUXUXUXUXUXUXUXUXUXUXUXUXUXUXUXUXUXUXUXUXUXUXUXUXUXUXUXUXUXUXUXUXUXUXUXUXUXUXUXUXUXUXUXUXUXUXUXUXUXUXUXUXUXUXUXUXUXUXUXUXUXUXUXUXUXUXUXUXUXUXUXUXUXUXUXUXUXUXUXUXUXUXUXUXUXUXUXUXUXUXUXUXUXUXUXUXUXUXUXUXUXUXUXUXUXUXUXUXUXUXUX",
"UXUXUXUXUXUXUXUXUXUXUXUXUXUXUXUXUXUXUXUXUXUXUXUXUXyXUXUXUXUXUXUXUXUXUXUXUXUXUXUXUXUXUXUXUXUXUXUXUXUXUXUXUXUXUXUXUXUXUXUXUXUXUXUXUXUXUXUXUXUXUXUXUXUXUXUXUXUXUXUXUXUXUXUXUXUXUXUXUXUXUXUXUXUXUXUXUXUXUXUXUXUXUXUXUXUXUXUXUXUXUXUXUXUXUXUXUXUXUXUXUXUXUXUXUXUXUXUXUXUXUXUXUXUXUXUXUXUXUXUXUXUXUXUXUXUXUXUXUXUXUXUXUXUXUXUXUXUXUXUXUXUXUXUXUXUXUXUXUXUXUXUXUXUXUXUXUXUXUXUXUXUXUXUXUXUXUXUXUXUXUXUXUXUXUXUXUXUXUXUXUXUXUXUXUXUXUXUXUXUXUXUXUXUXUXUXUXUXUXUXUXUXUXUXUXUXUXUXUXUXUXUXUXUXUXUXUXUXUXUXUXUXUXUXUXUXUXUXUXUXUXUXUXUXUXUX",
"UXUXUXUXUXUXUXUXUXUXUXUXUXUXUXUXUXUXUXUXUXUXUXUX6XUXUXUXUXUXUXUXUXUXUXUXUXUXUXUXUXUXUXUXUXUXUXUXUXUXUXUXUXUXUXUXUXUXUXUXUXUXUXUXUXUXUXUXUXUXUXUXUXUXUXUXUXUXUXUXUXUXUXUXUXUXUXUXUXUXUXUXUXUXUXUXUXUXUXUXUXUXUXUXUXUXUXUXUXUXUXUXUXUXUXUXUXUXUXUXUXUXUXUXUXUXUXUXUXUXUXUXUXUXUXUXUXUXUXUXUXUXUXUXUXUXUXUXUXUXUXUXUXUXUXUXUXUXUXUXUXUXUXUXUXUXUXUXUXUXUXUXUXUXUXUXUXUXUXUXUXUXUXUXUXUXUXUXUXUXUXUXUXUXUXUXUXUXUXUXUXUXUXUXUXUXUXUXUXUXUXUXUXUXUXUXUXUXUXUXUXUXUXUXUXUXUXUXUXUXUXUXUXUXUXUXUXUXUXUXUXUXUXUXUXUXUXUXUXUXUXUXUXUXUXUX",
"UXUXUXUXUXUXUXUXUXUXUXUXUXUXUXUXUXUXUXUXUXUXUXUXUXUXUXUXUXUXUXUXUXUXUXUXUXUXUXUXUXUXUXUXUXUXUXUXUXUXUXUXUXUXUXUXUXUXUXUXUXUXUXUXUXUXUXUXUXUXUXUXUXUXUXUXUXUXUXUXUXUXUXUXUXUXUXUXUXUXUXUXUXUXUXUXUXUXUXUXUXUXUXUXUXUXUXUXUXUXUXUXUXUXUXUXUXUXUXUXUXUXUXUXUXUXUXUXUXUXUXUXUXUXUXUXUXUXUXUXUXUXUXUXUXUXUXUXUXUXUXUXUXUXUXUXUXUXUXUXUXUXUXUXUXUXUXUXUXUXUXUXUXUXUXUXUXUXUXUXUXUXUXUXUXUXUXUXUXUXUXUXUXUXUXUXUXUXUXUXUXUXUXUXUXUXUXUXUXUXUXUXUXUXUXUXUXUXUXUXUXUXUXUXUXUXUXUXUXUXUXUXUXUXUXUXUXUXUXUXUXUXUXUXUXUXUXUXUXUXUXUXUXUXUXUX",
"UXUXUXUXUXUXUXUXUXUXUXUXUXUXUXUXUXUXUXUXUXUXUXUXUXUXUXUXUXUXUXUXUXUXUXUXUXUXUXUXUXUXUXUXUXUXUXUXUXUXUXUXUXUXUXUXUXUXUXUXUXUXUXUXUXUXUXUXUXUXUXUXUXUXUXUXUXUXUXUXUXUXUXUXUXUXUXUXUXUXUXUXUXUXUXUXUXUXUXUXUXUXUXUXUXUXUXUXUXUXUXUXUXUXUXUXUXUXUXUXUXUXUXUXUXUXUXUXUXUXUXUXUXUXUXUXUXUXUXUXUXUXUXUXUXUXUXUXUXUXUXUXUXUXUXUXUXUXUXUXUXUXUXUXUXUXUXUXUXUXUXUXUXUXUXUXUXUXUXUXUXUXUXUXUXUXUXUXUXUXUXUXUXUXUXUXUXUXUXUXUXUXUXUXUXUXUXUXUXUXUXUXUXUXUXUXUXUXUXUXUXUXUXUXUXUXUXUXUXUXUXUXUXUXUXUXUXUXUXUXUXUXUXUXUXUXUXUXUXUXUXUXUXUXUXUX",
"UXUXUXUXUXUXUXUXUXUXUXUXUXUXUXUXUXUXUXUXUXUXUXUXUXUXUXUXUXUXUXUXUXUXUXUXUXUXUXUXUXUXUXUXUXUXUXUXUXUXUXUXUXUXUXUXUXUXUXUXUXUXUXUXUXUXUXUXUXUXUXUXUXUXUXUXUXUXUXUXUXUXUXUXUXUXUXUXUXUXUXUXUXUXUXUXUXUXUXUXUXUXUXUXUXUXUXUXUXUXUXUXUXUXUXUXUXUXUXUXUXUXUXUXUXUXUXUXUXUXUXUXUXUXUXUXUXUXUXUXUXUXUXUXUXUXUXUXUXUXUXUXUXUXUXUXUXUXUXUXUXUXUXUXUXUXUXUXUXUXUXUXUXUXUXUXUXUXUXUXUXUXUXUXUXUXUXUXUXUXUXUXUXUXUXUXUXUXUXUXUXUXUXUXUXUXUXUXUXUXUXUXUXUXUXUXUXUXUXUXUXUXUXUXUXUXUXUXUXUXUXUXUXUXUXUXUXUXUXUXUXUXUXUXUXUXUXUXUXUXUXUXUXUXUXUX",
"UXUXUXUXUXUXUXUXUXUXUXUXUXUXUXUXUXUXUXUXUXUXUXUXUXUXUXUXUXUXUXUXUXUXUXUXUXUXUXUXUXUXUXUXUXUXUXUXUXUXUXUXUXUXUXUXUXUXUXUXUXUXUXUXUXUXUXUXUXUXUXUXUXUXUXUXUXUXUXUXUXUXUXUXUXUXUXUXUXUXUXUXUXUXUXUXUXUXUXUXUXUXUXUXUXUXUXUXUXUXUXUXUXUXUXUXUXUXUXUXUXUXUXUXUXUXUXUXUXUXUXUXUXUXUXUXUXUXUXUXUXUXUXUXUXUXUXUXUXUXUXUXUXUXUXUXUXUXUXUXUXUXUXUXUXUXUXUXUXUXUXUXUXUXUXUXUXUXUXUXUXUXUXUXUXUXUXUXUXUXUXUXUXUXUXUXUXUXUXUXUXUXUXUXUXUXUXUXUXUXUXUXUXUXUXUXUXUXUXUXUXUXUXUXUXUXUXUXUXUXUXUXUXUXUXUXUXUXUXUXUXUXUXUXUXUXUXUXUXUXUXUXUXUXUXUX",
"UXUXUXUXUXUXUXUXUXUXUXUXUXUXUXUXUXUXUXUXUXUXUXUXUXUXUXUXUXUXUXUXUXUXUXUXUXUXUXUXUXUXUXUXUXUXUXUXUXUXUXUXUXUXUXUXUXUXUXUXUXUXUXUXUXUXUXUXUXUXUXUXUXUXUXUXUXUXUXUXUXUXUXUXUXUXUXUXUXUXUXUXUXUXUXUXUXUXUXUXUXUXUXUXUXUXUXUXUXUXUXUXUXUXUXUXUXUXUXUXUXUXUXUXUXUXUXUXUXUXUXUXUXUXUXUXUXUXUXUXUXUXUXUXUXUXUXUXUXUXUXUXUXUXUXUXUXUXUXUXUXUXUXUXUXUXUXUXUXUXUXUXUXUXUXUXUXUXUXUXUXUXUXUXUXUXUXUXUXUXUXUXUXUXUXUXUXUXUXUXUXUXUXUXUXUXUXUXUXUXUXUXUXUXUXUXUXUXUXUXUXUXUXUXUXUXUXUXUXUXUXUXUXUXUXUXUXUXUXUXUXUXUXUXUXUXUXUXUXUXUXUXUXUXUXUX",
"UXUXUXUXUXUXUXUXUXUXUXUXUXUXUXUXUXUXUXUXUXUXUXUXUXUXUXUXUXUXUXUXUXUXUXUXUXUXUXUXUXUXUXUXUXUXUXUXUXUXUXUXUXUXUXUXUXUXUXUXUXUXUXUXUXUXUXUXUXUXUXUXUXUXUXUXUXUXUXUXUXUXUXUXUXUXUXUXUXUXUXUXUXUXUXUXUXUXUXUXUXUXUXUXUXUXUXUXUXUXUXUXUXUXUXUXUXUXUXUXUXUXUXUXUXUXUXUXUXUXUXUXUXUXUXUXUXUXUXUXUXUXUXUXUXUXUXUXUXUXUXUXUXUXUXUXUXUXUXUXUXUXUXUXUXUXUXUXUXUXUXUXUXUXUXUXLXKXUXUXUXUXUXUXUXUXUXUXUXUXUXUXUXUXUXUXUXUXUXUXUXUXUXUXUXUXUXUXUXUXUXUXUXUXUXUXUXUXUXUXUXUXUXUXUXUXUXUXUXUXUXUXUXUXUXUXUXUXUXUXUXUXUXUXUXUXUXUXUXUXUXUXUXUXUXUX",
"UXUXUXUXUXUXUXUXUXUXUXUXUXUXUXUXUXUXUXUXUXUXUXUXUXUXUXUXUXUXUXUXUXUXUXUXUXUXUXUXUXUXUXUXUXUXUXUXUXUXUXUXUXUXUXUXUXUXUXUXUXUXUXUXUXUXUXUXUXUXUXUXUXUXUXUXUXUXUXUXUXUXUXUXUXUXUXUXUXUXUXUXUXUXUXUXUXUXUXUXUXUXUXUXUXUXUXUXUXUXUXUXUXUXUXUXUXUXUXUXUXUXUXUXUXUXUXUXUXUXUXUXUXUXUXUXUXUXUXUXUXUXUXUXUXUXUXUXUXUXUXUXUXUXUXUXUXUXUXUXUXUXUXUXUXUXUXUXUXUXUXUXUXUXUXUXUX;XUXUXUXUXUXUXUXUXUXUXUXUXUXUXUXUXUXUXUXUXUXUXUXUXUXUXUXUXUXUXUXUXUXUXUXUXUXUXUXUXUXUXUXUXUXUXUXUXUXUXUXUXUXUXUXUXUXUXUXUXUXUXUXUXUXUXUXUXUXUXUXUXUXUXUXUXUXUX",
"UXUXUXUXUXUXUXUXUXUXUXUXUXUXUXUXUXUXUXUXUXUXUXUXUXUXUXUXUXUXUXUXUXUXUXUXUXUXUXUXUXUXUXUXUXUXUXUXUXUXUXUXUXUXUXUXUXUXUXUXUXUXUXUXUXUXUXUXUXUXUXUXUXUXUXUXUXUXUXUXUXUXUXUXUXUXUXUXUXUXUXUXUXUXUXUXUXUXUXUXUXUXUXUXUXUXUXUXUXUXUXUXUXUXUXUXUXUXUXUXUXUXUXUXUXUXUXUXUXUXUXUXUXUXUXUXUXUXUXUXUXUXUXUXUXUXUXUXUXUXUXUXUXUXUXUXUXUXUXUXUXUXUXUXUXUXUXUXUXUXUXUXUXUXUXUXUXUXUXUXUXUXUXUXUXUXUXUXUXUXUXUXUXUXUXUXUXUXUXUXUXUXUXUXUXUXUXUXUXUXUXUXUXUXUXUXUXUXUXUXUXUXUXUXUXUXUXUXUXUXUXUXUXUXUXUXUXUXUXUXUXUXUXUXUXUXUXUXUXUXUXUXUXUXUXUX",
"UXUXUXUXUXUXUXUXUXUXUXUXUXUXUXUXUXUXUXUXUXUXUXUXUXUXUXUXUXUXUXUXUXUXUXUXUXUXUXUXUXUXUXUXUXUXUXUXUXUXUXUXUXUXUXUXUXUXUXUXUXUXUXUXUXUXUXUXUXUXUXUXUXUXUXUXUXUXUXUXUXUXUXUXUXUXUXUXUXUXUXUXUXUXUXUXUXUXUXUXUXUXUXUXUXUXUXUXUXUXUXUXUXUXUXUXUXUXUXUXUXUXUXUXUXUXUXUXUXUXUXUXUXUXUXUXUXUXUXUXUXUXUXUXUXUXUXUXUXUXUXUXUXUXUXUXUXUXUXUXUXUXUXUXUXUXUXUXUXUXUXUXUXUXUXUXUXUXUXUXUXUXUXUXUXUXUXUXUXUXUXUXUXUXUXUXUXUXUXUXUXUXUXUXUXUXUXUXUXUXUXUXUXUXUXUXUXUXUXUXUXUXUXUXUXUXUXUXUXUXUXUXUXUXUXUXUXUXUXUXUXUXUXUXUXUXUXUXUXUXUXUXUXUXUXUX",
"UXUXUXUXUXUXUXUXUXUXUXUXUXUXUXUXUXUXUXUXUXUXUXUXUXUXUXUXUXUXUXUXUXUXUXUXUXUXUXUXUXUXUXUXUXUXUXUXUXUXUXUXUXUXUXUXUXUXUXUXUXUXUXUXUXUXUXUXUXUXUXUXUXUXUXUXUXUXUXUXUXUXUXUXUXUXUXUXUXUXUXUXUXUXUXUXUXUXUXUXUXUXUXUXUXUXUXUXUXUXUXUXUXUXUXUXUXUXUXUXUXUXUXUXUXUXUXUXUXUXUXUXUXUXUXUXUXUXUXUXUXUXUXUXUXUXUXUXUXUXUXUXUXUXUXUXUXUXUXUXUXUXUXUXUXUXUXUXUXUXUXUXUXUXUXUXUXUXUXUXUXUXUXUXUXUXUXUXUXUXUXUXUXUXUXUXUXUXUXUXUXUXUXUXUXUXUXUXUXUXUXUXUXUXUXUXUXUXUXUXUXUXUXUXUXUXUXUXUXUXUXUXUXUXUXUXUXUXUXUXUXUXUXUXUXUXUXUXUXUXUXUXUXUXUXUX",
"UXUXUXUXUXUXUXUXUXUXUXUXUXUXUXUXUXUXUXUXUXUXUXUXUXUXUXUXUXUXUXUXUXUXUXUXUXUXUXUXUXUXUXUXUXUXUXUXUXUXUXUXUXUXUXUXUXUXUXUXUXUXUXUXUXUXUXUXUXUXUXUXUXUXUXUXUXUXUXUXUXUXUXUXUXUXUXUXUXUXUXUXUXUXUXUXUXUXUXUXUXUXUXUXUXUXUXUXUXUXUXUXUXUXUXUXUXUXUXUXUXUXUXUXUXUXUXUXUXUXUXUXUXUXUXUXUXUXUXUXUXUXUXUXUXUXUXUXUXUXUXUXUXUXUXUXUXUXUXUXUXUXUXUXUXUXUXUXUXUXUXUXUXUXUXUXUXUXUXUXUXUXUXUXUXUXUXUXUXUXUXUXUXUXUXUXUXUXUXUXUXUXUXUXUXUXUXUXUXUXUXUXUXUXUXUXUXUXUXUXUXUXUXUXUXUXUXUXUXUXUXUXUXUXUXUXUXUXUXUXUXUXUXUXUXUXUXUXUXUXUXUXUXUXUXUX",
"UXUXUXUXUXUXUXUXUXUXUXUXUXUXUXUXUXUXUXUXUXUXUXUXUXUXUXUXUXUXUXUXUXUXUXUXUXUXUXUXUXUXUXUXUXUXUXUXUXUXUXUXUXUXUXUXUXUXUXUXUXUXUXUXUXUXUXUXUXUXUXUXUXUXUXUXUXUXUXUXUXUXUXUXUXUXUXUXUXUXUXUXUXUXUXUXUXUXUXUXUXUXUXUXUXUXUXUXUXUXUXUXUXUXUXUXUXUXUXUXUXUXUXUXUXUXUXUXUXUXUXUXUXUXUXUXUXUXUXUXUXUXUXUXUXUXUXUXUXUXUXUXUXUXUXUXUXUXUXUXUXUXUXUXUXUXUXUXUXUXUXUXUXUXUXUXUXUXUXUXUXUXUXUXUXUXUXUXUXUXUXUXUXUXUXUXUXUXUXUXUXUXUXUXUXUXUXUXUXUXUXUXUXUXUXUXUXUXUXUXUXUXUXUXUXUXUXUXUXUXUXUXUXUXUXUXUXUXUXUXUXUXUXUXUXUXUXUXUXUXUXUXUXUXUXUX",
"UXUXUXUXUXUXUXUXUXUXUXUXUXUXUXUXUXUXUXUXUXUXUXUXUXUXUXUXUXUXUXUXUXUXUXUXUXUXUXUXUXUXUXUXUXUXUXUXUXUXUXUXUXUXUXUXUXUXUXUXUXUXUXUXUXUXUXUXUXUXUXUXUXUXUXUXUXUXUXUXUXUXUXUXUXUXUXUXUXUXUXUXUXUXUXUXUXUXUXUXUXUXUXUXUXUXUXUXUXUXUXUXUXUXUXUXUXUXUXUXUXUXUXUXUXUXUXUXUXUXUXUXUXUXUXUXUXUXUXUXUXUXUXUXUXUXUXUXUXUXUXUXUXUXUXUXUXUXUXUXUXUXUXUXUXUXUXUXUXUXUXUXUXUXUXUXUXUXUXUXUXUXUXUXUXUXUXUXUXUXUXUXUXUXUXUXUXUXUXUXUXUXUXUXUXUXUXUXUXUXUXUXUXUXUXUXUXUXUXUXUXUXUXUXUXUXUXUXUXUXUXUXUXUXUXUXUXUXUXUXUXUXUXUXUXUXUXUXUXUXUXUXUXUXUXUX",
"UXUXUXUXUXUXUXUXUXUXUXUXUXUXUXUXUXUXUXUXUXUXUXUXUXUXUXUXUXUXUXUXUXUXUXUXUXUXUXUXUXUXUXUXUXUXUXUXUXUXUXUXUXUXUXUXUXUXUXUXUXUXUXUXUXUXUXUXUXUXUXUXUXUXUXUXUXUXUXUXUXUXUXUXUXUXUXUXUXUXUXUXUXUXUXUXUXUXUXUXUXUXUXUXUXUXUXUXUXUXUXUXUXUXUXUXUXUXUXUXUXUXUXUXUXUXUXUXUXUXUXUXUXUXUXUXUXUXUXUXUXUXUXUXUXUXUXUXUXUXUXUXUXUXUXUXUXUXUXUXUXUXUXUXUXUXUXUXUXUXUXUXUXUXUXUXUXUXUXUXUXUXUXUXUXUXUXUXUXUXUXUXUXUXUXUXUXUXUXUXUXUXUXUXUXUXUXUXUXUXUXUXUXUXUXUXUXUXUXUXUXUXUXUXUXUXUXUXUXUXUXUXUXUXUXUXUXUXUXUXUXUXUXUXUXUXUXUXUXUXUXUXUXUXUXUX",
"UXUXUXUXUXUXUXUXUXUXUXUXUXUXUXUXUXUXUXUXUXUXUXUXUXUXUXUXUXUXUXUXUXUXUXUXUXUXUXUXUXUXUXUXUXUXUXUXUXUXUXUXUXUXUXUXUXUXUXUXUXUXUXUXUXUXUXUXUXUXUXUXUXUXUXUXUXUXUXUXUXUXUXUXUXUXUXUXUXUXUXUXUXUXUXUXUXUXUXUXUXUXUXUXUXUXUXUXUXUXUXUXUXUXUXUXUXUXUXUXUXUXUXUXUXUXUXUXUXUXUXUXUXUXUXUXUXUXUXUXUXUXUXUXUXUXUXUXUXUXUXUXUXUXUXUXUXUXUXUXUXUXUXUXUXUXUXUXUXUXUXUXUXUXUXUXUXUXUXUXUXUXUXUXUXUXUXUXUXUXUXUXUXUXUXUXUXUXUXUXUXUXUXUXUXUXUXUXUXUXUXUXUXUXUXUXUXUXUXUXUXUXUXUXUXUXUXUXUXUXUXUXUXUXUXUXUXUXUXUXUXUXUXUXUXUXUXUXUXUXUXUXUXUXUXUX",
"UXUXUXUXUXUXUXUXUXUXUXUXUXUXUXUXUXUXUXUXUXUXUXUXUXUXUXUXUXUXUXUXUXUXUXUXUXUXUXUXUXUXUXUXUXUXUXUXUXUXUXUXUXUXUXUXUXUXUXUXUXUXUXUXUXUXUXUXUXUXUXUXUXUXUXUXUXUXUXUXUXUXUXUXUXUXUXUXUXUXUXUXUXUXUXUXUXUXUXUXUXUXUXUXUXUXUXUXUXUXUXUXUXUXUXUXUXUXUXUXUXUXUXUXUXUXUXUXUXUXUXUXUXUXUXUXUXUXUXUXUXUXUXUXUXUXUXUXUXUXUXUXUXUXUXUXUXUXUXUXUXUXUXUXUXUXUXUXUXUXUXUXUXUXUXUXUXUXUXUXUXUXUXUXUXUXUXUXUXUXUXUXUXUXUXUXUXUXUXUXUXUXUXUXUXUXUXUXUXUXUXUXUXUXUXUXUXUXUXUXUXUXUXUXUXUXUXUXUXUXUXUXUXUXUXUXUXUXUXUXUXUXUXUXUXUXUXUXUXUXUXUXUXUXUXUX",
"UXUXUXUXUXUXUXUXUXUXUXUXUXUXUXUXUXUXUXUXUXUXUXUXUXUXUXUXUXUXUXUXUXUXUXUXUXUXUXUXUXUXUXUXUXUXUXUXUXUXUXUXUXUXUXUXUXUXUXUXUXUXUXUXUXUXUXUXUXUXUXUXUXUXUXUXUXUXUXUXUXUXUXUXUXUXUXUXUXUXUXUXUXUXUXUXUXUXUXUXUXUXUXUXUXUXUXUXUXUXUXUXUXUXUXUXUXUXUXUXUXUXUXUXUXUXUXUXUXUXUXUXUXUXUXUXUXUXUXUXUXUXUXUXUXUXUXUXUXUXUXUXUXUXUXUXUXUXUXUXUXUXUXUXUXUXUXUXUXUXUXUXUXUXUXUXUXUXUXUXUXUXUXUXUXUXUXUXUXUXUXUXUXUXUXUXUXUXUXUXUXUXUXUXUXUXUXUXUXUXUXUXUXUXUXUXUXUXUXUXUXUXUXUXUXUXUXUXUXUXUXUXUXUXUXUXUXUXUXUXUXUXUXUXUXUXUXUXUXUXUXUXUXUXUXUX",
"UXUXUXUXUXUXUXUXUXUXUXUXUXUXUXUXUXUXUXUXUXUXUXUXUXUXUXUXUXUXUXUXUXUXUXUXUXUXUXUXUXUXUXUXUXUXUXUXUXUXUXUXUXUXUXUXUXUXUXUXUXUXUXUXUXUXUXUXUXUXUXUXUXUXUXUXUXUXUXUXUXUXUXUXUXUXUXUXUXUXUXUXUXUXUXUXUXUXUXUXUXUXUXUXUXUXUXUXUXUXUXUXUXUXUXUXUXUXUXUXUXUXUXUXUXUXUXUXUXUXUXUXUXUXUXUXUXUXUXUXUXUXUXUXUXUXUXUXUXUXUXUXUXUXUXUXUXUXUXUXUXUXUXUXUXUXUXUXUXUXUXUXUXUXUXUXUXUXUXUXUXUXUXUXUXUXUXUXUXUXUXUXUXUXUXUXUXUXUXUXUXUXUXUXUXUXUXUXUXUXUXUXUXUXUXUXUXUXUXUXUXUXUXUXUXUXUXUXUXUXUXUXUXUXUXUXUXUXUXUXUXUXUXUXUXUXUXUXUXUXUXUXUXUXUXUX",
"UXUXUXUXUXUXUXUXUXUXUXUXUXUXUXUXUXUXUXUXUXUXUXUXUXUXUXUXUXUXUXUXUXUXUXUXUXUXUXUXUXUXUXUXUXUXUXUXUXUXUXUXUXUXUXUXUXUXUXUXUXUXUXUXUXUXUXUXUXUXUXUXUXUXUXUXUXUXUXUXUXUXUXUXUXUXUXUXUXUXUXUXUXUXUXUXUXUXUXUXUXUXUXUXUXUXUXUXUXUXUXUXUXUXUXUXUXUXUXUXUXUXUXUXUXUXUXUXUXUXUXUXUXUXUXUXUXUXUXUXUXUXUXUXUXUXUXUXUXUXUXUXUXUXUXUXUXUXUXUXUXUXUXUXUXUXUXUXUXUXUXUXUXUXUXUXUXUXUXUXUXUXUXUXUXUXUXUXUXUXUXUXUXUXUXUXUXUXUXUXUXUXUXUXUXUXUXUXUXUXUXUXUXUXUXUXUXUXUXUXUXUXUXUXUXUXUXUXUXUXUXUXUXUXUXUXUXUXUXUXUXUXUXUXUXUXUXUXUXUXUXUXUXUXUXUX"
};
