/* XPM */
static char *result[] = {
/* columns rows colors chars-per-pixel */
"16 16 87 1 ",
"  c #0C1646",
". c #0C1844",
"X c #0E164B",
"o c #16204D",
"O c #162159",
"+ c #11215C",
"@ c #1A2B5C",
"# c #1B1E6D",
"$ c #122365",
"% c #1C2467",
"& c #1E266B",
"* c #142775",
"= c #1F2E71",
"- c #182F7F",
"; c #202862",
": c #232F63",
"> c #27376D",
", c #343668",
"< c #263D7F",
"1 c #324972",
"2 c #434771",
"3 c #454870",
"4 c #1B2F80",
"5 c #1C3587",
"6 c #212682",
"7 c #273884",
"8 c #2B358D",
"9 c #303883",
"0 c #363C80",
"q c #333E97",
"w c #382BA0",
"e c #3233A0",
"r c #4E2FB0",
"t c #4139B7",
"y c #38448D",
"u c #32518A",
"i c #274094",
"p c #2C429C",
"a c #3D419D",
"s c #414586",
"d c #5C5C88",
"f c #494D9C",
"g c #695C85",
"h c #6C739F",
"j c #585BA2",
"k c #4657B7",
"l c #4E5AB6",
"z c #5458B2",
"x c #536EA4",
"c c #7C7AA3",
"v c #6F69B6",
"b c #7D37DA",
"n c #386ECF",
"m c #4C47CF",
"M c #4D6AC2",
"N c #5363C4",
"B c #5A64C9",
"V c #5C76C4",
"C c #5C76DB",
"Z c #7B70C6",
"A c #7B69DE",
"S c #725FEE",
"D c #AE6AB5",
"F c #8E5AFC",
"G c #D27CF0",
"H c #7583A6",
"J c #7294B9",
"K c #52A4E9",
"L c #71A7E6",
"P c #68A7F3",
"I c #7EABFB",
"U c #7FD3F1",
"Y c #9F88BB",
"T c #9990B5",
"R c #9187C4",
"E c #8192D5",
"W c #89BCCE",
"Q c #8AA5D2",
"! c #94A3E8",
"~ c #99BBF9",
"^ c #B0B1E6",
"/ c #A4A9FA",
"( c #B7DBE7",
") c #B1DAED",
"_ c #BBE1FA",
"` c #C1F1FD",
"' c None",
/* pixels */
"''''''''''''''''",
"''''''''''''''''",
"'''''Z'''''''D''",
"''T/I)V''''Ab'''",
"'''R~`(x'''tr'''",
"'''ajE_!'''#wY''",
"'''*zs4N^''X6c''",
"'''58v:+q'' -H''",
"'''pO;2y=9'&$'''",
"''Qk%3odB70,.'''",
"''lme'1@hCif>'''",
"'''FS''u<JPnM'''",
"'''Gg'''''WUKL''",
"''''''''''''''''",
"''''''''''''''''",
"''''''''''''''''"
};
